;FLAVOR:Marlin
;TIME:150
;Filament used: 0.245517m, 0m
;Layer height: 0.2
;MINX:22.742
;MINY:22.742
;MINZ:0.2
;MAXX:277.258
;MAXY:277.258
;MAXZ:0.7
;Generated with Cura_SteamEngine 5.2.1
T0
M104 S200
M104 T1 S200
M82 ;absolute extrusion mode
;----------Proforge 3.5 Start G-code---------- 
G92 E0 ;Zero Extruder 
M82 ;absolute extrusion mode 
M190 S60 ;wait for bed temp 
G28 ;Home 
Z_TILT_ADJUST
G28
BED_MESH_PROFILE LOAD=mesh_60c ; Load bed Mesh.
G0 F8000 X150 Y25 Z0.5;Move hotend to bottom center
G1 F1500 X250 E20 ;Prime Hotend 
T1
G0 F8000 X150 Y25 Z0.5;Move hotend to bottom center
G1 F1500 X250 E20 ;Prime Hotend 
T0;
; ----------Proforge 3.5 Start G-code----------
G92 E0
G92 E0
G1 F3600 E-2
;LAYER_COUNT:1
;LAYER:0
M107
M204 S1000
G1 F600 Z0.7
;MESH:Print-Z_Test 0.20 v2.stl(4)
G0 F7800 X23.71 Y23.71 Z0.7
M204 S750
;TYPE:WALL-INNER
G1 F600 Z0.2
G1 F3600 E0
G1 F4800 X23.71 Y36.29 E0.50628
G1 X36.29 Y36.29 E1.01256
G1 X36.29 Y30 E1.2657
G1 X36.29 Y23.71 E1.51884
G1 X23.71 Y23.71 E2.02512
M204 S1000
G0 F7800 X23.226 Y23.226
M204 S750
G1 F4800 X23.226 Y36.774 E2.57035
G1 X36.774 Y36.774 E3.11559
G1 X36.774 Y30 E3.38821
G1 X36.774 Y23.226 E3.66082
G1 X23.226 Y23.226 E4.20606
M204 S1000
G0 F7800 X22.742 Y22.742
M204 S750
;TYPE:WALL-OUTER
G1 F4800 X22.742 Y37.258 E4.79025
G1 X37.258 Y37.258 E5.37445
G1 X37.258 Y30 E5.66654
G1 X37.258 Y22.742 E5.95864
G1 X22.742 Y22.742 E6.54283
M204 S1000
G0 F7800 X23.39 Y23.39
G0 X24.15 Y24.15
M204 S750
;TYPE:SKIN
G1 F4800 X24.15 Y35.85 E7.0137
G1 X35.85 Y35.85 E7.48456
G1 X35.85 Y24.15 E7.95542
G1 X24.15 Y24.15 E8.42629
M204 S1000
G0 F7800 X35.344 Y24.392
M204 S750
G1 F4800 X35.607 Y24.656 E8.44128
M204 S1000
G0 F7800 X35.607 Y25.34
M204 S750
G1 F4800 X34.659 Y24.392 E8.49524
M204 S1000
G0 F7800 X33.975 Y24.392
M204 S750
G1 F4800 X35.607 Y26.025 E8.58815
M204 S1000
G0 F7800 X35.607 Y26.709
M204 S750
G1 F4800 X33.29 Y24.392 E8.72002
M204 S1000
G0 F7800 X32.606 Y24.392
M204 S750
G1 F4800 X35.607 Y27.394 E8.89085
M204 S1000
G0 F7800 X35.607 Y28.078
M204 S750
G1 F4800 X31.921 Y24.392 E9.10064
M204 S1000
G0 F7800 X31.237 Y24.392
M204 S750
G1 F4800 X35.607 Y28.762 E9.34936
M204 S1000
G0 F7800 X35.607 Y29.447
M204 S750
G1 F4800 X30.552 Y24.392 E9.63706
M204 S1000
G0 F7800 X29.868 Y24.392
M204 S750
G1 F4800 X35.607 Y30.131 E9.9637
M204 S1000
G0 F7800 X35.607 Y30.816
M204 S750
G1 F4800 X29.183 Y24.392 E10.32932
M204 S1000
G0 F7800 X28.499 Y24.392
M204 S750
G1 F4800 X35.607 Y31.5 E10.73387
M204 S1000
G0 F7800 X35.607 Y32.185
M204 S750
G1 F4800 X27.814 Y24.392 E11.1774
M204 S1000
G0 F7800 X27.13 Y24.392
M204 S750
G1 F4800 X35.607 Y32.869 E11.65987
M204 S1000
G0 F7800 X35.607 Y33.554
M204 S750
G1 F4800 X26.445 Y24.392 E12.18132
M204 S1000
G0 F7800 X25.761 Y24.392
M204 S750
G1 F4800 X35.607 Y34.238 E12.7417
M204 S1000
G0 F7800 X35.607 Y34.923
M204 S750
G1 F4800 X25.076 Y24.392 E13.34107
M204 S1000
G0 F7800 X24.391 Y24.391
M204 S750
G1 F4800 X35.607 Y35.607 E13.97943
M204 S1000
G0 F7800 X34.922 Y35.607
M204 S750
G1 F4800 X24.391 Y25.076 E14.57879
M204 S1000
G0 F7800 X24.391 Y25.76
M204 S750
G1 F4800 X34.238 Y35.607 E15.13923
M204 S1000
G0 F7800 X33.553 Y35.607
M204 S750
G1 F4800 X24.391 Y26.445 E15.66069
M204 S1000
G0 F7800 X24.391 Y27.129
M204 S750
G1 F4800 X32.869 Y35.607 E16.14321
M204 S1000
G0 F7800 X32.184 Y35.607
M204 S750
G1 F4800 X24.391 Y27.814 E16.58674
M204 S1000
G0 F7800 X24.391 Y28.498
M204 S750
G1 F4800 X31.5 Y35.607 E16.99135
M204 S1000
G0 F7800 X30.815 Y35.607
M204 S750
G1 F4800 X24.391 Y29.183 E17.35697
M204 S1000
G0 F7800 X24.391 Y29.867
M204 S750
G1 F4800 X30.131 Y35.607 E17.68366
M204 S1000
G0 F7800 X29.446 Y35.607
M204 S750
G1 F4800 X24.391 Y30.551 E17.97139
M204 S1000
G0 F7800 X24.391 Y31.236
M204 S750
G1 F4800 X28.762 Y35.607 E18.22017
M204 S1000
G0 F7800 X28.077 Y35.607
M204 S750
G1 F4800 X24.391 Y31.92 E18.42998
M204 S1000
G0 F7800 X24.391 Y32.605
M204 S750
G1 F4800 X27.393 Y35.607 E18.60084
M204 S1000
G0 F7800 X26.708 Y35.607
M204 S750
G1 F4800 X24.391 Y33.289 E18.73274
M204 S1000
G0 F7800 X24.391 Y33.974
M204 S750
G1 F4800 X26.024 Y35.607 E18.82568
M204 S1000
G0 F7800 X25.339 Y35.607
M204 S750
G1 F4800 X24.391 Y34.658 E18.87967
M204 S1000
G0 F7800 X24.391 Y35.343
M204 S750
G1 F4800 X24.655 Y35.607 E18.89469
M204 S1000
G1 F3600 E16.89469
G1 F600 Z0.7
;MESH:Print-Z_Test 0.20 v2.stl(8)
G0 F7800 X24.655 Y35.607 Z0.7
G0 X83.71 Y83.71
M204 S750
;TYPE:WALL-INNER
G1 F600 Z0.2
G1 F3600 E18.89469
G1 F4800 X83.71 Y96.29 E19.40097
G1 X96.29 Y96.29 E19.90725
G1 X96.29 Y90 E20.16039
G1 X96.29 Y83.71 E20.41353
G1 X83.71 Y83.71 E20.91981
M204 S1000
G0 F7800 X83.226 Y83.226
M204 S750
G1 F4800 X83.226 Y96.774 E21.46504
G1 X96.774 Y96.774 E22.01028
G1 X96.774 Y90 E22.2829
G1 X96.774 Y83.226 E22.55552
G1 X83.226 Y83.226 E23.10075
M204 S1000
G0 F7800 X82.742 Y82.742
M204 S750
;TYPE:WALL-OUTER
G1 F4800 X82.742 Y97.258 E23.68495
G1 X97.258 Y97.258 E24.26914
G1 X97.258 Y90 E24.56124
G1 X97.258 Y82.742 E24.85333
G1 X82.742 Y82.742 E25.43752
M204 S1000
G0 F7800 X83.39 Y83.39
G0 X84.15 Y84.15
M204 S750
;TYPE:SKIN
G1 F4800 X84.15 Y95.85 E25.90839
G1 X95.85 Y95.85 E26.37925
G1 X95.85 Y84.15 E26.85012
G1 X84.15 Y84.15 E27.32098
M204 S1000
G0 F7800 X95.344 Y84.392
M204 S750
G1 F4800 X95.607 Y84.656 E27.33598
M204 S1000
G0 F7800 X95.607 Y85.34
M204 S750
G1 F4800 X94.659 Y84.392 E27.38993
M204 S1000
G0 F7800 X93.975 Y84.392
M204 S750
G1 F4800 X95.607 Y86.025 E27.48284
M204 S1000
G0 F7800 X95.607 Y86.709
M204 S750
G1 F4800 X93.29 Y84.392 E27.61472
M204 S1000
G0 F7800 X92.606 Y84.392
M204 S750
G1 F4800 X95.607 Y87.394 E27.78555
M204 S1000
G0 F7800 X95.607 Y88.078
M204 S750
G1 F4800 X91.921 Y84.392 E27.99533
M204 S1000
G0 F7800 X91.237 Y84.392
M204 S750
G1 F4800 X95.607 Y88.763 E28.24408
M204 S1000
G0 F7800 X95.607 Y89.447
M204 S750
G1 F4800 X90.552 Y84.392 E28.53178
M204 S1000
G0 F7800 X89.868 Y84.392
M204 S750
G1 F4800 X95.607 Y90.132 E28.85844
M204 S1000
G0 F7800 X95.607 Y90.816
M204 S750
G1 F4800 X89.183 Y84.392 E29.22406
M204 S1000
G0 F7800 X88.499 Y84.392
M204 S750
G1 F4800 X95.607 Y91.501 E29.62864
M204 S1000
G0 F7800 X95.607 Y92.185
M204 S750
G1 F4800 X87.814 Y84.392 E30.07218
M204 S1000
G0 F7800 X87.13 Y84.392
M204 S750
G1 F4800 X95.607 Y92.869 E30.55464
M204 S1000
G0 F7800 X95.607 Y93.554
M204 S750
G1 F4800 X86.445 Y84.392 E31.0761
M204 S1000
G0 F7800 X85.761 Y84.392
M204 S750
G1 F4800 X95.607 Y94.238 E31.63648
M204 S1000
G0 F7800 X95.607 Y94.923
M204 S750
G1 F4800 X85.076 Y84.392 E32.23585
M204 S1000
G0 F7800 X84.391 Y84.391
M204 S750
G1 F4800 X95.607 Y95.607 E32.8742
M204 S1000
G0 F7800 X94.922 Y95.607
M204 S750
G1 F4800 X84.391 Y85.076 E33.47357
M204 S1000
G0 F7800 X84.391 Y85.76
M204 S750
G1 F4800 X94.238 Y95.607 E34.03401
M204 S1000
G0 F7800 X93.553 Y95.607
M204 S750
G1 F4800 X84.391 Y86.445 E34.55546
M204 S1000
G0 F7800 X84.391 Y87.129
M204 S750
G1 F4800 X92.869 Y95.607 E35.03799
M204 S1000
G0 F7800 X92.184 Y95.607
M204 S750
G1 F4800 X84.391 Y87.814 E35.48152
M204 S1000
G0 F7800 X84.391 Y88.498
M204 S750
G1 F4800 X91.5 Y95.607 E35.88613
M204 S1000
G0 F7800 X90.815 Y95.607
M204 S750
G1 F4800 X84.391 Y89.183 E36.25175
M204 S1000
G0 F7800 X84.391 Y89.867
M204 S750
G1 F4800 X90.131 Y95.607 E36.57844
M204 S1000
G0 F7800 X89.446 Y95.607
M204 S750
G1 F4800 X84.391 Y90.552 E36.86614
M204 S1000
G0 F7800 X84.391 Y91.236
M204 S750
G1 F4800 X88.762 Y95.607 E37.11492
M204 S1000
G0 F7800 X88.077 Y95.607
M204 S750
G1 F4800 X84.391 Y91.921 E37.3247
M204 S1000
G0 F7800 X84.391 Y92.605
M204 S750
G1 F4800 X87.393 Y95.607 E37.49556
M204 S1000
G0 F7800 X86.708 Y95.607
M204 S750
G1 F4800 X84.391 Y93.29 E37.62743
M204 S1000
G0 F7800 X84.391 Y93.974
M204 S750
G1 F4800 X86.024 Y95.607 E37.72037
M204 S1000
G0 F7800 X85.34 Y95.607
M204 S750
G1 F4800 X84.391 Y94.658 E37.77439
M204 S1000
G0 F7800 X84.391 Y95.343
M204 S750
G1 F4800 X84.655 Y95.607 E37.78941
M204 S1000
G1 F3600 E35.78941
G1 F600 Z0.7
;MESH:Print-Z_Test 0.20 v2.stl
G0 F7800 X84.655 Y95.607 Z0.7
G0 X143.71 Y143.71
M204 S750
;TYPE:WALL-INNER
G1 F600 Z0.2
G1 F3600 E37.78941
G1 F4800 X143.71 Y156.29 E38.29569
G1 X156.29 Y156.29 E38.80197
G1 X156.29 Y150 E39.05511
G1 X156.29 Y143.71 E39.30825
G1 X143.71 Y143.71 E39.81453
M204 S1000
G0 F7800 X143.226 Y143.226
M204 S750
G1 F4800 X143.226 Y156.774 E40.35976
G1 X156.774 Y156.774 E40.905
G1 X156.774 Y150 E41.17762
G1 X156.774 Y143.226 E41.45024
G1 X143.226 Y143.226 E41.99547
M204 S1000
G0 F7800 X142.742 Y142.742
M204 S750
;TYPE:WALL-OUTER
G1 F4800 X142.742 Y157.258 E42.57967
G1 X157.258 Y157.258 E43.16386
G1 X157.258 Y150 E43.45596
G1 X157.258 Y142.742 E43.74805
G1 X142.742 Y142.742 E44.33225
M204 S1000
G0 F7800 X143.39 Y143.39
G0 X144.15 Y144.15
M204 S750
;TYPE:SKIN
G1 F4800 X144.15 Y155.85 E44.80311
G1 X155.85 Y155.85 E45.27397
G1 X155.85 Y150 E45.5094
G1 X155.85 Y144.15 E45.74484
G1 X144.15 Y144.15 E46.2157
M204 S1000
G0 F7800 X155.607 Y144.655
M204 S750
G1 F4800 X155.344 Y144.392 E46.23067
M204 S1000
G0 F7800 X154.659 Y144.392
M204 S750
G1 F4800 X155.607 Y145.34 E46.28462
M204 S1000
G0 F7800 X155.607 Y146.024
M204 S750
G1 F4800 X153.975 Y144.392 E46.37751
M204 S1000
G0 F7800 X153.29 Y144.392
M204 S750
G1 F4800 X155.607 Y146.709 E46.50938
M204 S1000
G0 F7800 X155.607 Y147.393
M204 S750
G1 F4800 X152.606 Y144.392 E46.68018
M204 S1000
G0 F7800 X151.921 Y144.392
M204 S750
G1 F4800 X155.607 Y148.078 E46.88997
M204 S1000
G0 F7800 X155.607 Y148.762
M204 S750
G1 F4800 X151.237 Y144.392 E47.13869
M204 S1000
G0 F7800 X150.552 Y144.392
M204 S750
G1 F4800 X155.607 Y149.447 E47.42639
M204 S1000
G0 F7800 X155.607 Y150.131
M204 S750
G1 F4800 X149.868 Y144.392 E47.75302
M204 S1000
G0 F7800 X149.183 Y144.392
M204 S750
G1 F4800 X155.607 Y150.815 E48.11861
M204 S1000
G0 F7800 X155.607 Y151.5
M204 S750
G1 F4800 X148.499 Y144.392 E48.52316
M204 S1000
G0 F7800 X147.815 Y144.392
M204 S750
G1 F4800 X155.607 Y152.184 E48.96664
M204 S1000
G0 F7800 X155.607 Y152.869
M204 S750
G1 F4800 X147.13 Y144.392 E49.44911
M204 S1000
G0 F7800 X146.446 Y144.392
M204 S750
G1 F4800 X155.607 Y153.553 E49.9705
M204 S1000
G0 F7800 X155.607 Y154.238
M204 S750
G1 F4800 X145.761 Y144.392 E50.53089
M204 S1000
G0 F7800 X145.077 Y144.392
M204 S750
G1 F4800 X155.607 Y154.922 E51.1302
M204 S1000
G0 F7800 X155.607 Y155.607
M204 S750
G1 F4800 X144.391 Y144.391 E51.76855
M204 S1000
G0 F7800 X144.391 Y145.076
M204 S750
G1 F4800 X154.922 Y155.607 E52.36792
M204 S1000
G0 F7800 X154.238 Y155.607
M204 S750
G1 F4800 X144.391 Y145.76 E52.92836
M204 S1000
G0 F7800 X144.391 Y146.445
M204 S750
G1 F4800 X153.553 Y155.607 E53.44981
M204 S1000
G0 F7800 X152.869 Y155.607
M204 S750
G1 F4800 X144.391 Y147.129 E53.93234
M204 S1000
G0 F7800 X144.391 Y147.814
M204 S750
G1 F4800 X152.184 Y155.607 E54.37587
M204 S1000
G0 F7800 X151.5 Y155.607
M204 S750
G1 F4800 X144.391 Y148.498 E54.78048
M204 S1000
G0 F7800 X144.391 Y149.183
M204 S750
G1 F4800 X150.815 Y155.607 E55.1461
M204 S1000
G0 F7800 X150.131 Y155.607
M204 S750
G1 F4800 X144.391 Y149.867 E55.47279
M204 S1000
G0 F7800 X144.391 Y150.552
M204 S750
G1 F4800 X149.447 Y155.607 E55.76052
M204 S1000
G0 F7800 X148.762 Y155.607
M204 S750
G1 F4800 X144.391 Y151.236 E56.0093
M204 S1000
G0 F7800 X144.391 Y151.921
M204 S750
G1 F4800 X148.078 Y155.607 E56.21911
M204 S1000
G0 F7800 X147.393 Y155.607
M204 S750
G1 F4800 X144.391 Y152.605 E56.38997
M204 S1000
G0 F7800 X144.391 Y153.29
M204 S750
G1 F4800 X146.709 Y155.607 E56.52187
M204 S1000
G0 F7800 X146.024 Y155.607
M204 S750
G1 F4800 X144.391 Y153.974 E56.61481
M204 S1000
G0 F7800 X144.391 Y154.659
M204 S750
G1 F4800 X145.34 Y155.607 E56.66879
M204 S1000
G0 F7800 X144.655 Y155.607
M204 S750
G1 F4800 X144.391 Y155.343 E56.68382
M204 S1000
G1 F3600 E54.68382
G1 F600 Z0.7
;MESH:Print-Z_Test 0.20 v2.stl(5)
G0 F7800 X144.391 Y155.343 Z0.7
G0 X203.71 Y83.71
M204 S750
;TYPE:WALL-INNER
G1 F600 Z0.2
G1 F3600 E56.68382
G1 F4800 X203.71 Y96.29 E57.1901
G1 X216.29 Y96.29 E57.69638
G1 X216.29 Y83.71 E58.20266
G1 X203.71 Y83.71 E58.70894
M204 S1000
G0 F7800 X203.226 Y83.226
M204 S750
G1 F4800 X203.226 Y96.774 E59.25417
G1 X216.774 Y96.774 E59.79941
G1 X216.774 Y83.226 E60.34464
G1 X203.226 Y83.226 E60.88988
M204 S1000
G0 F7800 X202.742 Y82.742
M204 S750
;TYPE:WALL-OUTER
G1 F4800 X202.742 Y97.258 E61.47407
G1 X217.258 Y97.258 E62.05827
G1 X217.258 Y82.742 E62.64246
G1 X202.742 Y82.742 E63.22665
M204 S1000
G0 F7800 X203.39 Y83.39
G0 X204.15 Y84.15
M204 S750
;TYPE:SKIN
G1 F4800 X204.15 Y95.85 E63.69752
G1 X215.85 Y95.85 E64.16838
G1 X215.85 Y90 E64.40381
G1 X215.85 Y84.15 E64.63924
G1 X204.15 Y84.15 E65.11011
M204 S1000
G0 F7800 X215.607 Y84.871
M204 S750
G1 F4800 X215.128 Y84.392 E65.13737
M204 S1000
G0 F7800 X214.443 Y84.392
M204 S750
G1 F4800 X215.607 Y85.556 E65.20362
M204 S1000
G0 F7800 X215.607 Y86.24
M204 S750
G1 F4800 X213.759 Y84.392 E65.3088
M204 S1000
G0 F7800 X213.074 Y84.392
M204 S750
G1 F4800 X215.607 Y86.925 E65.45296
M204 S1000
G0 F7800 X215.607 Y87.609
M204 S750
G1 F4800 X212.39 Y84.392 E65.63606
M204 S1000
G0 F7800 X211.705 Y84.392
M204 S750
G1 F4800 X215.607 Y88.294 E65.85814
M204 S1000
G0 F7800 X215.607 Y88.978
M204 S750
G1 F4800 X211.021 Y84.392 E66.11915
M204 S1000
G0 F7800 X210.336 Y84.392
M204 S750
G1 F4800 X215.607 Y89.663 E66.41915
M204 S1000
G0 F7800 X215.607 Y90.347
M204 S750
G1 F4800 X209.652 Y84.392 E66.75807
M204 S1000
G0 F7800 X208.967 Y84.392
M204 S750
G1 F4800 X215.607 Y91.032 E67.13599
M204 S1000
G0 F7800 X215.607 Y91.716
M204 S750
G1 F4800 X208.283 Y84.392 E67.55283
M204 S1000
G0 F7800 X207.598 Y84.392
M204 S750
G1 F4800 X215.607 Y92.401 E68.00866
M204 S1000
G0 F7800 X215.607 Y93.085
M204 S750
G1 F4800 X206.914 Y84.392 E68.50342
M204 S1000
G0 F7800 X206.229 Y84.392
M204 S750
G1 F4800 X215.607 Y93.77 E69.03716
M204 S1000
G0 F7800 X215.607 Y94.454
M204 S750
G1 F4800 X205.545 Y84.392 E69.60984
M204 S1000
G0 F7800 X204.86 Y84.392
M204 S750
G1 F4800 X215.607 Y95.139 E70.2215
M204 S1000
G0 F7800 X215.391 Y95.607
M204 S750
G1 F4800 X204.391 Y84.607 E70.84756
M204 S1000
G0 F7800 X204.391 Y85.291
M204 S750
G1 F4800 X214.707 Y95.607 E71.4347
M204 S1000
G0 F7800 X214.022 Y95.607
M204 S750
G1 F4800 X204.391 Y85.976 E71.98284
M204 S1000
G0 F7800 X204.391 Y86.66
M204 S750
G1 F4800 X213.338 Y95.607 E72.49206
M204 S1000
G0 F7800 X212.653 Y95.607
M204 S750
G1 F4800 X204.391 Y87.345 E72.96229
M204 S1000
G0 F7800 X204.391 Y88.029
M204 S750
G1 F4800 X211.969 Y95.607 E73.39359
M204 S1000
G0 F7800 X211.284 Y95.607
M204 S750
G1 F4800 X204.391 Y88.714 E73.7859
M204 S1000
G0 F7800 X204.391 Y89.398
M204 S750
G1 F4800 X210.6 Y95.607 E74.13928
M204 S1000
G0 F7800 X209.915 Y95.607
M204 S750
G1 F4800 X204.391 Y90.083 E74.45368
M204 S1000
G0 F7800 X204.391 Y90.767
M204 S750
G1 F4800 X209.231 Y95.607 E74.72915
M204 S1000
G0 F7800 X208.547 Y95.607
M204 S750
G1 F4800 X204.391 Y91.452 E74.96565
M204 S1000
G0 F7800 X204.391 Y92.136
M204 S750
G1 F4800 X207.862 Y95.607 E75.16321
M204 S1000
G0 F7800 X207.178 Y95.607
M204 S750
G1 F4800 X204.391 Y92.821 E75.3218
M204 S1000
G0 F7800 X204.391 Y93.505
M204 S750
G1 F4800 X206.493 Y95.607 E75.44143
M204 S1000
G0 F7800 X205.809 Y95.607
M204 S750
G1 F4800 X204.391 Y94.19 E75.52211
M204 S1000
G0 F7800 X204.391 Y94.874
M204 S750
G1 F4800 X205.124 Y95.607 E75.56383
M204 S1000
G1 F3600 E73.56383
G1 F600 Z0.7
;MESH:Print-Z_Test 0.20 v2.stl(1)
G0 F7800 X205.124 Y95.607 Z0.7
G0 X263.71 Y23.71
M204 S750
;TYPE:WALL-INNER
G1 F600 Z0.2
G1 F3600 E75.56383
G1 F4800 X263.71 Y36.29 E76.07011
G1 X276.29 Y36.29 E76.57639
G1 X276.29 Y30 E76.82953
G1 X276.29 Y23.71 E77.08267
G1 X263.71 Y23.71 E77.58894
M204 S1000
G0 F7800 X263.226 Y23.226
M204 S750
G1 F4800 X263.226 Y36.774 E78.13418
G1 X276.774 Y36.774 E78.67942
G1 X276.774 Y30 E78.95203
G1 X276.774 Y23.226 E79.22465
G1 X263.226 Y23.226 E79.76989
M204 S1000
G0 F7800 X262.742 Y22.742
M204 S750
;TYPE:WALL-OUTER
G1 F4800 X262.742 Y37.258 E80.35408
G1 X277.258 Y37.258 E80.93827
G1 X277.258 Y30 E81.23037
G1 X277.258 Y22.742 E81.52247
G1 X262.742 Y22.742 E82.10666
M204 S1000
G0 F7800 X263.39 Y23.39
G0 X264.15 Y24.15
M204 S750
;TYPE:SKIN
G1 F4800 X264.15 Y35.85 E82.57752
G1 X275.85 Y35.85 E83.04839
G1 X275.85 Y30 E83.28382
