;FLAVOR:Marlin
;TIME:217
;Filament used: 0m, 0.244397m
;Layer height: 0.2
;MINX:22.7
;MINY:22.514
;MINZ:0.2
;MAXX:277.3
;MAXY:277.3
;MAXZ:1.2
;Generated with Cura_SteamEngine 5.3.0
T1
M140 S60
M105
M190 S60
M104 S200
M105
M109 S200
M82 ;absolute extrusion mode
;----------Proforge 3.5 Start G-code----------
G92 E0 ; Reset the extruder motor.
G28 ;Home
Z_TILT_ADJUST ; Level the 4 Z motors.
G28 ;ReHome
BED_MESH_PROFILE LOAD=mesh_60c
G0 F8000 X120 Y25 Z0.80; Move the nozzle to the front edge.
G1 F2000 X260 E20; Prime the nozzle.
; G0 Z0.2
; ----------Proforge 3.5 Start G-code----------
G92 E0
G92 E0
G1 F3000 E-6.5
;LAYER_COUNT:1
;LAYER:0
M107
G1 F600 Z1.2
;MESH:Print-Z_Test 0.20 v2.stl(11)
G0 F9000 X36.9 Y36.9 Z1.2
;TYPE:WALL-INNER
G1 F600 Z0.2
G1 F3000 E0
G1 F2400 X36.9 Y23.1 E0.45899
G1 X23.1 Y23.1 E0.91798
G1 X23.1 Y36.9 E1.37697
G1 X36.9 Y36.9 E1.83596
G0 F9000 X37.3 Y37.3
;TYPE:WALL-OUTER
G1 F2400 X37.3 Y22.7 E2.32156
G1 X22.7 Y22.7 E2.80716
G1 X22.7 Y37.3 E3.29275
G1 X37.3 Y37.3 E3.77835
G0 F9000 X37.3 Y37.1
G0 X36.52 Y36.52
;TYPE:SKIN
G1 F2400 X23.48 Y36.52 E4.21206
G1 X23.48 Y23.48 E4.64578
G1 X36.52 Y23.48 E5.07949
G1 X36.52 Y36.52 E5.5132
G0 F9000 X36.319 Y23.874
G1 F2400 X36.125 Y23.68 E5.52233
G0 F9000 X35.559 Y23.68
G1 F2400 X36.319 Y24.44 E5.55807
G0 F9000 X36.319 Y25.006
G1 F2400 X34.994 Y23.68 E5.62042
G0 F9000 X34.428 Y23.68
G1 F2400 X36.319 Y25.571 E5.70937
G0 F9000 X36.319 Y26.137
G1 F2400 X33.862 Y23.68 E5.82494
G0 F9000 X33.296 Y23.68
G1 F2400 X36.319 Y26.703 E5.96713
G0 F9000 X36.319 Y27.268
G1 F2400 X32.731 Y23.68 E6.1359
G0 F9000 X32.165 Y23.68
G1 F2400 X36.319 Y27.834 E6.33129
G0 F9000 X36.319 Y28.4
G1 F2400 X31.599 Y23.68 E6.5533
G0 F9000 X31.034 Y23.68
G1 F2400 X36.319 Y28.965 E6.80189
G0 F9000 X36.319 Y29.531
G1 F2400 X30.468 Y23.68 E7.07711
G0 F9000 X29.902 Y23.68
G1 F2400 X36.319 Y30.097 E7.37894
G0 F9000 X36.319 Y30.662
G1 F2400 X29.337 Y23.68 E7.70736
G0 F9000 X28.771 Y23.68
G1 F2400 X36.319 Y31.228 E8.06239
G0 F9000 X36.319 Y31.794
G1 F2400 X28.205 Y23.68 E8.44405
G0 F9000 X27.64 Y23.68
G1 F2400 X36.319 Y32.36 E8.8523
G0 F9000 X36.319 Y32.925
G1 F2400 X27.074 Y23.68 E9.28716
G0 F9000 X26.508 Y23.68
G1 F2400 X36.319 Y33.491 E9.74864
G0 F9000 X36.319 Y34.057
G1 F2400 X25.943 Y23.68 E10.23672
G0 F9000 X25.377 Y23.68
G1 F2400 X36.319 Y34.622 E10.7514
G0 F9000 X36.319 Y35.188
G1 F2400 X24.811 Y23.68 E11.2927
G0 F9000 X24.245 Y23.68
G1 F2400 X36.319 Y35.754 E11.86062
G0 F9000 X36.319 Y36.319
G1 F2400 X23.679 Y23.679 E12.45517
G0 F9000 X23.679 Y24.245
G1 F2400 X35.753 Y36.319 E13.02309
G0 F9000 X35.187 Y36.319
G1 F2400 X23.679 Y24.81 E13.56442
G0 F9000 X23.679 Y25.376
G1 F2400 X34.622 Y36.319 E14.07914
G0 F9000 X34.056 Y36.319
G1 F2400 X23.679 Y25.942 E14.56725
G0 F9000 X23.679 Y26.508
G1 F2400 X33.49 Y36.319 E15.02872
G0 F9000 X32.925 Y36.319
G1 F2400 X23.679 Y27.073 E15.46363
G0 F9000 X23.679 Y27.639
G1 F2400 X32.359 Y36.319 E15.87191
G0 F9000 X31.793 Y36.319
G1 F2400 X23.679 Y28.205 E16.25357
G0 F9000 X23.679 Y28.77
G1 F2400 X31.227 Y36.319 E16.60862
G0 F9000 X30.662 Y36.319
G1 F2400 X23.679 Y29.336 E16.93708
G0 F9000 X23.679 Y29.902
G1 F2400 X30.096 Y36.319 E17.23892
G0 F9000 X29.53 Y36.319
G1 F2400 X23.679 Y30.467 E17.51416
G0 F9000 X23.679 Y31.033
G1 F2400 X28.965 Y36.319 E17.76279
G0 F9000 X28.399 Y36.319
G1 F2400 X23.679 Y31.599 E17.98481
G0 F9000 X23.679 Y32.164
G1 F2400 X27.833 Y36.319 E18.18022
G0 F9000 X27.268 Y36.319
G1 F2400 X23.679 Y32.73 E18.34904
G0 F9000 X23.679 Y33.296
G1 F2400 X26.702 Y36.319 E18.49123
G0 F9000 X26.136 Y36.319
G1 F2400 X23.679 Y33.861 E18.60682
G0 F9000 X23.679 Y34.427
G1 F2400 X25.571 Y36.319 E18.69582
G0 F9000 X25.005 Y36.319
G1 F2400 X23.679 Y34.993 E18.75819
G0 F9000 X23.679 Y35.558
G1 F2400 X24.439 Y36.319 E18.79396
G0 F9000 X23.874 Y36.319
G1 F2400 X23.679 Y36.124 E18.80313
G0 F9000 X23.7 Y36.124
G1 F3000 E12.30313
;MESH:Print-Z_Test 0.20 v2.stl(13)
G0 F9000 X37.086 Y37.086
G0 X38.165 Y37.086
G0 X82.914 Y81.835
G0 X82.914 Y82.914
G0 X96.63 Y96.63
G1 F3000 E18.80313
G0 F9000 X96.9 Y96.9
;TYPE:WALL-INNER
G1 F2400 X96.9 Y83.1 E19.26212
G1 X83.1 Y83.1 E19.72111
G1 X83.1 Y96.9 E20.1801
G1 X96.9 Y96.9 E20.63909
G0 F9000 X97.3 Y97.3
;TYPE:WALL-OUTER
G1 F2400 X97.3 Y82.7 E21.12469
G1 X82.7 Y82.7 E21.61029
G1 X82.7 Y97.3 E22.09589
G1 X97.3 Y97.3 E22.58148
G0 F9000 X97.3 Y97.1
G0 X96.52 Y96.52
;TYPE:SKIN
G1 F2400 X83.48 Y96.52 E23.0152
G1 X83.48 Y83.48 E23.44891
G1 X96.52 Y83.48 E23.88262
G1 X96.52 Y96.52 E24.31633
G0 F9000 X96.319 Y83.874
G1 F2400 X96.125 Y83.68 E24.32546
G0 F9000 X95.559 Y83.68
G1 F2400 X96.319 Y84.44 E24.36121
G0 F9000 X96.319 Y85.006
G1 F2400 X94.994 Y83.68 E24.42355
G0 F9000 X94.428 Y83.68
G1 F2400 X96.319 Y85.571 E24.5125
G0 F9000 X96.319 Y86.137
G1 F2400 X93.862 Y83.68 E24.62807
G0 F9000 X93.297 Y83.68
G1 F2400 X96.319 Y86.703 E24.77024
G0 F9000 X96.319 Y87.268
G1 F2400 X92.731 Y83.68 E24.93901
G0 F9000 X92.165 Y83.68
G1 F2400 X96.319 Y87.834 E25.1344
G0 F9000 X96.319 Y88.4
G1 F2400 X91.6 Y83.68 E25.35639
G0 F9000 X91.034 Y83.68
G1 F2400 X96.319 Y88.966 E25.605
G0 F9000 X96.319 Y89.531
G1 F2400 X90.468 Y83.68 E25.88022
G0 F9000 X89.902 Y83.68
G1 F2400 X96.319 Y90.097 E26.18205
G0 F9000 X96.319 Y90.663
G1 F2400 X89.337 Y83.68 E26.51049
G0 F9000 X88.771 Y83.68
G1 F2400 X96.319 Y91.228 E26.86552
G0 F9000 X96.319 Y91.794
G1 F2400 X88.205 Y83.68 E27.24718
G0 F9000 X87.64 Y83.68
G1 F2400 X96.319 Y92.36 E27.65544
G0 F9000 X96.319 Y92.925
G1 F2400 X87.074 Y83.68 E28.09029
G0 F9000 X86.508 Y83.68
G1 F2400 X96.319 Y93.491 E28.55177
G0 F9000 X96.319 Y94.057
G1 F2400 X85.943 Y83.68 E29.03985
G0 F9000 X85.377 Y83.68
G1 F2400 X96.319 Y94.622 E29.55453
G0 F9000 X96.319 Y95.188
G1 F2400 X84.811 Y83.68 E30.09583
G0 F9000 X84.246 Y83.68
G1 F2400 X96.319 Y95.754 E30.66373
G0 F9000 X96.319 Y96.319
G1 F2400 X83.679 Y83.679 E31.25828
G0 F9000 X83.679 Y84.245
G1 F2400 X95.753 Y96.319 E31.8262
G0 F9000 X95.187 Y96.319
G1 F2400 X83.679 Y84.811 E32.3675
G0 F9000 X83.679 Y85.376
G1 F2400 X94.622 Y96.319 E32.88223
G0 F9000 X94.056 Y96.319
G1 F2400 X83.679 Y85.942 E33.37033
G0 F9000 X83.679 Y86.508
G1 F2400 X93.49 Y96.319 E33.83181
G0 F9000 X92.925 Y96.319
G1 F2400 X83.679 Y87.073 E34.26671
G0 F9000 X83.679 Y87.639
G1 F2400 X92.359 Y96.319 E34.67499
G0 F9000 X91.793 Y96.319
G1 F2400 X83.679 Y88.205 E35.05665
G0 F9000 X83.679 Y88.77
G1 F2400 X91.228 Y96.319 E35.41173
G0 F9000 X90.662 Y96.319
G1 F2400 X83.679 Y89.336 E35.74019
G0 F9000 X83.679 Y89.902
G1 F2400 X90.096 Y96.319 E36.04203
G0 F9000 X89.531 Y96.319
G1 F2400 X83.679 Y90.467 E36.31729
G0 F9000 X83.679 Y91.033
G1 F2400 X88.965 Y96.319 E36.56593
G0 F9000 X88.399 Y96.319
G1 F2400 X83.679 Y91.599 E36.78794
G0 F9000 X83.679 Y92.165
G1 F2400 X87.833 Y96.319 E36.98333
G0 F9000 X87.268 Y96.319
G1 F2400 X83.679 Y92.73 E37.15215
G0 F9000 X83.679 Y93.296
G1 F2400 X86.702 Y96.319 E37.29434
G0 F9000 X86.136 Y96.319
G1 F2400 X83.679 Y93.862 E37.40991
G0 F9000 X83.679 Y94.427
G1 F2400 X85.571 Y96.319 E37.4989
G0 F9000 X85.005 Y96.319
G1 F2400 X83.679 Y94.993 E37.56128
G0 F9000 X83.679 Y95.559
G1 F2400 X84.439 Y96.319 E37.59702
G0 F9000 X83.874 Y96.319
G1 F2400 X83.679 Y96.124 E37.6062
G0 F9000 X83.7 Y96.124
G1 F3000 E31.1062
;MESH:Print-Z_Test 0.20 v2.stl(4)
G0 F9000 X82.914 Y97.086
G0 X81.835 Y97.086
G0 X37.636 Y141.104
G0 X37.636 Y142.183
G0 X37.18 Y155.899
G1 F3000 E37.6062
G0 F9000 X37.45 Y156.169
;TYPE:WALL-INNER
G1 F2400 X37.45 Y142.369 E38.06519
G1 X23.65 Y142.369 E38.52418
G1 X23.65 Y156.169 E38.98316
G1 X37.45 Y156.169 E39.44215
G0 F9000 X37.85 Y156.569
;TYPE:WALL-OUTER
G1 F2400 X37.85 Y141.969 E39.92775
G1 X23.25 Y141.969 E40.41335
G1 X23.25 Y156.569 E40.89895
G1 X37.85 Y156.569 E41.38455
G0 F9000 X37.85 Y156.369
G0 X37.07 Y155.789
;TYPE:SKIN
G1 F2400 X24.03 Y155.789 E41.81826
G1 X24.03 Y142.749 E42.25197
G1 X37.07 Y142.749 E42.68568
G1 X37.07 Y155.789 E43.1194
G0 F9000 X36.869 Y143.218
G1 F2400 X36.599 Y142.948 E43.1321
G0 F9000 X36.034 Y142.948
G1 F2400 X36.869 Y143.784 E43.17139
G0 F9000 X36.869 Y144.35
G1 F2400 X35.468 Y142.948 E43.23732
G0 F9000 X34.902 Y142.948
G1 F2400 X36.869 Y144.915 E43.32984
G0 F9000 X36.869 Y145.481
G1 F2400 X34.337 Y142.948 E43.44896
G0 F9000 X33.771 Y142.948
G1 F2400 X36.869 Y146.047 E43.5947
G0 F9000 X36.869 Y146.612
G1 F2400 X33.205 Y142.948 E43.76705
G0 F9000 X32.64 Y142.948
G1 F2400 X36.869 Y147.178 E43.96599
G0 F9000 X36.869 Y147.744
G1 F2400 X32.074 Y142.948 E44.19156
G0 F9000 X31.508 Y142.948
G1 F2400 X36.869 Y148.309 E44.44372
G0 F9000 X36.869 Y148.875
G1 F2400 X30.942 Y142.948 E44.72251
G0 F9000 X30.377 Y142.948
G1 F2400 X36.869 Y149.441 E45.0279
G0 F9000 X36.869 Y150.007
G1 F2400 X29.811 Y142.948 E45.35991
G0 F9000 X29.245 Y142.948
G1 F2400 X36.869 Y150.572 E45.71852
G0 F9000 X36.869 Y151.138
G1 F2400 X28.68 Y142.948 E46.10372
G0 F9000 X28.114 Y142.948
G1 F2400 X36.869 Y151.704 E46.51556
G0 F9000 X36.869 Y152.269
G1 F2400 X27.548 Y142.948 E46.95399
G0 F9000 X26.983 Y142.948
G1 F2400 X36.869 Y152.835 E47.41902
G0 F9000 X36.869 Y153.401
G1 F2400 X26.417 Y142.948 E47.91067
G0 F9000 X25.851 Y142.948
G1 F2400 X36.869 Y153.966 E48.42892
G0 F9000 X36.869 Y154.532
G1 F2400 X25.286 Y142.948 E48.97378
G0 F9000 X24.72 Y142.948
G1 F2400 X36.869 Y155.098 E49.54525
G0 F9000 X36.794 Y155.588
G1 F2400 X24.229 Y143.023 E50.13627
G0 F9000 X24.229 Y143.589
G1 F2400 X36.228 Y155.588 E50.70067
G0 F9000 X35.662 Y155.588
G1 F2400 X24.229 Y144.155 E51.23844
G0 F9000 X24.229 Y144.72
G1 F2400 X35.097 Y155.588 E51.74964
G0 F9000 X34.531 Y155.588
G1 F2400 X24.229 Y145.286 E52.23421
G0 F9000 X24.229 Y145.852
G1 F2400 X33.965 Y155.588 E52.69216
G0 F9000 X33.4 Y155.588
G1 F2400 X24.229 Y146.417 E53.12354
G0 F9000 X24.229 Y146.983
G1 F2400 X32.834 Y155.588 E53.52829
G0 F9000 X32.268 Y155.588
G1 F2400 X24.229 Y147.549 E53.90642
G0 F9000 X24.229 Y148.114
G1 F2400 X31.703 Y155.588 E54.25798
G0 F9000 X31.137 Y155.588
G1 F2400 X24.229 Y148.68 E54.58291
G0 F9000 X24.229 Y149.246
G1 F2400 X30.571 Y155.588 E54.88122
G0 F9000 X30.006 Y155.588
G1 F2400 X24.229 Y149.811 E55.15295
G0 F9000 X24.229 Y150.377
G1 F2400 X29.44 Y155.588 E55.39806
G0 F9000 X28.874 Y155.588
G1 F2400 X24.229 Y150.943 E55.61654
G0 F9000 X24.229 Y151.508
G1 F2400 X28.309 Y155.588 E55.80845
G0 F9000 X27.743 Y155.588
G1 F2400 X24.229 Y152.074 E55.97374
G0 F9000 X24.229 Y152.64
G1 F2400 X27.177 Y155.588 E56.11241
G0 F9000 X26.611 Y155.588
G1 F2400 X24.229 Y153.205 E56.22447
G0 F9000 X24.229 Y153.771
G1 F2400 X26.046 Y155.588 E56.30994
G0 F9000 X25.48 Y155.588
G1 F2400 X24.229 Y154.337 E56.36878
G0 F9000 X24.229 Y154.903
G1 F2400 X24.914 Y155.588 E56.401
G0 F9000 X24.349 Y155.588
G1 F2400 X24.229 Y155.468 E56.40665
G0 F9000 X24.25 Y155.468
G1 F3000 E49.90665
;MESH:Print-Z_Test 0.20 v2.stl(14)
G0 F9000 X37.636 Y156.355
G0 X37.636 Y157.434
G0 X82.914 Y201.835
G0 X82.914 Y202.914
G0 X96.63 Y216.63
G1 F3000 E56.40665
G0 F9000 X96.9 Y216.9
;TYPE:WALL-INNER
G1 F2400 X96.9 Y203.1 E56.86564
G1 X83.1 Y203.1 E57.32463
G1 X83.1 Y216.9 E57.78362
G1 X96.9 Y216.9 E58.24261
G0 F9000 X97.3 Y217.3
;TYPE:WALL-OUTER
G1 F2400 X97.3 Y202.7 E58.7282
G1 X82.7 Y202.7 E59.2138
G1 X82.7 Y217.3 E59.6994
G1 X97.3 Y217.3 E60.185
G0 F9000 X97.3 Y217.1
G0 X96.52 Y216.52
;TYPE:SKIN
G1 F2400 X83.48 Y216.52 E60.61871
G1 X83.48 Y203.48 E61.05242
G1 X96.52 Y203.48 E61.48614
G1 X96.52 Y216.52 E61.91985
G0 F9000 X96.32 Y203.8
G1 F2400 X96.199 Y203.679 E61.92554
G0 F9000 X95.633 Y203.679
G1 F2400 X96.32 Y204.366 E61.95785
G0 F9000 X96.32 Y204.932
G1 F2400 X95.067 Y203.679 E62.01679
G0 F9000 X94.501 Y203.679
G1 F2400 X96.32 Y205.497 E62.10233
G0 F9000 X96.32 Y206.063
G1 F2400 X93.936 Y203.679 E62.21446
G0 F9000 X93.37 Y203.679
G1 F2400 X96.32 Y206.629 E62.35322
G0 F9000 X96.32 Y207.195
G1 F2400 X92.804 Y203.679 E62.5186
G0 F9000 X92.239 Y203.679
G1 F2400 X96.32 Y207.76 E62.71056
G0 F9000 X96.32 Y208.326
G1 F2400 X91.673 Y203.679 E62.92914
G0 F9000 X91.107 Y203.679
G1 F2400 X96.32 Y208.892 E63.17435
G0 F9000 X96.32 Y209.457
G1 F2400 X90.542 Y203.679 E63.44613
G0 F9000 X89.976 Y203.679
G1 F2400 X96.32 Y210.023 E63.74453
G0 F9000 X96.32 Y210.589
G1 F2400 X89.41 Y203.679 E64.06955
G0 F9000 X88.845 Y203.679
G1 F2400 X96.32 Y211.154 E64.42115
G0 F9000 X96.32 Y211.72
G1 F2400 X88.279 Y203.679 E64.79938
G0 F9000 X87.713 Y203.679
G1 F2400 X96.32 Y212.286 E65.20422
G0 F9000 X96.32 Y212.851
G1 F2400 X87.148 Y203.679 E65.63565
G0 F9000 X86.582 Y203.679
G1 F2400 X96.32 Y213.417 E66.09369
G0 F9000 X96.32 Y213.983
G1 F2400 X86.016 Y203.679 E66.57836
G0 F9000 X85.451 Y203.679
G1 F2400 X96.32 Y214.548 E67.08961
G0 F9000 X96.32 Y215.114
G1 F2400 X84.885 Y203.679 E67.62747
G0 F9000 X84.319 Y203.679
G1 F2400 X96.32 Y215.68 E68.19196
G0 F9000 X96.32 Y216.245
G1 F2400 X83.753 Y203.679 E68.78305
G0 F9000 X83.68 Y204.171
G1 F2400 X95.827 Y216.318 E69.35441
G0 F9000 X95.262 Y216.318
G1 F2400 X83.68 Y204.737 E69.89917
G0 F9000 X83.68 Y205.302
G1 F2400 X94.696 Y216.318 E70.41733
G0 F9000 X94.13 Y216.318
G1 F2400 X83.68 Y205.868 E70.90886
G0 F9000 X83.68 Y206.434
G1 F2400 X93.565 Y216.318 E71.3738
G0 F9000 X92.999 Y216.318
G1 F2400 X83.68 Y206.999 E71.81214
G0 F9000 X83.68 Y207.565
G1 F2400 X92.433 Y216.318 E72.22385
G0 F9000 X91.868 Y216.318
G1 F2400 X83.68 Y208.131 E72.60897
G0 F9000 X83.68 Y208.696
G1 F2400 X91.302 Y216.318 E72.96748
G0 F9000 X90.736 Y216.318
G1 F2400 X83.68 Y209.262 E73.29938
G0 F9000 X83.68 Y209.828
G1 F2400 X90.17 Y216.318 E73.60464
G0 F9000 X89.605 Y216.318
G1 F2400 X83.68 Y210.393 E73.88334
G0 F9000 X83.68 Y210.959
G1 F2400 X89.039 Y216.318 E74.13541
G0 F9000 X88.473 Y216.318
G1 F2400 X83.68 Y211.525 E74.36086
G0 F9000 X83.68 Y212.091
G1 F2400 X87.908 Y216.318 E74.55971
G0 F9000 X87.342 Y216.318
G1 F2400 X83.68 Y212.656 E74.73196
G0 F9000 X83.68 Y213.222
G1 F2400 X86.776 Y216.318 E74.87758
G0 F9000 X86.211 Y216.318
G1 F2400 X83.68 Y213.788 E74.99661
G0 F9000 X83.68 Y214.353
G1 F2400 X85.645 Y216.318 E75.08904
G0 F9000 X85.079 Y216.318
G1 F2400 X83.68 Y214.919 E75.15484
G0 F9000 X83.68 Y215.485
G1 F2400 X84.514 Y216.318 E75.19405
G0 F9000 X83.948 Y216.318
G1 F2400 X83.68 Y216.05 E75.20665
G0 F9000 X83.7 Y216.05
G1 F3000 E68.70665
;MESH:Print-Z_Test 0.20 v2.stl(2)
G0 F9000 X97.086 Y217.086
G0 X98.165 Y217.086
G0 X142.878 Y261.631
G0 X143.957 Y261.631
G0 X157.673 Y275.347
G1 F3000 E75.20665
G0 F9000 X157.943 Y275.617
;TYPE:WALL-INNER
G1 F2400 X157.943 Y261.817 E75.66564
G1 X144.143 Y261.817 E76.12463
G1 X144.143 Y275.617 E76.58362
G1 X157.943 Y275.617 E77.04261
G0 F9000 X158.343 Y276.017
;TYPE:WALL-OUTER
G1 F2400 X158.343 Y261.417 E77.52821
G1 X143.743 Y261.417 E78.01381
G1 X143.743 Y276.017 E78.49941
G1 X158.343 Y276.017 E78.985
G0 F9000 X158.343 Y275.817
G0 X157.563 Y275.237
;TYPE:SKIN
G1 F2400 X144.523 Y275.237 E79.41872
G1 X144.523 Y262.197 E79.85243
G1 X157.563 Y262.197 E80.28614
G1 X157.563 Y275.237 E80.71985
G0 F9000 X157.363 Y262.58
G1 F2400 X157.179 Y262.396 E80.72851
G0 F9000 X156.613 Y262.396
G1 F2400 X157.363 Y263.146 E80.76378
G0 F9000 X157.363 Y263.711
G1 F2400 X156.047 Y262.396 E80.82566
G0 F9000 X155.482 Y262.396
G1 F2400 X157.363 Y264.277 E80.91414
G0 F9000 X157.363 Y264.843
G1 F2400 X154.916 Y262.396 E81.02924
G0 F9000 X154.35 Y262.396
G1 F2400 X157.363 Y265.408 E81.17094
G0 F9000 X157.363 Y265.974
G1 F2400 X153.785 Y262.396 E81.33923
G0 F9000 X153.219 Y262.396
G1 F2400 X157.363 Y266.54 E81.53416
G0 F9000 X157.363 Y267.106
G1 F2400 X152.653 Y262.396 E81.7557
G0 F9000 X152.088 Y262.396
G1 F2400 X157.363 Y267.671 E82.00382
G0 F9000 X157.363 Y268.237
G1 F2400 X151.522 Y262.396 E82.27856
G0 F9000 X150.956 Y262.396
G1 F2400 X157.363 Y268.803 E82.57993
G0 F9000 X157.363 Y269.368
G1 F2400 X150.391 Y262.396 E82.90787
G0 F9000 X149.825 Y262.396
G1 F2400 X157.363 Y269.934 E83.26243
G0 F9000 X157.363 Y270.5
G1 F2400 X149.259 Y262.396 E83.64362
G0 F9000 X148.693 Y262.396
G1 F2400 X157.363 Y271.065 E84.05141
G0 F9000 X157.363 Y271.631
G1 F2400 X148.128 Y262.396 E84.48579
G0 F9000 X147.562 Y262.396
G1 F2400 X157.363 Y272.197 E84.9468
G0 F9000 X157.363 Y272.762
G1 F2400 X146.996 Y262.396 E85.43441
G0 F9000 X146.431 Y262.396
G1 F2400 X157.363 Y273.328 E85.94862
