;FLAVOR:Marlin
;TIME:821
;Filament used: 0m, 2.1297m
;Layer height: 0.2
;MINX:70.2
;MINY:70.2
;MINZ:0.2
;MAXX:229.8
;MAXY:229.8
;MAXZ:0.2
;Generated with Cura_SteamEngine 5.2.2
T0
M140 S60
M105
M190 S60
M104 S200
M105
M109 S200
M82 ;absolute extrusion mode
;----------Proforge 3.5 Start G-code---------- 
G92 E0 ; Reset the extruder motor.
G28 ;Home 
Z_TILT_ADJUST ; Level the 4 Z motors.
BED_MESH_PROFILE LOAD=mesh_60c
G0 F8000 X120 Y25 Z0.30; Move the nozzle to the front edge.
G1 F4000 X260 E20; Prime the nozzle.
; ----------Proforge 3.5 Start G-code----------
G92 E0
G1 F1500 E-6.5
;LAYER_COUNT:1
;LAYER:0
M107
;MESH:Big-Print-Z_Test 0.20mm v2.obj
G0 F9000 X70.6 Y70.6 Z0.2
;TYPE:WALL-INNER
G1 F1500 E0
G1 F4800 X70.6 Y229.4 E5.28171
G1 X229.4 Y229.4 E10.56342
G1 X229.4 Y70.6 E15.84513
G1 X70.6 Y70.6 E21.12684
G0 F9000 X70.2 Y70.2
;TYPE:WALL-OUTER
G1 F4800 X70.2 Y229.8 E26.43516
G1 X229.8 Y229.8 E31.74347
G1 X229.8 Y70.2 E37.05179
G1 X70.2 Y70.2 E42.36011
G0 F9000 X70.2 Y70.4
G0 X70.98 Y70.98
;TYPE:SKIN
G1 F4800 X70.98 Y150 E44.98832
G1 X70.98 Y229.02 E47.61654
G1 X229.02 Y229.02 E52.87297
G1 X229.02 Y70.98 E58.1294
G1 X70.98 Y70.98 E63.38583
G0 F9000 X228.819 Y71.559
G1 F4800 X228.44 Y71.18 E63.40366
G0 F9000 X227.875 Y71.18
G1 F4800 X228.819 Y72.124 E63.44806
G0 F9000 X228.819 Y72.69
G1 F4800 X227.309 Y71.18 E63.51909
G0 F9000 X226.743 Y71.18
G1 F4800 X228.819 Y73.256 E63.61674
G0 F9000 X228.819 Y73.821
G1 F4800 X226.178 Y71.18 E63.74096
G0 F9000 X225.612 Y71.18
G1 F4800 X228.819 Y74.387 E63.89181
G0 F9000 X228.819 Y74.953
G1 F4800 X225.046 Y71.18 E64.06928
G0 F9000 X224.48 Y71.18
G1 F4800 X228.819 Y75.519 E64.27337
G0 F9000 X228.819 Y76.084
G1 F4800 X223.915 Y71.18 E64.50404
G0 F9000 X223.349 Y71.18
G1 F4800 X228.819 Y76.65 E64.76134
G0 F9000 X228.819 Y77.216
G1 F4800 X222.783 Y71.18 E65.04525
G0 F9000 X222.218 Y71.18
G1 F4800 X228.819 Y77.781 E65.35574
G0 F9000 X228.819 Y78.347
G1 F4800 X221.652 Y71.18 E65.69286
G0 F9000 X221.086 Y71.18
G1 F4800 X228.819 Y78.913 E66.05659
G0 F9000 X228.819 Y79.478
G1 F4800 X220.521 Y71.18 E66.4469
G0 F9000 X219.955 Y71.18
G1 F4800 X228.819 Y80.044 E66.86384
G0 F9000 X228.819 Y80.61
G1 F4800 X219.389 Y71.18 E67.3074
G0 F9000 X218.824 Y71.18
G1 F4800 X228.819 Y81.175 E67.77753
G0 F9000 X228.819 Y81.741
G1 F4800 X218.258 Y71.18 E68.27429
G0 F9000 X217.692 Y71.18
G1 F4800 X228.819 Y82.307 E68.79767
G0 F9000 X228.819 Y82.872
G1 F4800 X217.127 Y71.18 E69.34763
G0 F9000 X216.561 Y71.18
G1 F4800 X228.819 Y83.438 E69.9242
G0 F9000 X228.819 Y84.004
G1 F4800 X215.995 Y71.18 E70.52741
G0 F9000 X215.429 Y71.18
G1 F4800 X228.819 Y84.569 E71.15721
G0 F9000 X228.819 Y85.135
G1 F4800 X214.864 Y71.18 E71.81361
G0 F9000 X214.298 Y71.18
G1 F4800 X228.819 Y85.701 E72.49663
G0 F9000 X228.819 Y86.267
G1 F4800 X213.732 Y71.18 E73.20628
G0 F9000 X213.167 Y71.18
G1 F4800 X228.819 Y86.832 E73.9425
G0 F9000 X228.819 Y87.398
G1 F4800 X212.601 Y71.18 E74.70534
G0 F9000 X212.035 Y71.18
G1 F4800 X228.819 Y87.964 E75.49481
G0 F9000 X228.819 Y88.529
G1 F4800 X211.47 Y71.18 E76.31086
G0 F9000 X210.904 Y71.18
G1 F4800 X228.819 Y89.095 E77.15352
G0 F9000 X228.819 Y89.661
G1 F4800 X210.338 Y71.18 E78.02281
G0 F9000 X209.773 Y71.18
G1 F4800 X228.819 Y90.226 E78.91868
G0 F9000 X228.819 Y90.792
G1 F4800 X209.207 Y71.18 E79.84117
G0 F9000 X208.641 Y71.18
G1 F4800 X228.819 Y91.358 E80.79028
G0 F9000 X228.819 Y91.923
G1 F4800 X208.076 Y71.18 E81.76596
G0 F9000 X207.51 Y71.18
G1 F4800 X228.819 Y92.489 E82.76827
G0 F9000 X228.819 Y93.055
G1 F4800 X206.944 Y71.18 E83.79721
G0 F9000 X206.379 Y71.18
G1 F4800 X228.819 Y93.62 E84.85272
G0 F9000 X228.819 Y94.186
G1 F4800 X205.813 Y71.18 E85.93485
G0 F9000 X205.247 Y71.18
G1 F4800 X228.819 Y94.752 E87.0436
G0 F9000 X228.819 Y95.317
G1 F4800 X204.681 Y71.18 E88.17896
G0 F9000 X204.116 Y71.18
G1 F4800 X228.819 Y95.883 E89.34091
G0 F9000 X228.819 Y96.449
G1 F4800 X203.55 Y71.18 E90.52949
G0 F9000 X202.984 Y71.18
G1 F4800 X228.819 Y97.015 E91.74468
G0 F9000 X228.819 Y97.58
G1 F4800 X202.419 Y71.18 E92.98646
G0 F9000 X201.853 Y71.18
G1 F4800 X228.819 Y98.146 E94.25486
G0 F9000 X228.819 Y98.712
G1 F4800 X201.287 Y71.18 E95.54988
G0 F9000 X200.722 Y71.18
G1 F4800 X228.819 Y99.277 E96.87148
G0 F9000 X228.819 Y99.843
G1 F4800 X200.156 Y71.18 E98.2197
G0 F9000 X199.59 Y71.18
G1 F4800 X228.819 Y100.409 E99.59454
G0 F9000 X228.819 Y100.974
G1 F4800 X199.025 Y71.18 E100.99596
G0 F9000 X198.459 Y71.18
G1 F4800 X228.819 Y101.54 E102.424
G0 F9000 X228.819 Y102.106
G1 F4800 X197.893 Y71.18 E103.87866
G0 F9000 X197.328 Y71.18
G1 F4800 X228.819 Y102.671 E105.3599
G0 F9000 X228.819 Y103.237
G1 F4800 X196.762 Y71.18 E106.86776
G0 F9000 X196.196 Y71.18
G1 F4800 X228.819 Y103.803 E108.40225
G0 F9000 X228.819 Y104.368
G1 F4800 X195.63 Y71.18 E109.96334
G0 F9000 X195.065 Y71.18
G1 F4800 X228.819 Y104.934 E111.55102
G0 F9000 X228.819 Y105.5
G1 F4800 X194.499 Y71.18 E113.16533
G0 F9000 X193.933 Y71.18
G1 F4800 X228.819 Y106.066 E114.80626
G0 F9000 X228.819 Y106.631
G1 F4800 X193.368 Y71.18 E116.47376
G0 F9000 X192.802 Y71.18
G1 F4800 X228.819 Y107.197 E118.16789
G0 F9000 X228.819 Y107.763
G1 F4800 X192.236 Y71.18 E119.88865
G0 F9000 X191.671 Y71.18
G1 F4800 X228.819 Y108.328 E121.63597
G0 F9000 X228.819 Y108.894
G1 F4800 X191.105 Y71.18 E123.40993
G0 F9000 X190.539 Y71.18
G1 F4800 X228.819 Y109.46 E125.2105
G0 F9000 X228.819 Y110.025
G1 F4800 X189.974 Y71.18 E127.03765
G0 F9000 X189.408 Y71.18
G1 F4800 X228.819 Y110.591 E128.89142
G0 F9000 X228.819 Y111.157
G1 F4800 X188.842 Y71.18 E130.77182
G0 F9000 X188.277 Y71.18
G1 F4800 X228.819 Y111.722 E132.67879
G0 F9000 X228.819 Y112.288
G1 F4800 X187.711 Y71.18 E134.61238
G0 F9000 X187.145 Y71.18
G1 F4800 X228.819 Y112.854 E136.5726
G0 F9000 X228.819 Y113.419
G1 F4800 X186.58 Y71.18 E138.55939
G0 F9000 X186.014 Y71.18
G1 F4800 X228.819 Y113.985 E140.57281
G0 F9000 X228.819 Y114.551
G1 F4800 X185.448 Y71.18 E142.61285
G0 F9000 X184.882 Y71.18
G1 F4800 X228.819 Y115.116 E144.67949
G0 F9000 X228.819 Y115.682
G1 F4800 X184.317 Y71.18 E146.77272
G0 F9000 X183.751 Y71.18
G1 F4800 X228.819 Y116.248 E148.89258
G0 F9000 X228.819 Y116.814
G1 F4800 X183.185 Y71.18 E151.03907
G0 F9000 X182.62 Y71.18
G1 F4800 X228.819 Y117.379 E153.21213
G0 F9000 X228.819 Y117.945
G1 F4800 X182.054 Y71.18 E155.41181
G0 F9000 X181.488 Y71.18
G1 F4800 X228.819 Y118.511 E157.63811
G0 F9000 X228.819 Y119.076
G1 F4800 X180.923 Y71.18 E159.891
G0 F9000 X180.357 Y71.18
G1 F4800 X228.819 Y119.642 E162.1705
G0 F9000 X228.819 Y120.208
G1 F4800 X179.791 Y71.18 E164.47663
G0 F9000 X179.226 Y71.18
G1 F4800 X228.819 Y120.773 E166.80933
G0 F9000 X228.819 Y121.339
G1 F4800 X178.66 Y71.18 E169.16865
G0 F9000 X178.094 Y71.18
G1 F4800 X228.819 Y121.905 E171.5546
G0 F9000 X228.819 Y122.47
G1 F4800 X177.529 Y71.18 E173.96713
G0 F9000 X176.963 Y71.18
G1 F4800 X228.819 Y123.036 E176.40627
G0 F9000 X228.819 Y123.602
G1 F4800 X176.397 Y71.18 E178.87204
G0 F9000 X175.832 Y71.18
G1 F4800 X228.819 Y124.167 E181.36439
G0 F9000 X228.819 Y124.733
G1 F4800 X175.266 Y71.18 E183.88336
G0 F9000 X174.7 Y71.18
G1 F4800 X228.819 Y125.299 E186.42895
G0 F9000 X228.819 Y125.865
G1 F4800 X174.134 Y71.18 E189.00117
G0 F9000 X173.569 Y71.18
G1 F4800 X228.819 Y126.43 E191.59996
G0 F9000 X228.819 Y126.996
G1 F4800 X173.003 Y71.18 E194.22537
G0 F9000 X172.437 Y71.18
G1 F4800 X228.819 Y127.562 E196.87741
G0 F9000 X228.819 Y128.127
G1 F4800 X171.872 Y71.18 E199.55602
G0 F9000 X171.306 Y71.18
G1 F4800 X228.819 Y128.693 E202.26125
G0 F9000 X228.819 Y129.259
G1 F4800 X170.74 Y71.18 E204.99311
G0 F9000 X170.175 Y71.18
G1 F4800 X228.819 Y129.824 E207.75155
G0 F9000 X228.819 Y130.39
G1 F4800 X169.609 Y71.18 E210.5366
G0 F9000 X169.043 Y71.18
G1 F4800 X228.819 Y130.956 E213.34828
G0 F9000 X228.819 Y131.521
G1 F4800 X168.478 Y71.18 E216.18654
G0 F9000 X167.912 Y71.18
G1 F4800 X228.819 Y132.087 E219.05142
G0 F9000 X228.819 Y132.653
G1 F4800 X167.346 Y71.18 E221.94292
G0 F9000 X166.781 Y71.18
G1 F4800 X228.819 Y133.218 E224.861
G0 F9000 X228.819 Y133.784
G1 F4800 X166.215 Y71.18 E227.8057
G0 F9000 X165.649 Y71.18
G1 F4800 X228.819 Y134.35 E230.77702
G0 F9000 X228.819 Y134.915
G1 F4800 X165.083 Y71.18 E233.77494
G0 F9000 X164.518 Y71.18
G1 F4800 X228.819 Y135.481 E236.79946
G0 F9000 X228.819 Y136.047
G1 F4800 X163.952 Y71.18 E239.85061
G0 F9000 X163.386 Y71.18
G1 F4800 X228.819 Y136.613 E242.92838
G0 F9000 X228.819 Y137.178
G1 F4800 X162.821 Y71.18 E246.03272
G0 F9000 X162.255 Y71.18
G1 F4800 X228.819 Y137.744 E249.16369
G0 F9000 X228.819 Y138.31
G1 F4800 X161.689 Y71.18 E252.32128
G0 F9000 X161.124 Y71.18
G1 F4800 X228.819 Y138.875 E255.50544
G0 F9000 X228.819 Y139.441
G1 F4800 X160.558 Y71.18 E258.71623
G0 F9000 X159.992 Y71.18
G1 F4800 X228.819 Y140.007 E261.95364
G0 F9000 X228.819 Y140.572
G1 F4800 X159.427 Y71.18 E265.21763
G0 F9000 X158.861 Y71.18
G1 F4800 X228.819 Y141.138 E268.50824
G0 F9000 X228.819 Y141.704
G1 F4800 X158.295 Y71.18 E271.82547
G0 F9000 X157.73 Y71.18
G1 F4800 X228.819 Y142.269 E275.16928
G0 F9000 X228.819 Y142.835
G1 F4800 X157.164 Y71.18 E278.53971
G0 F9000 X156.598 Y71.18
G1 F4800 X228.819 Y143.401 E281.93676
G0 F9000 X228.819 Y143.966
G1 F4800 X156.033 Y71.18 E285.36039
G0 F9000 X155.467 Y71.18
G1 F4800 X228.819 Y144.532 E288.81065
G0 F9000 X228.819 Y145.098
G1 F4800 X154.901 Y71.18 E292.28752
G0 F9000 X154.335 Y71.18
G1 F4800 X228.819 Y145.663 E295.791
G0 F9000 X228.819 Y146.229
G1 F4800 X153.77 Y71.18 E299.32107
G0 F9000 X153.204 Y71.18
G1 F4800 X228.819 Y146.795 E302.87777
G0 F9000 X228.819 Y147.361
G1 F4800 X152.638 Y71.18 E306.46109
G0 F9000 X152.073 Y71.18
G1 F4800 X228.819 Y147.926 E310.07099
G0 F9000 X228.819 Y148.492
G1 F4800 X151.507 Y71.18 E313.70751
G0 F9000 X150.941 Y71.18
G1 F4800 X228.819 Y149.058 E317.37065
G0 F9000 X228.819 Y149.623
G1 F4800 X150.376 Y71.18 E321.06037
G0 F9000 X149.81 Y71.18
G1 F4800 X228.819 Y150.189 E324.77671
G0 F9000 X228.819 Y150.755
G1 F4800 X149.244 Y71.18 E328.51967
G0 F9000 X148.679 Y71.18
G1 F4800 X228.819 Y151.32 E332.28921
G0 F9000 X228.819 Y151.886
G1 F4800 X148.113 Y71.18 E336.08538
G0 F9000 X147.547 Y71.18
G1 F4800 X228.819 Y152.452 E339.90816
G0 F9000 X228.819 Y153.017
G1 F4800 X146.982 Y71.18 E343.75752
G0 F9000 X146.416 Y71.18
G1 F4800 X228.819 Y153.583 E347.63351
G0 F9000 X228.819 Y154.149
G1 F4800 X145.85 Y71.18 E351.53612
G0 F9000 X145.284 Y71.18
G1 F4800 X228.819 Y154.714 E355.46532
G0 F9000 X228.819 Y155.28
G1 F4800 X144.719 Y71.18 E359.42113
G0 F9000 X144.153 Y71.18
G1 F4800 X228.819 Y155.846 E363.40356
G0 F9000 X228.819 Y156.412
G1 F4800 X143.587 Y71.18 E367.41261
G0 F9000 X143.022 Y71.18
G1 F4800 X228.819 Y156.977 E371.44824
G0 F9000 X228.819 Y157.543
G1 F4800 X142.456 Y71.18 E375.51049
G0 F9000 X141.89 Y71.18
G1 F4800 X228.819 Y158.109 E379.59936
G0 F9000 X228.819 Y158.674
G1 F4800 X141.325 Y71.18 E383.71481
G0 F9000 X140.759 Y71.18
G1 F4800 X228.819 Y159.24 E387.85688
G0 F9000 X228.819 Y159.806
G1 F4800 X140.193 Y71.18 E392.02558
G0 F9000 X139.628 Y71.18
G1 F4800 X228.819 Y160.371 E396.22085
G0 F9000 X228.819 Y160.937
G1 F4800 X139.062 Y71.18 E400.44274
G0 F9000 X138.496 Y71.18
G1 F4800 X228.819 Y161.503 E404.69126
G0 F9000 X228.819 Y162.068
G1 F4800 X137.931 Y71.18 E408.96635
G0 F9000 X137.365 Y71.18
G1 F4800 X228.819 Y162.634 E413.26807
G0 F9000 X228.819 Y163.2
G1 F4800 X136.799 Y71.18 E417.59641
G0 F9000 X136.234 Y71.18
G1 F4800 X228.819 Y163.765 E421.95132
G0 F9000 X228.819 Y164.331
G1 F4800 X135.668 Y71.18 E426.33286
G0 F9000 X135.102 Y71.18
G1 F4800 X228.819 Y164.897 E430.74102
G0 F9000 X228.819 Y165.462
G1 F4800 X134.536 Y71.18 E435.17578
G0 F9000 X133.971 Y71.18
G1 F4800 X228.819 Y166.028 E439.63714
G0 F9000 X228.819 Y166.594
G1 F4800 X133.405 Y71.18 E444.12512
G0 F9000 X132.839 Y71.18
G1 F4800 X228.819 Y167.16 E448.63973
G0 F9000 X228.819 Y167.725
G1 F4800 X132.274 Y71.18 E453.18091
G0 F9000 X131.708 Y71.18
G1 F4800 X228.819 Y168.291 E457.74871
G0 F9000 X228.819 Y168.857
G1 F4800 X131.142 Y71.18 E462.34314
G0 F9000 X130.577 Y71.18
G1 F4800 X228.819 Y169.422 E466.96414
G0 F9000 X228.819 Y169.988
G1 F4800 X130.011 Y71.18 E471.61177
G0 F9000 X129.445 Y71.18
G1 F4800 X228.819 Y170.554 E476.28601
G0 F9000 X228.819 Y171.119
G1 F4800 X128.88 Y71.18 E480.98684
G0 F9000 X128.314 Y71.18
G1 F4800 X228.819 Y171.685 E485.71429
G0 F9000 X228.819 Y172.251
G1 F4800 X127.748 Y71.18 E490.46836
G0 F9000 X127.183 Y71.18
G1 F4800 X228.819 Y172.816 E495.249
G0 F9000 X228.819 Y173.382
G1 F4800 X126.617 Y71.18 E500.05627
G0 F9000 X126.051 Y71.18
G1 F4800 X228.819 Y173.948 E504.89016
G0 F9000 X228.819 Y174.513
G1 F4800 X125.485 Y71.18 E509.75065
G0 F9000 X124.92 Y71.18
G1 F4800 X228.819 Y175.079 E514.63774
G0 F9000 X228.819 Y175.645
G1 F4800 X124.354 Y71.18 E519.55146
G0 F9000 X123.788 Y71.18
G1 F4800 X228.819 Y176.211 E524.49179
G0 F9000 X228.819 Y176.776
G1 F4800 X123.223 Y71.18 E529.4587
G0 F9000 X122.657 Y71.18
G1 F4800 X228.819 Y177.342 E534.45224
G0 F9000 X228.819 Y177.908
G1 F4800 X122.091 Y71.18 E539.4724
G0 F9000 X121.526 Y71.18
G1 F4800 X228.819 Y178.473 E544.51913
G0 F9000 X228.819 Y179.039
G1 F4800 X120.96 Y71.18 E549.59249
G0 F9000 X120.394 Y71.18
G1 F4800 X228.819 Y179.605 E554.69247
G0 F9000 X228.819 Y180.17
G1 F4800 X119.829 Y71.18 E559.81902
G0 F9000 X119.263 Y71.18
G1 F4800 X228.819 Y180.736 E564.9722
G0 F9000 X228.819 Y181.302
G1 F4800 X118.697 Y71.18 E570.152
G0 F9000 X118.132 Y71.18
G1 F4800 X228.819 Y181.867 E575.35838
G0 F9000 X228.819 Y182.433
G1 F4800 X117.566 Y71.18 E580.59138
G0 F9000 X117 Y71.18
G1 F4800 X228.819 Y182.999 E585.851
G0 F9000 X228.819 Y183.564
G1 F4800 X116.435 Y71.18 E591.1372
G0 F9000 X115.869 Y71.18
G1 F4800 X228.819 Y184.13 E596.45002
G0 F9000 X228.819 Y184.696
G1 F4800 X115.303 Y71.18 E601.78947
G0 F9000 X114.737 Y71.18
G1 F4800 X228.819 Y185.261 E607.15551
G0 F9000 X228.819 Y185.827
G1 F4800 X114.172 Y71.18 E612.54816
G0 F9000 X113.606 Y71.18
G1 F4800 X228.819 Y186.393 E617.96742
G0 F9000 X228.819 Y186.959
G1 F4800 X113.04 Y71.18 E623.41331
G0 F9000 X112.475 Y71.18
G1 F4800 X228.819 Y187.524 E628.88578
G0 F9000 X228.819 Y188.09
G1 F4800 X111.909 Y71.18 E634.38486
G0 F9000 X111.343 Y71.18
G1 F4800 X228.819 Y188.656 E639.91057
G0 F9000 X228.819 Y189.221
G1 F4800 X110.778 Y71.18 E645.46286
G0 F9000 X110.212 Y71.18
G1 F4800 X228.819 Y189.787 E651.04177
G0 F9000 X228.819 Y190.353
G1 F4800 X109.646 Y71.18 E656.6473
G0 F9000 X109.081 Y71.18
G1 F4800 X228.819 Y190.918 E662.27941
G0 F9000 X228.819 Y191.484
G1 F4800 X108.515 Y71.18 E667.93814
G0 F9000 X107.949 Y71.18
G1 F4800 X228.819 Y192.05 E673.6235
G0 F9000 X228.819 Y192.615
G1 F4800 X107.384 Y71.18 E679.33543
G0 F9000 X106.818 Y71.18
G1 F4800 X228.819 Y193.181 E685.07398
G0 F9000 X228.819 Y193.747
G1 F4800 X106.252 Y71.18 E690.83916
G0 F9000 X105.687 Y71.18
G1 F4800 X228.819 Y194.312 E696.63091
G0 F9000 X228.819 Y194.878
G1 F4800 X105.121 Y71.18 E702.44928
G0 F9000 X104.555 Y71.18
G1 F4800 X228.819 Y195.444 E708.29428
G0 F9000 X228.819 Y196.009
G1 F4800 X103.989 Y71.18 E714.16588
G0 F9000 X103.424 Y71.18
G1 F4800 X228.819 Y196.575 E720.06407
G0 F9000 X228.819 Y197.141
G1 F4800 X102.858 Y71.18 E725.98889
G0 F9000 X102.292 Y71.18
G1 F4800 X228.819 Y197.707 E731.94033
G0 F9000 X228.819 Y198.272
G1 F4800 X101.727 Y71.18 E737.91835
G0 F9000 X101.161 Y71.18
G1 F4800 X228.819 Y198.838 E743.92299
G0 F9000 X228.819 Y199.404
G1 F4800 X100.595 Y71.18 E749.95426
G0 F9000 X100.03 Y71.18
G1 F4800 X228.819 Y199.969 E756.0121
G0 F9000 X228.819 Y200.535
G1 F4800 X99.464 Y71.18 E762.09656
G0 F9000 X98.898 Y71.18
G1 F4800 X228.819 Y201.101 E768.20765
G0 F9000 X228.819 Y201.666
G1 F4800 X98.333 Y71.18 E774.34531
G0 F9000 X97.767 Y71.18
G1 F4800 X228.819 Y202.232 E780.50959
G0 F9000 X228.819 Y202.798
G1 F4800 X97.201 Y71.18 E786.7005
G0 F9000 X96.636 Y71.18
G1 F4800 X228.819 Y203.363 E792.91798
G0 F9000 X228.819 Y203.929
G1 F4800 X96.07 Y71.18 E799.16209
G0 F9000 X95.504 Y71.18
G1 F4800 X228.819 Y204.495 E805.43282
G0 F9000 X228.819 Y205.06
G1 F4800 X94.938 Y71.18 E811.73014
G0 F9000 X94.373 Y71.18
G1 F4800 X228.819 Y205.626 E818.05407
G0 F9000 X228.819 Y206.192
