;FLAVOR:Marlin
;TIME:51
;Filament used: 0.0939975m, 0m
;Layer height: 0.2
;MINX:117.7
;MINY:117.7
;MINZ:0.2
;MAXX:182.3
;MAXY:182.3
;MAXZ:0.2
;POSTPROCESSED
;Generated with Cura_SteamEngine 5.2.2
T0
G92 E0
M140 S60
M105
M190 S60
M104 S200
M105
M109 S200
M82 ;absolute extrusion mode
;----------Proforge 3.5 Start G-code---------- 
G28 ;Home 
Z_TILT_ADJUST ; Level the 4 Z motors.
BED_MESH_PROFILE LOAD=mesh_60c
G0 F8000 X120 Y25 Z0.3; Move the nozzle to the front edge.
G1 F4000 X260 E20; Prime the nozzle.
; ----------Proforge 3.5 Start G-code----------
G92 E0
G1 F1500 E-6.5
;LAYER_COUNT:1
;LAYER:0
M107
;MESH:Print-Z_Test 0.20 v2.stl(1)
G0 F9000 X118.1 Y118.1 Z0.2
;TYPE:WALL-INNER
G1 F1500 E0
G1 F4800 X118.1 Y131.9 E0.45899
G1 X131.9 Y131.9 E0.91798
G1 X131.9 Y118.1 E1.37697
G1 X118.1 Y118.1 E1.83596
G0 F9000 X117.7 Y117.7
;TYPE:WALL-OUTER
G1 F4800 X117.7 Y132.3 E2.32156
G1 X132.3 Y132.3 E2.80716
G1 X132.3 Y117.7 E3.29275
G1 X117.7 Y117.7 E3.77835
G0 F9000 X117.7 Y117.9
G0 X118.48 Y118.48
;TYPE:SKIN
G1 F4800 X118.48 Y131.52 E4.21206
G1 X131.52 Y131.52 E4.64578
G1 X131.52 Y118.48 E5.07949
G1 X118.48 Y118.48 E5.5132
G0 F9000 X131.319 Y118.874
G1 F4800 X131.125 Y118.68 E5.52233
G0 F9000 X130.559 Y118.68
G1 F4800 X131.319 Y119.44 E5.55807
G0 F9000 X131.319 Y120.005
G1 F4800 X129.993 Y118.68 E5.62042
G0 F9000 X129.428 Y118.68
G1 F4800 X131.319 Y120.571 E5.70937
G0 F9000 X131.319 Y121.137
G1 F4800 X128.862 Y118.68 E5.82494
G0 F9000 X128.296 Y118.68
G1 F4800 X131.319 Y121.702 E5.96711
G0 F9000 X131.319 Y122.268
G1 F4800 X127.731 Y118.68 E6.13587
G0 F9000 X127.165 Y118.68
G1 F4800 X131.319 Y122.834 E6.33127
G0 F9000 X131.319 Y123.4
G1 F4800 X126.599 Y118.68 E6.55328
G0 F9000 X126.034 Y118.68
G1 F4800 X131.319 Y123.965 E6.80187
G0 F9000 X131.319 Y124.531
G1 F4800 X125.468 Y118.68 E7.07708
G0 F9000 X124.902 Y118.68
G1 F4800 X131.319 Y125.097 E7.37892
G0 F9000 X131.319 Y125.662
G1 F4800 X124.336 Y118.68 E7.70736
G0 F9000 X123.771 Y118.68
G1 F4800 X131.319 Y126.228 E8.06239
G0 F9000 X131.319 Y126.794
G1 F4800 X123.205 Y118.68 E8.44405
G0 F9000 X122.639 Y118.68
G1 F4800 X131.319 Y127.359 E8.8523
G0 F9000 X131.319 Y127.925
G1 F4800 X122.074 Y118.68 E9.28716
G0 F9000 X121.508 Y118.68
G1 F4800 X131.319 Y128.491 E9.74864
G0 F9000 X131.319 Y129.056
G1 F4800 X120.942 Y118.68 E10.23672
G0 F9000 X120.377 Y118.68
G1 F4800 X131.319 Y129.622 E10.7514
G0 F9000 X131.319 Y130.188
G1 F4800 X119.811 Y118.68 E11.2927
G0 F9000 X119.245 Y118.68
G1 F4800 X131.319 Y130.753 E11.8606
G0 F9000 X131.319 Y131.319
G1 F4800 X118.679 Y118.679 E12.45515
G0 F9000 X118.679 Y119.245
G1 F4800 X130.753 Y131.318 E13.02305
G0 F9000 X130.187 Y131.318
G1 F4800 X118.679 Y119.81 E13.56435
G0 F9000 X118.679 Y120.376
G1 F4800 X129.621 Y131.318 E14.07903
G0 F9000 X129.056 Y131.318
G1 F4800 X118.679 Y120.942 E14.5671
G0 F9000 X118.679 Y121.507
G1 F4800 X128.49 Y131.318 E15.02858
G0 F9000 X127.924 Y131.318
G1 F4800 X118.679 Y122.073 E15.46344
G0 F9000 X118.679 Y122.639
G1 F4800 X127.359 Y131.318 E15.8717
G0 F9000 X126.793 Y131.318
G1 F4800 X118.679 Y123.204 E16.25335
G0 F9000 X118.679 Y123.77
G1 F4800 X126.227 Y131.318 E16.60839
G0 F9000 X125.662 Y131.318
G1 F4800 X118.679 Y124.336 E16.93682
G0 F9000 X118.679 Y124.901
G1 F4800 X125.096 Y131.318 E17.23866
G0 F9000 X124.53 Y131.318
G1 F4800 X118.679 Y125.467 E17.51387
G0 F9000 X118.679 Y126.033
G1 F4800 X123.965 Y131.318 E17.76249
G0 F9000 X123.399 Y131.318
G1 F4800 X118.679 Y126.598 E17.9845
G0 F9000 X118.679 Y127.164
G1 F4800 X122.833 Y131.318 E18.17989
G0 F9000 X122.267 Y131.318
G1 F4800 X118.679 Y127.73 E18.34866
G0 F9000 X118.679 Y128.296
G1 F4800 X121.702 Y131.318 E18.49083
G0 F9000 X121.136 Y131.318
G1 F4800 X118.679 Y128.861 E18.6064
G0 F9000 X118.679 Y129.427
G1 F4800 X120.57 Y131.318 E18.69535
G0 F9000 X120.005 Y131.318
G1 F4800 X118.679 Y129.993 E18.7577
G0 F9000 X118.679 Y130.558
G1 F4800 X119.439 Y131.318 E18.79344
G0 F9000 X118.873 Y131.318
G1 F4800 X118.679 Y131.124 E18.80257
G0 F9000 X118.7 Y131.124
G1 F1500 E12.30257
;MESH:Print-Z_Test 0.20 v2.stl(2)
G0 F9000 X132.086 Y132.086
G0 X133.54 Y132.086
G0 X142.914 Y141.46
G0 X142.914 Y142.914
G0 X143.37 Y143.37
G1 F1500 E18.80257
G0 F9000 X143.1 Y143.1
;TYPE:WALL-INNER
G1 F4800 X143.1 Y156.9 E19.26156
G1 X156.9 Y156.9 E19.72055
G1 X156.9 Y143.1 E20.17954
G1 X143.1 Y143.1 E20.63853
G0 F9000 X142.7 Y142.7
;TYPE:WALL-OUTER
G1 F4800 X142.7 Y157.3 E21.12413
G1 X157.3 Y157.3 E21.60972
G1 X157.3 Y142.7 E22.09532
G1 X142.7 Y142.7 E22.58092
G0 F9000 X142.7 Y142.9
G0 X143.48 Y143.48
;TYPE:SKIN
G1 F4800 X143.48 Y156.52 E23.01463
G1 X156.52 Y156.52 E23.44834
G1 X156.52 Y143.48 E23.88206
G1 X143.48 Y143.48 E24.31577
G0 F9000 X156.319 Y143.874
G1 F4800 X156.125 Y143.68 E24.32489
G0 F9000 X155.559 Y143.68
G1 F4800 X156.319 Y144.439 E24.36062
G0 F9000 X156.319 Y145.005
G1 F4800 X154.994 Y143.68 E24.42294
G0 F9000 X154.428 Y143.68
G1 F4800 X156.319 Y145.571 E24.51189
G0 F9000 X156.319 Y146.137
G1 F4800 X153.862 Y143.68 E24.62746
G0 F9000 X153.297 Y143.68
G1 F4800 X156.319 Y146.702 E24.7696
G0 F9000 X156.319 Y147.268
G1 F4800 X152.731 Y143.68 E24.93837
G0 F9000 X152.165 Y143.68
G1 F4800 X156.319 Y147.834 E25.13376
G0 F9000 X156.319 Y148.399
G1 F4800 X151.6 Y143.68 E25.35573
G0 F9000 X151.034 Y143.68
G1 F4800 X156.319 Y148.965 E25.60432
G0 F9000 X156.319 Y149.531
G1 F4800 X150.468 Y143.68 E25.87953
G0 F9000 X149.903 Y143.68
G1 F4800 X156.319 Y150.096 E26.18132
G0 F9000 X156.319 Y150.662
G1 F4800 X149.337 Y143.68 E26.50974
G0 F9000 X148.771 Y143.68
G1 F4800 X156.319 Y151.228 E26.86477
G0 F9000 X156.319 Y151.793
G1 F4800 X148.206 Y143.68 E27.24638
G0 F9000 X147.64 Y143.68
G1 F4800 X156.319 Y152.359 E27.65461
G0 F9000 X156.319 Y152.925
G1 F4800 X147.074 Y143.68 E28.08947
G0 F9000 X146.508 Y143.68
G1 F4800 X156.319 Y153.49 E28.55093
G0 F9000 X156.319 Y154.056
G1 F4800 X145.943 Y143.68 E29.03898
G0 F9000 X145.377 Y143.68
G1 F4800 X156.319 Y154.622 E29.55366
G0 F9000 X156.319 Y155.188
G1 F4800 X144.811 Y143.68 E30.09496
G0 F9000 X144.246 Y143.68
G1 F4800 X156.319 Y155.753 E30.66284
G0 F9000 X156.319 Y156.319
G1 F4800 X143.679 Y143.679 E31.25739
G0 F9000 X143.679 Y144.245
G1 F4800 X155.753 Y156.319 E31.82531
G0 F9000 X155.188 Y156.319
G1 F4800 X143.679 Y144.811 E32.36663
G0 F9000 X143.679 Y145.376
G1 F4800 X154.622 Y156.319 E32.88136
G0 F9000 X154.056 Y156.319
G1 F4800 X143.679 Y145.942 E33.36946
G0 F9000 X143.679 Y146.508
G1 F4800 X153.49 Y156.319 E33.83094
G0 F9000 X152.925 Y156.319
G1 F4800 X143.679 Y147.073 E34.26584
G0 F9000 X143.679 Y147.639
G1 F4800 X152.359 Y156.319 E34.67412
G0 F9000 X151.793 Y156.319
G1 F4800 X143.679 Y148.205 E35.05578
G0 F9000 X143.679 Y148.771
G1 F4800 X151.228 Y156.319 E35.41084
G0 F9000 X150.662 Y156.319
G1 F4800 X143.679 Y149.336 E35.7393
G0 F9000 X143.679 Y149.902
G1 F4800 X150.096 Y156.319 E36.04114
G0 F9000 X149.531 Y156.319
G1 F4800 X143.679 Y150.468 E36.31637
G0 F9000 X143.679 Y151.033
G1 F4800 X148.965 Y156.319 E36.56501
G0 F9000 X148.399 Y156.319
G1 F4800 X143.679 Y151.599 E36.78702
G0 F9000 X143.679 Y152.165
G1 F4800 X147.834 Y156.319 E36.98244
G0 F9000 X147.268 Y156.319
G1 F4800 X143.679 Y152.73 E37.15125
G0 F9000 X143.679 Y153.296
G1 F4800 X146.702 Y156.319 E37.29345
G0 F9000 X146.137 Y156.319
G1 F4800 X143.679 Y153.862 E37.40904
G0 F9000 X143.679 Y154.427
G1 F4800 X145.571 Y156.319 E37.49803
G0 F9000 X145.005 Y156.319
G1 F4800 X143.679 Y154.993 E37.5604
G0 F9000 X143.679 Y155.559
G1 F4800 X144.439 Y156.319 E37.59615
G0 F9000 X143.874 Y156.319
G1 F4800 X143.679 Y156.124 E37.60533
G0 F9000 X143.7 Y156.124
G1 F1500 E31.10533
;MESH:Print-Z_Test 0.20 v2.stl
G0 F9000 X142.914 Y157.086
G0 X141.46 Y157.086
G0 X132.086 Y166.46
G0 X132.086 Y167.914
G0 X118.37 Y168.37
G1 F1500 E37.60533
G0 F9000 X118.1 Y168.1
;TYPE:WALL-INNER
G1 F4800 X118.1 Y181.9 E38.06432
G1 X131.9 Y181.9 E38.5233
G1 X131.9 Y168.1 E38.98229
G1 X118.1 Y168.1 E39.44128
G0 F9000 X117.7 Y167.7
;TYPE:WALL-OUTER
G1 F4800 X117.7 Y182.3 E39.92688
G1 X132.3 Y182.3 E40.41248
G1 X132.3 Y167.7 E40.89808
G1 X117.7 Y167.7 E41.38368
G0 F9000 X117.7 Y167.9
G0 X118.48 Y168.48
;TYPE:SKIN
G1 F4800 X118.48 Y181.52 E41.81739
G1 X131.52 Y181.52 E42.2511
G1 X131.52 Y168.48 E42.68481
G1 X118.48 Y168.48 E43.11853
G0 F9000 X131.32 Y169.221
G1 F4800 X130.778 Y168.679 E43.14402
G0 F9000 X130.213 Y168.679
G1 F4800 X131.32 Y169.786 E43.19609
G0 F9000 X131.32 Y170.352
G1 F4800 X129.647 Y168.679 E43.27478
G0 F9000 X129.081 Y168.679
G1 F4800 X131.32 Y170.918 E43.3801
G0 F9000 X131.32 Y171.484
G1 F4800 X128.515 Y168.679 E43.51204
G0 F9000 X127.95 Y168.679
G1 F4800 X131.32 Y172.049 E43.67055
G0 F9000 X131.32 Y172.615
G1 F4800 X127.384 Y168.679 E43.85569
G0 F9000 X126.818 Y168.679
G1 F4800 X131.32 Y173.181 E44.06745
G0 F9000 X131.32 Y173.746
G1 F4800 X126.253 Y168.679 E44.30578
G0 F9000 X125.687 Y168.679
G1 F4800 X131.32 Y174.312 E44.57074
G0 F9000 X131.32 Y174.878
G1 F4800 X125.121 Y168.679 E44.86233
G0 F9000 X124.556 Y168.679
G1 F4800 X131.32 Y175.443 E45.18048
G0 F9000 X131.32 Y176.009
G1 F4800 X123.99 Y168.679 E45.52526
G0 F9000 X123.424 Y168.679
G1 F4800 X131.32 Y176.575 E45.89667
G0 F9000 X131.32 Y177.14
G1 F4800 X122.859 Y168.679 E46.29465
G0 F9000 X122.293 Y168.679
G1 F4800 X131.32 Y177.706 E46.71925
G0 F9000 X131.32 Y178.272
G1 F4800 X121.727 Y168.679 E47.17047
G0 F9000 X121.162 Y168.679
G1 F4800 X131.32 Y178.837 E47.64828
G0 F9000 X131.32 Y179.403
G1 F4800 X120.596 Y168.679 E48.1527
G0 F9000 X120.03 Y168.679
G1 F4800 X131.32 Y179.969 E48.68375
G0 F9000 X131.32 Y180.534
G1 F4800 X119.464 Y168.679 E49.24139
G0 F9000 X118.899 Y168.679
G1 F4800 X131.32 Y181.1 E49.82564
G0 F9000 X130.973 Y181.319
G1 F4800 X118.68 Y169.026 E50.40386
G0 F9000 X118.68 Y169.591
G1 F4800 X130.407 Y181.319 E50.95549
G0 F9000 X129.841 Y181.319
G1 F4800 X118.68 Y170.157 E51.48049
G0 F9000 X118.68 Y170.723
G1 F4800 X129.276 Y181.319 E51.9789
G0 F9000 X128.71 Y181.319
G1 F4800 X118.68 Y171.288 E52.4507
G0 F9000 X118.68 Y171.854
G1 F4800 X128.144 Y181.319 E52.89588
G0 F9000 X127.579 Y181.319
G1 F4800 X118.68 Y172.42 E53.31446
G0 F9000 X118.68 Y172.985
G1 F4800 X127.013 Y181.319 E53.70644
G0 F9000 X126.447 Y181.319
G1 F4800 X118.68 Y173.551 E54.0718
G0 F9000 X118.68 Y174.117
G1 F4800 X125.881 Y181.319 E54.41054
G0 F9000 X125.316 Y181.319
G1 F4800 X118.68 Y174.682 E54.7227
G0 F9000 X118.68 Y175.248
G1 F4800 X124.75 Y181.319 E55.00824
G0 F9000 X124.184 Y181.319
G1 F4800 X118.68 Y175.814 E55.26715
G0 F9000 X118.68 Y176.38
G1 F4800 X123.619 Y181.319 E55.49947
G0 F9000 X123.053 Y181.319
G1 F4800 X118.68 Y176.945 E55.70519
G0 F9000 X118.68 Y177.511
G1 F4800 X122.487 Y181.319 E55.88428
G0 F9000 X121.922 Y181.319
G1 F4800 X118.68 Y178.077 E56.03677
G0 F9000 X118.68 Y178.642
G1 F4800 X121.356 Y181.319 E56.16267
G0 F9000 X120.79 Y181.319
G1 F4800 X118.68 Y179.208 E56.26194
G0 F9000 X118.68 Y179.774
G1 F4800 X120.225 Y181.319 E56.33461
G0 F9000 X119.659 Y181.319
G1 F4800 X118.68 Y180.339 E56.38068
G0 F9000 X118.68 Y180.905
G1 F4800 X119.093 Y181.319 E56.40013
G0 F9000 X119.093 Y181.3
G1 F1500 E49.90013
;MESH:Print-Z_Test 0.20 v2.stl(4)
G0 F9000 X132.08 Y168.37
G0 X133.54 Y168.37
G0 X166.46 Y168.37
G0 X167.92 Y168.37
G1 F1500 E56.40013
G0 F9000 X168.1 Y168.1
;TYPE:WALL-INNER
G1 F4800 X168.1 Y181.9 E56.85912
G1 X181.9 Y181.9 E57.31811
G1 X181.9 Y168.1 E57.7771
G1 X168.1 Y168.1 E58.23609
G0 F9000 X167.7 Y167.7
;TYPE:WALL-OUTER
G1 F4800 X167.7 Y182.3 E58.72169
G1 X182.3 Y182.3 E59.20729
G1 X182.3 Y167.7 E59.69289
G1 X167.7 Y167.7 E60.17848
G0 F9000 X167.7 Y167.9
G0 X168.48 Y168.48
;TYPE:SKIN
G1 F4800 X168.48 Y181.52 E60.6122
G1 X181.52 Y181.52 E61.04591
G1 X181.52 Y168.48 E61.47962
G1 X168.48 Y168.48 E61.91333
G0 F9000 X181.319 Y168.874
G1 F4800 X181.125 Y168.68 E61.92246
G0 F9000 X180.559 Y168.68
G1 F4800 X181.319 Y169.44 E61.95821
G0 F9000 X181.319 Y170.006
G1 F4800 X179.994 Y168.68 E62.02055
G0 F9000 X179.428 Y168.68
G1 F4800 X181.319 Y170.571 E62.1095
G0 F9000 X181.319 Y171.137
G1 F4800 X178.862 Y168.68 E62.22507
G0 F9000 X178.296 Y168.68
G1 F4800 X181.319 Y171.703 E62.36726
G0 F9000 X181.319 Y172.268
G1 F4800 X177.731 Y168.68 E62.53603
G0 F9000 X177.165 Y168.68
G1 F4800 X181.319 Y172.834 E62.73142
G0 F9000 X181.319 Y173.4
G1 F4800 X176.599 Y168.68 E62.95344
G0 F9000 X176.034 Y168.68
G1 F4800 X181.319 Y173.965 E63.20203
G0 F9000 X181.319 Y174.531
G1 F4800 X175.468 Y168.68 E63.47724
G0 F9000 X174.902 Y168.68
G1 F4800 X181.319 Y175.097 E63.77908
G0 F9000 X181.319 Y175.663
G1 F4800 X174.337 Y168.68 E64.10751
G0 F9000 X173.771 Y168.68
G1 F4800 X181.319 Y176.228 E64.46255
G0 F9000 X181.319 Y176.794
G1 F4800 X173.205 Y168.68 E64.8442
G0 F9000 X172.64 Y168.68
G1 F4800 X181.319 Y177.36 E65.25246
G0 F9000 X181.319 Y177.925
G1 F4800 X172.074 Y168.68 E65.68732
G0 F9000 X171.508 Y168.68
G1 F4800 X181.319 Y178.491 E66.1488
G0 F9000 X181.319 Y179.057
G1 F4800 X170.943 Y168.68 E66.63688
G0 F9000 X170.377 Y168.68
G1 F4800 X181.319 Y179.622 E67.15155
G0 F9000 X181.319 Y180.188
G1 F4800 X169.811 Y168.68 E67.69285
G0 F9000 X169.246 Y168.68
G1 F4800 X181.319 Y180.754 E68.26076
G0 F9000 X181.319 Y181.319
G1 F4800 X168.679 Y168.679 E68.8553
G0 F9000 X168.679 Y169.245
G1 F4800 X180.753 Y181.319 E69.42323
G0 F9000 X180.187 Y181.319
G1 F4800 X168.679 Y169.81 E69.96455
G0 F9000 X168.679 Y170.376
G1 F4800 X179.622 Y181.319 E70.47928
G0 F9000 X179.056 Y181.319
G1 F4800 X168.679 Y170.942 E70.96738
G0 F9000 X168.679 Y171.508
G1 F4800 X178.49 Y181.319 E71.42886
G0 F9000 X177.925 Y181.319
G1 F4800 X168.679 Y172.073 E71.86376
G0 F9000 X168.679 Y172.639
G1 F4800 X177.359 Y181.319 E72.27204
G0 F9000 X176.793 Y181.319
G1 F4800 X168.679 Y173.205 E72.6537
G0 F9000 X168.679 Y173.77
G1 F4800 X176.227 Y181.319 E73.00876
G0 F9000 X175.662 Y181.319
G1 F4800 X168.679 Y174.336 E73.33722
G0 F9000 X168.679 Y174.902
G1 F4800 X175.096 Y181.319 E73.63905
G0 F9000 X174.53 Y181.319
G1 F4800 X168.679 Y175.467 E73.91429
G0 F9000 X168.679 Y176.033
G1 F4800 X173.965 Y181.319 E74.16293
G0 F9000 X173.399 Y181.319
G1 F4800 X168.679 Y176.599 E74.38494
G0 F9000 X168.679 Y177.164
G1 F4800 X172.833 Y181.319 E74.58036
G0 F9000 X172.268 Y181.319
G1 F4800 X168.679 Y177.73 E74.74917
G0 F9000 X168.679 Y178.296
G1 F4800 X171.702 Y181.319 E74.89136
G0 F9000 X171.136 Y181.319
G1 F4800 X168.679 Y178.861 E75.00696
G0 F9000 X168.679 Y179.427
G1 F4800 X170.571 Y181.319 E75.09595
G0 F9000 X170.005 Y181.319
G1 F4800 X168.679 Y179.993 E75.15832
G0 F9000 X168.679 Y180.559
G1 F4800 X169.439 Y181.319 E75.19407
G0 F9000 X168.874 Y181.319
G1 F4800 X168.679 Y181.124 E75.20324
G0 F9000 X168.7 Y181.124
G1 F1500 E68.70324
;MESH:Print-Z_Test 0.20 v2.stl(3)
G0 F9000 X168.37 Y167.92
G0 X168.37 Y166.46
G0 X168.37 Y133.54
G0 X168.37 Y132.08
G0 X168.37 Y118.37
G1 F1500 E75.20324
G0 F9000 X168.1 Y118.1
;TYPE:WALL-INNER
G1 F4800 X168.1 Y131.9 E75.66223
G1 X181.9 Y131.9 E76.12122
G1 X181.9 Y118.1 E76.58021
G1 X168.1 Y118.1 E77.0392
G0 F9000 X167.7 Y117.7
;TYPE:WALL-OUTER
G1 F4800 X167.7 Y132.3 E77.5248
G1 X182.3 Y132.3 E78.0104
G1 X182.3 Y117.7 E78.496
G1 X167.7 Y117.7 E78.98159
G0 F9000 X167.7 Y117.9
G0 X168.48 Y118.48
;TYPE:SKIN
G1 F4800 X168.48 Y131.52 E79.41531
G1 X181.52 Y131.52 E79.84902
G1 X181.52 Y118.48 E80.28273
G1 X168.48 Y118.48 E80.71644
G0 F9000 X181.319 Y119.094
G1 F4800 X180.905 Y118.68 E80.73592
G0 F9000 X180.339 Y118.68
G1 F4800 X181.319 Y119.66 E80.78201
G0 F9000 X181.319 Y120.225
G1 F4800 X179.774 Y118.68 E80.85468
G0 F9000 X179.208 Y118.68
G1 F4800 X181.319 Y120.791 E80.95398
G0 F9000 X181.319 Y121.357
G1 F4800 X178.642 Y118.68 E81.0799
G0 F9000 X178.077 Y118.68
G1 F4800 X181.319 Y121.922 E81.23239
G0 F9000 X181.319 Y122.488
G1 F4800 X177.511 Y118.68 E81.41151
G0 F9000 X176.945 Y118.68
G1 F4800 X181.319 Y123.054 E81.61725
G0 F9000 X181.319 Y123.619
G1 F4800 X176.38 Y118.68 E81.84956
G0 F9000 X175.814 Y118.68
G1 F4800 X181.319 Y124.185 E82.1085
G0 F9000 X181.319 Y124.751
G1 F4800 X175.248 Y118.68 E82.39406
G0 F9000 X174.682 Y118.68
G1 F4800 X181.319 Y125.316 E82.70622
G0 F9000 X181.319 Y125.882
G1 F4800 X174.117 Y118.68 E83.04498
G0 F9000 X173.551 Y118.68
G1 F4800 X181.319 Y126.448 E83.41036
