;FLAVOR:Marlin
;TIME:7596
;Filament used: 9.71721m, 0m
;Layer height: 0.2
;MINX:77.303
;MINY:114.311
;MINZ:0.16
;MAXX:222.697
;MAXY:185.689
;MAXZ:8.96
;Generated with Cura_SteamEngine 5.2.1
T0
M104 S205
M82 ;absolute extrusion mode
;----------Proforge 3.5 Start G-code---------- 
G92 E0 ;Zero Extruder 
M82 ;absolute extrusion mode 
M190 S60 ;wait for bed temp 
M109 S200 ; wait for nozzle temp
G28 ;Home 
Z_TILT_ADJUST
G28 ; ReHome
BED_MESH_PROFILE LOAD=mesh_60c ; Load bed Mesh.
G0 F8000 X150 Y5 Z0.4;Move hotend to bottom center
G1 F1500 X290 E20 ;Prime Hotend 
; ----------Proforge 3.5 Start G-code----------
G92 E0
G92 E0
G1 F3600 E-2
;LAYER_COUNT:45
;LAYER:0
M107
M204 S1000
G0 F6000 X158.923 Y127.976 Z0.16
M204 S750
;TYPE:SKIRT
G1 F3600 E0
G1 F3000 X160.303 Y126.322 E0.06935
G1 X161.781 Y124.753 E0.13875
G1 X163.35 Y123.277 E0.20811
G1 X164.947 Y121.943 E0.2751
G1 X166.682 Y120.664 E0.3445
G1 X168.551 Y119.453 E0.4162
G1 X170.427 Y118.394 E0.48556
G1 X172.299 Y117.481 E0.55261
G1 X174.354 Y116.628 E0.62425
G1 X176.393 Y115.923 E0.69371
G1 X178.395 Y115.365 E0.76062
G1 X180.498 Y114.907 E0.82992
G1 X182.702 Y114.571 E0.9017
G1 X184.774 Y114.38 E0.96869
G1 X186.927 Y114.311 E1.03804
G1 X189.153 Y114.375 E1.10974
G1 X191.297 Y114.569 E1.17905
G1 X193.429 Y114.892 E1.24848
G1 X195.464 Y115.325 E1.31546
G1 X197.539 Y115.899 E1.38478
G1 X199.646 Y116.623 E1.45651
G1 X201.635 Y117.446 E1.52581
G1 X203.574 Y118.387 E1.5952
G1 X205.451 Y119.445 E1.66457
G1 X207.202 Y120.574 E1.73165
G1 X208.997 Y121.888 E1.80327
G1 X210.599 Y123.219 E1.87032
G1 X212.17 Y124.692 E1.93966
G1 X213.701 Y126.31 E2.01138
G1 X215.037 Y127.906 E2.07839
G1 X216.318 Y129.639 E2.14777
G1 X217.532 Y131.506 E2.21947
G1 X218.558 Y133.315 E2.28643
G1 X219.507 Y135.25 E2.35582
G1 X220.363 Y137.304 E2.42746
G1 X221.048 Y139.271 E2.49452
G1 X221.631 Y141.343 E2.56382
G1 X222.104 Y143.519 E2.63551
G1 X222.431 Y145.651 E2.70496
G1 X222.624 Y147.723 E2.77196
G1 X222.697 Y149.946 E2.84357
G1 X222.64 Y152.027 E2.91059
G1 X222.443 Y154.244 E2.98225
G1 X222.123 Y156.376 E3.05166
G1 X221.692 Y158.413 E3.1187
G1 X221.098 Y160.559 E3.19039
G1 X220.4 Y162.598 E3.25977
G1 X219.607 Y164.523 E3.3268
G1 X218.557 Y166.683 E3.40413
G1 X217.531 Y168.492 E3.47109
G1 X216.458 Y170.157 E3.53486
G1 X215.033 Y172.097 E3.61236
G1 X213.7 Y173.689 E3.67921
G1 X212.17 Y175.306 E3.75088
G1 X210.598 Y176.78 E3.82026
G1 X208.94 Y178.154 E3.88959
G1 X207.263 Y179.384 E3.95655
G1 X205.389 Y180.592 E4.02833
G1 X203.575 Y181.612 E4.09533
G1 X201.57 Y182.583 E4.16706
G1 X199.646 Y183.376 E4.23406
G1 X197.611 Y184.079 E4.30338
G1 X195.535 Y184.655 E4.37274
G1 X193.358 Y185.12 E4.44441
G1 X191.298 Y185.43 E4.51148
G1 X189.154 Y185.624 E4.58079
G1 X186.928 Y185.688 E4.65249
G1 X184.775 Y185.619 E4.72184
G1 X182.703 Y185.428 E4.78883
G1 X180.499 Y185.092 E4.86061
G1 X178.465 Y184.652 E4.92761
G1 X176.324 Y184.053 E4.99919
G1 X174.356 Y183.373 E5.06623
G1 X172.3 Y182.518 E5.13792
G1 X170.428 Y181.605 E5.20498
G1 X168.552 Y180.546 E5.27433
G1 X166.683 Y179.335 E5.34604
G1 X164.948 Y178.056 E5.41543
G1 X163.297 Y176.674 E5.48475
G1 X161.73 Y175.194 E5.55415
G1 X160.304 Y173.677 E5.62118
G1 X158.924 Y172.023 E5.69053
G1 X157.606 Y170.229 E5.76221
G1 X156.438 Y168.418 E5.83159
G1 X155.383 Y166.541 E5.90091
G1 X154.443 Y164.602 E5.97029
G1 X153.647 Y162.681 E6.03723
G1 X152.92 Y160.573 E6.10903
G1 X152.363 Y158.571 E6.17593
G1 X151.909 Y156.464 E6.24532
G1 X151.574 Y154.26 E6.3171
G1 X151.386 Y152.188 E6.38408
G1 X151.319 Y149.965 E6.45569
G1 X151.385 Y147.811 E6.52507
G1 X151.573 Y145.739 E6.59205
G1 X151.908 Y143.536 E6.66379
G1 X152.344 Y141.499 E6.73086
G1 X152.942 Y139.357 E6.80246
G1 X153.645 Y137.317 E6.87193
G1 X154.442 Y135.396 E6.93889
G1 X155.416 Y133.393 E7.0106
G1 X156.475 Y131.518 E7.07993
G1 X157.605 Y129.77 E7.14695
G1 X158.923 Y127.976 E7.21862
M204 S1000
G0 F6000 X159.295 Y128.285
M204 S750
G1 F3000 X160.627 Y126.686 E7.28562
G1 X162.113 Y125.106 E7.35545
G1 X163.628 Y123.678 E7.42248
G1 X165.293 Y122.287 E7.49233
G1 X167.004 Y121.03 E7.56069
G1 X168.79 Y119.874 E7.62918
G1 X170.639 Y118.829 E7.69756
G1 X172.511 Y117.916 E7.76462
G1 X174.512 Y117.085 E7.83438
G1 X176.48 Y116.403 E7.90144
G1 X178.566 Y115.821 E7.97116
G1 X180.6 Y115.38 E8.03817
G1 X182.746 Y115.053 E8.10806
G1 X184.862 Y114.859 E8.17647
G1 X186.986 Y114.794 E8.24489
G1 X189.066 Y114.854 E8.31188
G1 X191.225 Y115.048 E8.38167
G1 X193.285 Y115.358 E8.44874
G1 X195.406 Y115.809 E8.51856
G1 X197.452 Y116.378 E8.58693
G1 X199.42 Y117.054 E8.65393
G1 X201.385 Y117.864 E8.72235
G1 X203.337 Y118.809 E8.79218
G1 X205.151 Y119.829 E8.85918
G1 X206.975 Y121.005 E8.92905
G1 X208.653 Y122.233 E8.996
G1 X210.323 Y123.621 E9.06591
G1 X211.869 Y125.075 E9.13424
G1 X213.33 Y126.621 E9.20273
G1 X214.666 Y128.217 E9.26974
G1 X215.953 Y129.961 E9.33952
G1 X217.111 Y131.745 E9.408
G1 X218.137 Y133.554 E9.47496
G1 X219.09 Y135.503 E9.54481
G1 X219.906 Y137.463 E9.61316
G1 X220.591 Y139.43 E9.68022
G1 X221.165 Y141.474 E9.74857
G1 X221.625 Y143.593 E9.81839
G1 X221.949 Y145.696 E9.88689
G1 X222.145 Y147.811 E9.95528
G1 X222.213 Y149.933 E10.02363
G1 X222.156 Y152.014 E10.09066
G1 X221.964 Y154.173 E10.16044
G1 X221.657 Y156.233 E10.2275
G1 X221.208 Y158.357 E10.29739
G1 X220.653 Y160.362 E10.36437
G1 X219.952 Y162.414 E10.43419
G1 X219.141 Y164.379 E10.50263
G1 X218.136 Y166.444 E10.57657
G1 X217.088 Y168.289 E10.64488
G1 X216.051 Y169.895 E10.70643
G1 X214.662 Y171.786 E10.78197
G1 X213.329 Y173.378 E10.84883
G1 X211.839 Y174.953 E10.91863
G1 X210.289 Y176.408 E10.98708
G1 X208.688 Y177.737 E11.05407
G1 X206.94 Y179.018 E11.12384
G1 X205.152 Y180.17 E11.19232
G1 X203.338 Y181.19 E11.25932
G1 X201.386 Y182.135 E11.32915
G1 X199.462 Y182.928 E11.39615
G1 X197.41 Y183.635 E11.46602
G1 X195.406 Y184.189 E11.53296
G1 X193.286 Y184.641 E11.60275
G1 X191.226 Y184.951 E11.66982
G1 X189.067 Y185.145 E11.73961
G1 X186.943 Y185.205 E11.80802
G1 X184.863 Y185.14 E11.87502
G1 X182.705 Y184.941 E11.9448
G1 X180.602 Y184.619 E12.01329
G1 X178.568 Y184.179 E12.0803
G1 X176.523 Y183.608 E12.14865
G1 X174.472 Y182.899 E12.21852
G1 X172.512 Y182.083 E12.28688
G1 X170.64 Y181.17 E12.35393
G1 X168.753 Y180.102 E12.42374
G1 X166.97 Y178.945 E12.49217
G1 X165.294 Y177.712 E12.55916
G1 X163.629 Y176.321 E12.62902
G1 X162.083 Y174.862 E12.69746
G1 X160.628 Y173.313 E12.76588
G1 X159.296 Y171.714 E12.83288
G1 X158.012 Y169.966 E12.90271
G1 X156.859 Y168.18 E12.97115
G1 X155.838 Y166.368 E13.03812
G1 X154.89 Y164.417 E13.10795
G1 X154.094 Y162.496 E13.1749
G1 X153.387 Y160.444 E13.24478
G1 X152.819 Y158.399 E13.31311
G1 X152.374 Y156.319 E13.38159
G1 X152.061 Y154.26 E13.44865
G1 X151.865 Y152.101 E13.51844
G1 X151.802 Y149.979 E13.58679
G1 X151.864 Y147.898 E13.65382
G1 X152.06 Y145.739 E13.72362
G1 X152.373 Y143.68 E13.79067
G1 X152.817 Y141.6 E13.85915
G1 X153.399 Y139.514 E13.92887
G1 X154.076 Y137.545 E13.99591
G1 X154.889 Y135.582 E14.06431
G1 X155.837 Y133.631 E14.13415
G1 X156.881 Y131.781 E14.20254
G1 X158.011 Y130.033 E14.26956
G1 X159.295 Y128.285 E14.33939
M204 S1000
G0 F6000 X159.667 Y128.595
M204 S750
G1 F3000 X161.009 Y126.985 E14.40687
G1 X162.445 Y125.458 E14.47435
G1 X163.971 Y124.02 E14.54186
G1 X165.58 Y122.677 E14.60934
G1 X167.267 Y121.436 E14.67677
G1 X169.028 Y120.295 E14.74432
G1 X170.851 Y119.264 E14.81175
G1 X172.723 Y118.351 E14.87881
G1 X174.671 Y117.542 E14.94672
G1 X176.653 Y116.856 E15.01425
G1 X178.669 Y116.294 E15.08163
G1 X180.703 Y115.853 E15.14864
G1 X182.791 Y115.535 E15.21664
G1 X184.877 Y115.343 E15.28408
G1 X186.972 Y115.278 E15.35156
G1 X189.067 Y115.339 E15.41904
G1 X191.153 Y115.527 E15.48648
G1 X193.227 Y115.839 E15.554
G1 X195.277 Y116.276 E15.62149
G1 X197.295 Y116.836 E15.68891
G1 X199.276 Y117.517 E15.75636
G1 X201.213 Y118.317 E15.82383
G1 X203.1 Y119.231 E15.89133
G1 X204.914 Y120.251 E15.95834
G1 X206.689 Y121.396 E16.02634
G1 X208.379 Y122.633 E16.09377
G1 X209.992 Y123.974 E16.16131
G1 X211.518 Y125.408 E16.22873
G1 X212.959 Y126.932 E16.29625
G1 X214.304 Y128.539 E16.36372
G1 X215.547 Y130.225 E16.43116
G1 X216.69 Y131.984 E16.4987
G1 X217.716 Y133.793 E16.56566
G1 X218.643 Y135.689 E16.63361
G1 X219.449 Y137.622 E16.70103
G1 X220.134 Y139.589 E16.76809
G1 X220.702 Y141.619 E16.83596
G1 X221.147 Y143.667 E16.90344
G1 X221.467 Y145.741 E16.971
G1 X221.661 Y147.827 E17.03845
G1 X221.729 Y149.92 E17.10587
G1 X221.671 Y152.015 E17.17335
G1 X221.485 Y154.102 E17.24081
G1 X221.176 Y156.176 E17.30832
G1 X220.741 Y158.228 E17.37585
G1 X220.182 Y160.246 E17.44327
G1 X219.505 Y162.229 E17.51073
G1 X218.706 Y164.168 E17.57825
G1 X217.715 Y166.205 E17.65119
G1 X216.689 Y168.014 E17.71814
G1 X215.636 Y169.644 E17.78062
G1 X214.291 Y171.475 E17.85377
G1 X212.948 Y173.078 E17.9211
G1 X211.508 Y174.6 E17.98855
G1 X209.98 Y176.035 E18.05604
G1 X208.367 Y177.373 E18.12352
G1 X206.678 Y178.611 E18.19094
G1 X204.915 Y179.748 E18.25848
G1 X203.087 Y180.775 E18.32599
G1 X201.201 Y181.688 E18.39345
G1 X199.264 Y182.486 E18.4609
G1 X197.296 Y183.164 E18.52791
G1 X195.263 Y183.726 E18.59582
G1 X193.214 Y184.162 E18.66327
G1 X191.14 Y184.474 E18.73079
G1 X189.053 Y184.661 E18.79825
G1 X186.958 Y184.721 E18.86573
G1 X184.864 Y184.655 E18.93318
G1 X182.778 Y184.462 E19.00063
G1 X180.704 Y184.146 E19.06818
G1 X178.656 Y183.702 E19.13564
G1 X176.64 Y183.138 E19.20304
G1 X174.672 Y182.458 E19.27008
G1 X172.724 Y181.648 E19.338
G1 X170.839 Y180.728 E19.40554
G1 X169.016 Y179.696 E19.47298
G1 X167.257 Y178.555 E19.54048
G1 X165.569 Y177.313 E19.60796
G1 X163.961 Y175.969 E19.67543
G1 X162.436 Y174.531 E19.74291
G1 X161 Y173.003 E19.81042
G1 X159.659 Y171.392 E19.87791
G1 X158.419 Y169.703 E19.94537
G1 X157.281 Y167.943 E20.01285
G1 X156.253 Y166.118 E20.08029
G1 X155.337 Y164.232 E20.14779
G1 X154.536 Y162.297 E20.21522
G1 X153.853 Y160.314 E20.28274
G1 X153.292 Y158.298 E20.35011
G1 X152.855 Y156.261 E20.41719
G1 X152.538 Y154.173 E20.48518
G1 X152.349 Y152.086 E20.55265
G1 X152.286 Y149.994 E20.62004
G1 X152.349 Y147.898 E20.68755
G1 X152.539 Y145.812 E20.75499
G1 X152.854 Y143.738 E20.82253
G1 X153.294 Y141.687 E20.89006
G1 X153.857 Y139.671 E20.95745
G1 X154.539 Y137.688 E21.02497
G1 X155.342 Y135.754 E21.09239
G1 X156.259 Y133.868 E21.15991
G1 X157.28 Y132.056 E21.22687
G1 X158.426 Y130.284 E21.29481
G1 X159.667 Y128.595 E21.36229
M204 S1000
G1 F3600 E19.36229
G0 F6000 X145.557 Y135.397
M204 S750
G1 F3600 E21.36229
G1 F3000 X146.353 Y137.319 E21.42927
G1 X147.08 Y139.427 E21.50106
G1 X147.637 Y141.429 E21.56796
G1 X148.091 Y143.535 E21.63733
G1 X148.426 Y145.739 E21.7091
G1 X148.614 Y147.811 E21.77608
G1 X148.681 Y150.035 E21.84772
G1 X148.615 Y152.189 E21.9171
G1 X148.427 Y154.261 E21.98409
G1 X148.092 Y156.464 E22.05583
G1 X147.656 Y158.501 E22.1229
G1 X147.058 Y160.643 E22.1945
G1 X146.355 Y162.683 E22.26397
G1 X145.558 Y164.604 E22.33093
G1 X144.584 Y166.607 E22.40264
G1 X143.525 Y168.482 E22.47197
G1 X142.395 Y170.23 E22.53898
G1 X141.077 Y172.024 E22.61065
G1 X139.697 Y173.678 E22.68
G1 X138.219 Y175.247 E22.7494
G1 X136.65 Y176.723 E22.81876
G1 X135.053 Y178.057 E22.88575
G1 X133.318 Y179.336 E22.95515
G1 X131.449 Y180.547 E23.02685
G1 X129.573 Y181.606 E23.09621
G1 X127.701 Y182.519 E23.16327
G1 X125.646 Y183.372 E23.2349
G1 X123.607 Y184.077 E23.30436
G1 X121.605 Y184.635 E23.37127
G1 X119.502 Y185.093 E23.44057
G1 X117.298 Y185.429 E23.51235
G1 X115.226 Y185.62 E23.57934
G1 X113.073 Y185.689 E23.64869
G1 X110.847 Y185.625 E23.72039
G1 X108.703 Y185.431 E23.7897
G1 X106.571 Y185.108 E23.85913
G1 X104.536 Y184.675 E23.92611
G1 X102.461 Y184.101 E23.99543
G1 X100.354 Y183.377 E24.06716
G1 X98.365 Y182.554 E24.13646
G1 X96.426 Y181.613 E24.20585
G1 X94.549 Y180.555 E24.27522
G1 X92.798 Y179.426 E24.3423
G1 X91.002 Y178.111 E24.41396
G1 X89.401 Y176.781 E24.48098
G1 X87.829 Y175.307 E24.55036
G1 X86.299 Y173.69 E24.62203
G1 X84.962 Y172.093 E24.68909
G1 X83.64 Y170.301 E24.76078
G1 X82.468 Y168.494 E24.83012
G1 X81.442 Y166.685 E24.89708
G1 X80.463 Y164.683 E24.96883
G1 X79.637 Y162.696 E25.03811
G1 X78.952 Y160.729 E25.10517
G1 X78.369 Y158.657 E25.17447
G1 X77.896 Y156.48 E25.2462
G1 X77.569 Y154.348 E25.31564
G1 X77.376 Y152.276 E25.38264
G1 X77.303 Y150.054 E25.45422
G1 X77.36 Y147.973 E25.52124
G1 X77.557 Y145.756 E25.5929
G1 X77.877 Y143.624 E25.66231
G1 X78.308 Y141.587 E25.72935
G1 X78.902 Y139.441 E25.80104
G1 X79.6 Y137.402 E25.87042
G1 X80.393 Y135.477 E25.93745
G1 X81.443 Y133.317 E26.01478
G1 X82.469 Y131.508 E26.08174
G1 X83.542 Y129.843 E26.14551
G1 X84.967 Y127.903 E26.22301
G1 X86.3 Y126.311 E26.28986
G1 X87.83 Y124.694 E26.36153
G1 X89.402 Y123.22 E26.43091
G1 X91.06 Y121.846 E26.50024
G1 X92.737 Y120.616 E26.5672
G1 X94.611 Y119.408 E26.63898
G1 X96.425 Y118.388 E26.70599
G1 X98.43 Y117.417 E26.77771
G1 X100.354 Y116.624 E26.84471
G1 X102.389 Y115.921 E26.91403
G1 X104.465 Y115.345 E26.98339
G1 X106.642 Y114.88 E27.05506
G1 X108.702 Y114.57 E27.12213
G1 X110.846 Y114.376 E27.19144
G1 X113.072 Y114.312 E27.26314
G1 X115.225 Y114.381 E27.33249
G1 X117.297 Y114.572 E27.39949
G1 X119.501 Y114.908 E27.47126
G1 X121.535 Y115.348 E27.53827
G1 X123.676 Y115.947 E27.60984
G1 X125.644 Y116.627 E27.67688
G1 X127.7 Y117.482 E27.74857
G1 X129.572 Y118.395 E27.81563
G1 X131.448 Y119.454 E27.88499
G1 X133.317 Y120.665 E27.95669
G1 X135.051 Y121.943 E28.02604
G1 X136.703 Y123.326 E28.0954
G1 X138.269 Y124.805 E28.16475
G1 X139.696 Y126.323 E28.23183
G1 X141.075 Y127.976 E28.30114
G1 X142.393 Y129.77 E28.37281
G1 X143.562 Y131.582 E28.44224
G1 X144.617 Y133.459 E28.51156
G1 X145.557 Y135.397 E28.58091
M204 S1000
G0 F6000 X145.11 Y135.582
M204 S750
G1 F3000 X145.906 Y137.504 E28.64789
G1 X146.613 Y139.556 E28.71776
G1 X147.181 Y141.601 E28.7861
G1 X147.626 Y143.68 E28.85455
G1 X147.939 Y145.739 E28.9216
G1 X148.135 Y147.898 E28.9914
G1 X148.198 Y150.021 E29.05978
G1 X148.136 Y152.102 E29.12681
G1 X147.94 Y154.261 E29.1966
G1 X147.627 Y156.32 E29.26366
G1 X147.183 Y158.4 E29.33213
G1 X146.601 Y160.486 E29.40186
G1 X145.924 Y162.455 E29.46889
G1 X145.111 Y164.418 E29.5373
G1 X144.163 Y166.369 E29.60714
G1 X143.119 Y168.219 E29.67553
G1 X141.989 Y169.967 E29.74254
G1 X140.705 Y171.715 E29.81237
G1 X139.373 Y173.314 E29.87938
G1 X137.887 Y174.894 E29.94921
G1 X136.372 Y176.322 E30.01624
G1 X134.707 Y177.713 E30.08609
G1 X132.996 Y178.97 E30.15444
G1 X131.21 Y180.126 E30.22294
G1 X129.361 Y181.171 E30.29132
G1 X127.489 Y182.084 E30.35838
G1 X125.488 Y182.915 E30.42813
G1 X123.52 Y183.597 E30.49519
G1 X121.434 Y184.179 E30.56492
G1 X119.4 Y184.62 E30.63193
G1 X117.254 Y184.947 E30.70182
G1 X115.138 Y185.141 E30.77023
G1 X113.014 Y185.206 E30.83864
G1 X110.934 Y185.146 E30.90564
G1 X108.775 Y184.952 E30.97543
G1 X106.715 Y184.642 E31.0425
G1 X104.594 Y184.191 E31.11231
G1 X102.548 Y183.622 E31.18069
G1 X100.58 Y182.946 E31.24768
G1 X98.615 Y182.136 E31.31611
G1 X96.663 Y181.191 E31.38593
G1 X94.849 Y180.171 E31.45294
G1 X93.025 Y178.995 E31.52281
G1 X91.346 Y177.766 E31.5898
G1 X89.677 Y176.379 E31.65967
G1 X88.13 Y174.924 E31.72804
G1 X86.67 Y173.379 E31.79648
G1 X85.333 Y171.782 E31.86354
G1 X84.046 Y170.038 E31.93332
G1 X82.889 Y168.255 E32.00176
G1 X81.863 Y166.446 E32.06871
G1 X80.91 Y164.496 E32.13859
G1 X80.094 Y162.537 E32.20692
G1 X79.409 Y160.57 E32.27398
G1 X78.835 Y158.526 E32.34233
G1 X78.375 Y156.406 E32.41217
G1 X78.051 Y154.303 E32.48068
G1 X77.855 Y152.188 E32.54906
G1 X77.787 Y150.067 E32.61739
G1 X77.844 Y147.986 E32.68441
G1 X78.036 Y145.827 E32.7542
G1 X78.343 Y143.767 E32.82125
