;FLAVOR:Marlin
;TIME:1101
;Filament used: 1.27122m, 0m
;Layer height: 0.2
;MINX:100.22
;MINY:140.22
;MINZ:0.2
;MAXX:199.78
;MAXY:159.78
;MAXZ:13
;Generated with Cura_SteamEngine 5.2.1
T0 ; Set Nozzle 00
M104 S200
M82 ;absolute extrusion mode
;----------Proforge 3.5 Start G-code---------- 
G92 E0 ;Zero Extruder 
M82 ;absolute extrusion mode 
M190 S60 ;wait for bed temp 
M109 S200 ; wait for nozzle temp
G28 ;Home 
Z_TILT_ADJUST
G28 ; ReHome
BED_MESH_PROFILE LOAD=mesh_60c ; Load bed Mesh.
G0 F8000 X150 Y5 Z0.4;Move hotend to bottom center
G1 F1500 X290 E20 ;Prime Hotend 
; ----------Proforge 3.5 Start G-code----------
G92 E0
G92 E0
G1 F1800 E-6
;LAYER_COUNT:65
;LAYER:0
M107
M204 S1000
G1 F600 Z0.7
;MESH:4 Post Retract Tester with Fill. v5.stl
G0 F7800 X101.21 Y141.21 Z0.7
M204 S750
;TYPE:WALL-INNER
G1 F600 Z0.2
G1 F1800 E0
G1 F4800 X101.21 Y158.79 E0.7075
G1 X198.79 Y158.79 E4.63459
G1 X198.79 Y150 E4.98834
G1 X198.79 Y141.21 E5.34209
G1 X101.21 Y141.21 E9.26917
M204 S1000
G0 F7800 X100.726 Y140.726
M204 S750
G1 F4800 X100.726 Y159.274 E10.01563
G1 X199.274 Y159.274 E13.98167
G1 X199.274 Y150 E14.3549
G1 X199.274 Y140.726 E14.72813
G1 X100.726 Y140.726 E18.69418
M204 S1000
G0 F7800 X100.242 Y140.242
M204 S750
;TYPE:WALL-OUTER
G1 F4800 X100.242 Y159.758 E19.47959
G1 X199.758 Y159.758 E23.48459
G1 X199.758 Y150 E23.8773
G1 X199.758 Y140.242 E24.27001
G1 X100.242 Y140.242 E28.275
M204 S1000
G0 F7800 X100.89 Y140.89
G0 X101.65 Y141.65
M204 S750
;TYPE:SKIN
G1 F4800 X101.65 Y158.35 E28.94709
G1 X198.35 Y158.35 E32.83876
G1 X198.35 Y150 E33.1748
G1 X198.35 Y141.65 E33.51085
G1 X101.65 Y141.65 E37.40252
M204 S1000
G0 F7800 X101.891 Y158.019
M204 S750
G1 F4800 X101.979 Y158.106 E37.4075
M204 S1000
G0 F7800 X102.664 Y158.106
M204 S750
G1 F4800 X101.891 Y157.334 E37.45146
M204 S1000
G0 F7800 X101.891 Y156.65
M204 S750
G1 F4800 X103.348 Y158.106 E37.53436
M204 S1000
G0 F7800 X104.033 Y158.106
M204 S750
G1 F4800 X101.891 Y155.965 E37.65624
M204 S1000
G0 F7800 X101.891 Y155.281
M204 S750
G1 F4800 X104.717 Y158.106 E37.81706
M204 S1000
G0 F7800 X105.402 Y158.106
M204 S750
G1 F4800 X101.891 Y154.596 E38.01685
M204 S1000
G0 F7800 X101.891 Y153.912
M204 S750
G1 F4800 X106.086 Y158.106 E38.25558
M204 S1000
G0 F7800 X106.771 Y158.106
M204 S750
G1 F4800 X101.891 Y153.227 E38.5333
M204 S1000
G0 F7800 X101.891 Y152.543
M204 S750
G1 F4800 X107.455 Y158.106 E38.84994
M204 S1000
G0 F7800 X108.139 Y158.106
M204 S750
G1 F4800 X101.891 Y151.858 E39.20555
M204 S1000
G0 F7800 X101.891 Y151.174
M204 S750
G1 F4800 X108.824 Y158.106 E39.60011
M204 S1000
G0 F7800 X109.508 Y158.106
M204 S750
G1 F4800 X101.891 Y150.49 E40.0336
M204 S1000
G0 F7800 X101.891 Y149.805
M204 S750
G1 F4800 X110.193 Y158.106 E40.50608
M204 S1000
G0 F7800 X110.877 Y158.106
M204 S750
G1 F4800 X101.891 Y149.121 E41.01748
M204 S1000
G0 F7800 X101.891 Y148.436
M204 S750
G1 F4800 X111.562 Y158.106 E41.56788
M204 S1000
G0 F7800 X112.246 Y158.106
M204 S750
G1 F4800 X101.891 Y147.752 E42.1572
M204 S1000
G0 F7800 X101.891 Y147.067
M204 S750
G1 F4800 X112.931 Y158.106 E42.78551
M204 S1000
G0 F7800 X113.615 Y158.106
M204 S750
G1 F4800 X101.891 Y146.383 E43.45275
M204 S1000
G0 F7800 X101.891 Y145.698
M204 S750
G1 F4800 X114.3 Y158.106 E44.15897
M204 S1000
G0 F7800 X114.984 Y158.106
M204 S750
G1 F4800 X101.891 Y145.014 E44.90413
M204 S1000
G0 F7800 X101.891 Y144.329
M204 S750
G1 F4800 X115.669 Y158.106 E45.68827
M204 S1000
G0 F7800 X116.353 Y158.106
M204 S750
G1 F4800 X101.891 Y143.645 E46.51134
M204 S1000
G0 F7800 X101.891 Y142.96
M204 S750
G1 F4800 X117.038 Y158.106 E47.3734
M204 S1000
G0 F7800 X117.722 Y158.106
M204 S750
G1 F4800 X101.891 Y142.276 E48.27439
M204 S1000
G0 F7800 X102.192 Y141.892
M204 S750
G1 F4800 X118.407 Y158.106 E49.19723
M204 S1000
G0 F7800 X119.091 Y158.106
M204 S750
G1 F4800 X102.876 Y141.892 E50.12008
M204 S1000
G0 F7800 X103.561 Y141.892
M204 S750
G1 F4800 X119.776 Y158.106 E51.04292
M204 S1000
G0 F7800 X120.46 Y158.106
M204 S750
G1 F4800 X104.245 Y141.892 E51.96576
M204 S1000
G0 F7800 X104.93 Y141.892
M204 S750
G1 F4800 X121.145 Y158.106 E52.88861
M204 S1000
G0 F7800 X121.829 Y158.106
M204 S750
G1 F4800 X105.614 Y141.892 E53.81145
M204 S1000
G0 F7800 X106.299 Y141.892
M204 S750
G1 F4800 X122.514 Y158.106 E54.73429
M204 S1000
G0 F7800 X123.198 Y158.106
M204 S750
G1 F4800 X106.983 Y141.892 E55.65714
M204 S1000
G0 F7800 X107.668 Y141.892
M204 S750
G1 F4800 X123.882 Y158.106 E56.57995
M204 S1000
G0 F7800 X124.567 Y158.106
M204 S750
G1 F4800 X108.352 Y141.892 E57.50279
M204 S1000
G0 F7800 X109.037 Y141.892
M204 S750
G1 F4800 X125.251 Y158.106 E58.42561
M204 S1000
G0 F7800 X125.936 Y158.106
M204 S750
G1 F4800 X109.721 Y141.892 E59.34845
M204 S1000
G0 F7800 X110.406 Y141.892
M204 S750
G1 F4800 X126.62 Y158.106 E60.27127
M204 S1000
G0 F7800 X127.305 Y158.106
M204 S750
G1 F4800 X111.09 Y141.892 E61.19411
M204 S1000
G0 F7800 X111.775 Y141.892
M204 S750
G1 F4800 X127.989 Y158.106 E62.11692
M204 S1000
G0 F7800 X128.674 Y158.106
M204 S750
G1 F4800 X112.459 Y141.892 E63.03977
M204 S1000
G0 F7800 X113.144 Y141.892
M204 S750
G1 F4800 X129.358 Y158.106 E63.96258
M204 S1000
G0 F7800 X130.043 Y158.106
M204 S750
G1 F4800 X113.828 Y141.892 E64.88543
M204 S1000
G0 F7800 X114.513 Y141.892
M204 S750
G1 F4800 X130.727 Y158.106 E65.80824
M204 S1000
G0 F7800 X131.412 Y158.106
M204 S750
G1 F4800 X115.197 Y141.892 E66.73108
M204 S1000
G0 F7800 X115.882 Y141.892
M204 S750
G1 F4800 X132.096 Y158.106 E67.6539
M204 S1000
G0 F7800 X132.781 Y158.106
M204 S750
G1 F4800 X116.566 Y141.892 E68.57674
M204 S1000
G0 F7800 X117.251 Y141.892
M204 S750
G1 F4800 X133.465 Y158.106 E69.49956
M204 S1000
G0 F7800 X134.15 Y158.106
M204 S750
G1 F4800 X117.935 Y141.892 E70.4224
M204 S1000
G0 F7800 X118.619 Y141.892
M204 S750
G1 F4800 X134.834 Y158.106 E71.34524
M204 S1000
G0 F7800 X135.519 Y158.106
M204 S750
G1 F4800 X119.304 Y141.892 E72.26809
M204 S1000
G0 F7800 X119.988 Y141.892
M204 S750
G1 F4800 X136.203 Y158.106 E73.19093
M204 S1000
G0 F7800 X136.888 Y158.106
M204 S750
G1 F4800 X120.673 Y141.892 E74.11377
M204 S1000
G0 F7800 X121.357 Y141.892
M204 S750
G1 F4800 X137.572 Y158.106 E75.03662
M204 S1000
G0 F7800 X138.257 Y158.106
M204 S750
G1 F4800 X122.042 Y141.892 E75.95946
M204 S1000
G0 F7800 X122.726 Y141.892
M204 S750
G1 F4800 X138.941 Y158.106 E76.8823
M204 S1000
G0 F7800 X139.626 Y158.106
M204 S750
G1 F4800 X123.411 Y141.892 E77.80515
M204 S1000
G0 F7800 X124.095 Y141.892
M204 S750
G1 F4800 X140.31 Y158.106 E78.72799
M204 S1000
G0 F7800 X140.994 Y158.106
M204 S750
G1 F4800 X124.78 Y141.892 E79.6508
M204 S1000
G0 F7800 X125.464 Y141.892
M204 S750
G1 F4800 X141.679 Y158.106 E80.57365
M204 S1000
G0 F7800 X142.363 Y158.106
M204 S750
G1 F4800 X126.149 Y141.892 E81.49646
M204 S1000
G0 F7800 X126.833 Y141.892
M204 S750
G1 F4800 X143.048 Y158.106 E82.41931
M204 S1000
G0 F7800 X143.732 Y158.106
M204 S750
G1 F4800 X127.518 Y141.892 E83.34212
M204 S1000
G0 F7800 X128.202 Y141.892
M204 S750
G1 F4800 X144.417 Y158.106 E84.26496
M204 S1000
G0 F7800 X145.101 Y158.106
M204 S750
G1 F4800 X128.887 Y141.892 E85.18778
M204 S1000
G0 F7800 X129.571 Y141.892
M204 S750
G1 F4800 X145.786 Y158.106 E86.11062
M204 S1000
G0 F7800 X146.47 Y158.106
M204 S750
G1 F4800 X130.256 Y141.892 E87.03344
M204 S1000
G0 F7800 X130.94 Y141.892
M204 S750
G1 F4800 X147.155 Y158.106 E87.95628
M204 S1000
G0 F7800 X147.839 Y158.106
M204 S750
G1 F4800 X131.625 Y141.892 E88.87909
M204 S1000
G0 F7800 X132.309 Y141.892
M204 S750
G1 F4800 X148.524 Y158.106 E89.80194
M204 S1000
G0 F7800 X149.208 Y158.106
M204 S750
G1 F4800 X132.994 Y141.892 E90.72475
M204 S1000
G0 F7800 X133.678 Y141.892
M204 S750
G1 F4800 X149.893 Y158.106 E91.6476
M204 S1000
G0 F7800 X150.577 Y158.106
M204 S750
G1 F4800 X134.363 Y141.892 E92.57041
M204 S1000
G0 F7800 X135.047 Y141.892
M204 S750
G1 F4800 X151.262 Y158.106 E93.49325
M204 S1000
G0 F7800 X151.946 Y158.106
M204 S750
G1 F4800 X135.731 Y141.892 E94.4161
M204 S1000
G0 F7800 X136.416 Y141.892
M204 S750
G1 F4800 X152.631 Y158.106 E95.33894
M204 S1000
G0 F7800 X153.315 Y158.106
M204 S750
G1 F4800 X137.1 Y141.892 E96.26178
M204 S1000
G0 F7800 X137.785 Y141.892
M204 S750
G1 F4800 X154 Y158.106 E97.18463
M204 S1000
G0 F7800 X154.684 Y158.106
M204 S750
G1 F4800 X138.469 Y141.892 E98.10747
M204 S1000
G0 F7800 X139.154 Y141.892
M204 S750
G1 F4800 X155.369 Y158.106 E99.03031
M204 S1000
G0 F7800 X156.053 Y158.106
M204 S750
G1 F4800 X139.838 Y141.892 E99.95316
M204 S1000
G0 F7800 X140.523 Y141.892
M204 S750
G1 F4800 X156.737 Y158.106 E100.87597
M204 S1000
G0 F7800 X157.422 Y158.106
M204 S750
G1 F4800 X141.207 Y141.892 E101.79881
M204 S1000
G0 F7800 X141.892 Y141.892
M204 S750
G1 F4800 X158.106 Y158.106 E102.72163
M204 S1000
G0 F7800 X158.791 Y158.106
M204 S750
G1 F4800 X142.576 Y141.892 E103.64447
M204 S1000
G0 F7800 X143.261 Y141.892
M204 S750
G1 F4800 X159.475 Y158.106 E104.56729
M204 S1000
G0 F7800 X160.16 Y158.106
M204 S750
G1 F4800 X143.945 Y141.892 E105.49013
M204 S1000
G0 F7800 X144.63 Y141.892
M204 S750
G1 F4800 X160.844 Y158.106 E106.41295
M204 S1000
G0 F7800 X161.529 Y158.106
M204 S750
G1 F4800 X145.314 Y141.892 E107.33579
M204 S1000
G0 F7800 X145.999 Y141.892
M204 S750
G1 F4800 X162.213 Y158.106 E108.2586
M204 S1000
G0 F7800 X162.898 Y158.106
M204 S750
G1 F4800 X146.683 Y141.892 E109.18145
M204 S1000
G0 F7800 X147.368 Y141.892
M204 S750
G1 F4800 X163.582 Y158.106 E110.10426
M204 S1000
G0 F7800 X164.267 Y158.106
M204 S750
G1 F4800 X148.052 Y141.892 E111.0271
M204 S1000
G0 F7800 X148.737 Y141.892
M204 S750
G1 F4800 X164.951 Y158.106 E111.94992
M204 S1000
G0 F7800 X165.636 Y158.106
M204 S750
G1 F4800 X149.421 Y141.892 E112.87276
M204 S1000
G0 F7800 X150.106 Y141.892
M204 S750
G1 F4800 X166.32 Y158.106 E113.79558
M204 S1000
G0 F7800 X167.005 Y158.106
M204 S750
G1 F4800 X150.79 Y141.892 E114.71842
M204 S1000
G0 F7800 X151.475 Y141.892
M204 S750
G1 F4800 X167.689 Y158.106 E115.64124
M204 S1000
G0 F7800 X168.374 Y158.106
M204 S750
G1 F4800 X152.159 Y141.892 E116.56408
M204 S1000
G0 F7800 X152.843 Y141.892
M204 S750
G1 F4800 X169.058 Y158.106 E117.48692
M204 S1000
G0 F7800 X169.743 Y158.106
M204 S750
G1 F4800 X153.528 Y141.892 E118.40977
M204 S1000
G0 F7800 X154.212 Y141.892
M204 S750
G1 F4800 X170.427 Y158.106 E119.33261
M204 S1000
G0 F7800 X171.112 Y158.106
M204 S750
G1 F4800 X154.897 Y141.892 E120.25545
M204 S1000
G0 F7800 X155.581 Y141.892
M204 S750
G1 F4800 X171.796 Y158.106 E121.17829
M204 S1000
G0 F7800 X172.481 Y158.106
M204 S750
G1 F4800 X156.266 Y141.892 E122.10114
M204 S1000
G0 F7800 X156.95 Y141.892
M204 S750
G1 F4800 X173.165 Y158.106 E123.02398
M204 S1000
G0 F7800 X173.849 Y158.106
M204 S750
G1 F4800 X157.635 Y141.892 E123.9468
M204 S1000
G0 F7800 X158.319 Y141.892
M204 S750
G1 F4800 X174.534 Y158.106 E124.86964
M204 S1000
G0 F7800 X175.218 Y158.106
M204 S750
G1 F4800 X159.004 Y141.892 E125.79245
M204 S1000
G0 F7800 X159.688 Y141.892
M204 S750
G1 F4800 X175.903 Y158.106 E126.7153
M204 S1000
G0 F7800 X176.587 Y158.106
M204 S750
G1 F4800 X160.373 Y141.892 E127.63811
M204 S1000
G0 F7800 X161.057 Y141.892
M204 S750
G1 F4800 X177.272 Y158.106 E128.56096
M204 S1000
G0 F7800 X177.956 Y158.106
M204 S750
G1 F4800 X161.742 Y141.892 E129.48377
M204 S1000
G0 F7800 X162.426 Y141.892
M204 S750
G1 F4800 X178.641 Y158.106 E130.40661
M204 S1000
G0 F7800 X179.325 Y158.106
M204 S750
G1 F4800 X163.111 Y141.892 E131.32943
M204 S1000
G0 F7800 X163.795 Y141.892
M204 S750
G1 F4800 X180.01 Y158.106 E132.25227
M204 S1000
G0 F7800 X180.694 Y158.106
M204 S750
G1 F4800 X164.48 Y141.892 E133.17509
M204 S1000
G0 F7800 X165.164 Y141.892
M204 S750
G1 F4800 X181.379 Y158.106 E134.09793
M204 S1000
G0 F7800 X182.063 Y158.106
M204 S750
G1 F4800 X165.849 Y141.892 E135.02074
M204 S1000
G0 F7800 X166.533 Y141.892
M204 S750
G1 F4800 X182.748 Y158.106 E135.94359
M204 S1000
G0 F7800 X183.432 Y158.106
M204 S750
G1 F4800 X167.218 Y141.892 E136.8664
M204 S1000
G0 F7800 X167.902 Y141.892
M204 S750
G1 F4800 X184.117 Y158.106 E137.78925
M204 S1000
G0 F7800 X184.801 Y158.106
M204 S750
G1 F4800 X168.586 Y141.892 E138.71209
M204 S1000
G0 F7800 X169.271 Y141.892
M204 S750
G1 F4800 X185.486 Y158.106 E139.63493
M204 S1000
G0 F7800 X186.17 Y158.106
M204 S750
G1 F4800 X169.955 Y141.892 E140.55778
M204 S1000
G0 F7800 X170.64 Y141.892
M204 S750
G1 F4800 X186.855 Y158.106 E141.48062
M204 S1000
G0 F7800 X187.539 Y158.106
M204 S750
G1 F4800 X171.324 Y141.892 E142.40346
M204 S1000
G0 F7800 X172.009 Y141.892
M204 S750
G1 F4800 X188.224 Y158.106 E143.32631
M204 S1000
G0 F7800 X188.908 Y158.106
M204 S750
G1 F4800 X172.693 Y141.892 E144.24915
M204 S1000
G0 F7800 X173.378 Y141.892
M204 S750
G1 F4800 X189.593 Y158.106 E145.17199
M204 S1000
G0 F7800 X190.277 Y158.106
M204 S750
G1 F4800 X174.062 Y141.892 E146.09483
M204 S1000
G0 F7800 X174.747 Y141.892
M204 S750
G1 F4800 X190.961 Y158.106 E147.01765
M204 S1000
G0 F7800 X191.646 Y158.106
M204 S750
G1 F4800 X175.431 Y141.892 E147.94049
M204 S1000
G0 F7800 X176.116 Y141.892
M204 S750
G1 F4800 X192.33 Y158.106 E148.86331
M204 S1000
G0 F7800 X193.015 Y158.106
M204 S750
G1 F4800 X176.8 Y141.892 E149.78615
M204 S1000
G0 F7800 X177.485 Y141.892
M204 S750
G1 F4800 X193.699 Y158.106 E150.70897
M204 S1000
G0 F7800 X194.384 Y158.106
M204 S750
G1 F4800 X178.169 Y141.892 E151.63181
M204 S1000
G0 F7800 X178.854 Y141.892
M204 S750
G1 F4800 X195.068 Y158.106 E152.55462
M204 S1000
G0 F7800 X195.753 Y158.106
M204 S750
G1 F4800 X179.538 Y141.892 E153.47747
M204 S1000
G0 F7800 X180.223 Y141.892
M204 S750
G1 F4800 X196.437 Y158.106 E154.40028
M204 S1000
G0 F7800 X197.122 Y158.106
M204 S750
G1 F4800 X180.907 Y141.892 E155.32312
M204 S1000
G0 F7800 X181.592 Y141.892
M204 S750
G1 F4800 X197.806 Y158.106 E156.24594
M204 S1000
G0 F7800 X198.107 Y157.722
M204 S750
G1 F4800 X182.276 Y141.892 E157.14693
M204 S1000
G0 F7800 X182.961 Y141.892
M204 S750
G1 F4800 X198.107 Y157.038 E158.00896
M204 S1000
G0 F7800 X198.107 Y156.354
M204 S750
G1 F4800 X183.645 Y141.892 E158.83206
M204 S1000
G0 F7800 X184.33 Y141.892
M204 S750
G1 F4800 X198.107 Y155.669 E159.61617
M204 S1000
G0 F7800 X198.107 Y154.985
M204 S750
G1 F4800 X185.014 Y141.892 E160.36136
M204 S1000
G0 F7800 X185.698 Y141.892
M204 S750
G1 F4800 X198.107 Y154.3 E161.06758
M204 S1000
G0 F7800 X198.107 Y153.616
M204 S750
G1 F4800 X186.383 Y141.892 E161.73485
M204 S1000
G0 F7800 X187.067 Y141.892
M204 S750
G1 F4800 X198.107 Y152.931 E162.36316
M204 S1000
G0 F7800 X198.107 Y152.247
M204 S750
G1 F4800 X187.752 Y141.892 E162.95251
M204 S1000
G0 F7800 X188.436 Y141.892
M204 S750
G1 F4800 X198.107 Y151.562 E163.5029
M204 S1000
G0 F7800 X198.107 Y150.878
M204 S750
G1 F4800 X189.121 Y141.892 E164.01434
M204 S1000
G0 F7800 X189.805 Y141.892
M204 S750
G1 F4800 X198.107 Y150.193 E164.48682
M204 S1000
G0 F7800 X198.107 Y149.509
M204 S750
G1 F4800 X190.49 Y141.892 E164.92034
M204 S1000
G0 F7800 X191.174 Y141.892
M204 S750
G1 F4800 X198.107 Y148.824 E165.3149
M204 S1000
G0 F7800 X198.107 Y148.14
M204 S750
G1 F4800 X191.859 Y141.892 E165.6705
M204 S1000
G0 F7800 X192.543 Y141.892
M204 S750
G1 F4800 X198.107 Y147.455 E165.98715
M204 S1000
G0 F7800 X198.107 Y146.771
M204 S750
G1 F4800 X193.228 Y141.892 E166.26483
M204 S1000
G0 F7800 X193.912 Y141.892
M204 S750
G1 F4800 X198.107 Y146.086 E166.50356
M204 S1000
G0 F7800 X198.107 Y145.402
M204 S750
G1 F4800 X194.597 Y141.892 E166.70333
M204 S1000
G0 F7800 X195.281 Y141.892
M204 S750
G1 F4800 X198.107 Y144.717 E166.86414
M204 S1000
G0 F7800 X198.107 Y144.033
M204 S750
G1 F4800 X195.966 Y141.892 E166.986
M204 S1000
G0 F7800 X196.65 Y141.892
M204 S750
G1 F4800 X198.107 Y143.348 E167.06889
M204 S1000
G0 F7800 X198.107 Y142.664
M204 S750
G1 F4800 X197.335 Y141.892 E167.11283
M204 S1000
G0 F7800 X198.019 Y141.892
M204 S750
G1 F4800 X198.107 Y141.979 E167.11781
M204 S1000
G1 F1800 E161.11781
;MESH:NONMESH
G0 F600 X198.107 Y141.979 Z0.4
G0 F7800 X101.1 Y141.1
;TIME_ELAPSED:74.123181
;LAYER:1
M106 S127.5
M204 S1600
;TYPE:WALL-INNER
;MESH:4 Post Retract Tester with Fill. v5.stl
G1 F1800 E167.11781
G1 F4800 X101.1 Y158.9 E167.76905
G1 X198.9 Y158.9 E171.34717
G1 X198.9 Y150 E171.67279
