;FLAVOR:Marlin
;TIME:1317
;Filament used: 0.83126m, 1.00706m
;Layer height: 0.2
;MINX:120.22
;MINY:120.22
;MINZ:0.2
;MAXX:179.78
;MAXY:159.78
;MAXZ:3
;Generated with Cura_SteamEngine 5.2.1
T0
M104 S205
M104 T1 S175
M82 ;absolute extrusion mode
;----------Proforge 3.5 Start G-code---------- 
G92 E0 ;Zero Extruder 
M82 ;absolute extrusion mode 
M190 S60 ;wait for bed temp 
G28 ;Home 
Z_TILT_ADJUST
G28
BED_MESH_PROFILE LOAD=mesh_60c ; Load bed Mesh.
G0 F8000 X150 Y5 Z0.5;Move hotend to bottom center
G1 F1500 X250 E20 ;Prime Hotend 
; ----------Proforge 3.5 Start G-code----------
G92 E0
G92 E0
G1 F3600 E-2
;LAYER_COUNT:10
;LAYER:0
M107
M104 T1 S205
M204 S1000
G1 F600 Z0.7
;MESH:DSH Calibration Model (1).STL
G0 F7800 X128.487 Y144.989 Z0.7
M204 S750
;TYPE:WALL-INNER
G1 F600 Z0.2
G1 F3600 E0
G1 F4618.7 X127.964 Y144.663 E0.02578
G1 F4800 X123.23 Y139.927 E0.29527
G1 X122.971 Y139.543 E0.31391
G1 X122.893 Y139.28 E0.32495
G1 X122.876 Y139.049 E0.33427
G1 X122.893 Y138.862 E0.34183
G1 X122.987 Y138.562 E0.35448
G1 X123.255 Y138.19 E0.37293
G1 X123.584 Y137.969 E0.38888
G1 X123.897 Y137.875 E0.40203
G1 X124.086 Y137.861 E0.40966
G1 X125.861 Y137.861 E0.48109
G1 X125.861 Y127.071 E0.91534
G1 X125.886 Y126.822 E0.92541
G1 X125.96 Y126.59 E0.93521
G1 X126.073 Y126.385 E0.94463
G1 X126.215 Y126.215 E0.95354
G1 X126.385 Y126.073 E0.96246
G1 X126.59 Y125.96 E0.97188
G1 X126.862 Y125.878 E0.98331
G1 X127.071 Y125.861 E0.99175
G1 X137.861 Y125.861 E1.42599
G1 X137.861 Y124.086 E1.49742
G1 X137.875 Y123.897 E1.50505
G1 X137.969 Y123.584 E1.5182
G1 X138.19 Y123.255 E1.53415
G1 X138.562 Y122.987 E1.55261
G1 X138.862 Y122.893 E1.56526
G1 X139.049 Y122.876 E1.57281
G1 X139.28 Y122.893 E1.58214
G1 X139.543 Y122.971 E1.59318
G1 X139.927 Y123.23 E1.61182
G1 X144.67 Y127.97 E1.88168
G1 X144.803 Y128.131 E1.89008
G1 X144.973 Y128.491 E1.9061
G1 X144.997 Y129.036 E1.92806
G1 X144.884 Y129.375 E1.94244
G1 X144.662 Y129.677 E1.95752
G1 X139.865 Y134.47 E2.23043
G1 X139.669 Y134.609 E2.2401
G1 X139.401 Y134.725 E2.25185
G1 X139.175 Y134.762 E2.26107
G1 X138.915 Y134.757 E2.27154
G1 X138.69 Y134.705 E2.28083
G1 X138.512 Y134.63 E2.2886
G1 X138.315 Y134.502 E2.29806
G1 X138.14 Y134.33 E2.30793
G1 X138.007 Y134.133 E2.3175
G1 X137.922 Y133.938 E2.32606
G1 X137.861 Y133.556 E2.34163
G1 X137.861 Y131.781 E2.41306
G1 X131.781 Y131.781 E2.65775
G1 X131.781 Y137.861 E2.90244
G1 X133.556 Y137.861 E2.97387
G1 X133.938 Y137.922 E2.98944
G1 X134.133 Y138.007 E2.998
G1 X134.334 Y138.143 E3.00777
G1 X134.502 Y138.315 E3.01745
G1 X134.63 Y138.512 E3.0269
G1 X134.706 Y138.69 E3.03469
G1 X134.757 Y138.915 E3.04397
G1 X134.762 Y139.174 E3.0544
G1 X134.725 Y139.404 E3.06377
G1 X134.586 Y139.708 E3.07723
G1 X134.412 Y139.927 E3.08848
G1 X129.678 Y144.663 E3.35798
G1 F4618.7 X129.154 Y144.989 E3.38379
G1 F4366.9 X129.036 Y145.027 E3.38927
G1 F4326.3 X128.821 Y145.04 E3.39889
G1 X128.606 Y145.027 E3.40851
G1 F4366.9 X128.487 Y144.989 E3.41403
M204 S1000
G0 F7800 X126.351 Y145.958
G0 X121.21 Y156.283
M204 S750
G1 F4800 X121.41 Y155.902 E3.43135
G1 X125.989 Y151.399 E3.68981
G1 X125.989 Y146.806 E3.87465
G1 X126.015 Y146.554 E3.88485
G1 X126.091 Y146.319 E3.89479
G1 X126.207 Y146.112 E3.90434
G1 X126.405 Y145.892 E3.91625
G1 X126.728 Y145.691 E3.93156
G1 X127.199 Y145.596 E3.9509
G1 X127.578 Y145.596 E3.96615
G1 F4618.7 X128.406 Y145.578 E4.00079
G1 F4366.9 X128.56 Y145.567 E4.00762
G1 F4278.5 X129.082 Y145.567 E4.03119
G1 F4366.9 X129.235 Y145.578 E4.03797
G1 F4618.7 X130.064 Y145.596 E4.07265
G1 F4800 X130.443 Y145.596 E4.0879
G1 X130.912 Y145.689 E4.10715
G1 X131.234 Y145.889 E4.1224
G1 X131.432 Y146.107 E4.13425
G1 X131.545 Y146.306 E4.14346
G1 X131.604 Y146.464 E4.15025
G1 X131.636 Y146.597 E4.15576
G1 X131.653 Y146.806 E4.1642
G1 X131.653 Y151.156 E4.33926
G1 X135.986 Y155.955 E4.59947
G1 X136.195 Y156.279 E4.61499
G1 X136.28 Y156.556 E4.62665
G1 X136.3 Y156.724 E4.63346
G1 X136.28 Y156.976 E4.64363
G1 X136.252 Y157.096 E4.64859
G1 X136.06 Y157.487 E4.66612
G1 X135.661 Y157.832 E4.68735
G1 F4061.5 X135.311 Y158.045 E4.70684
G1 F3546.9 X135.087 Y158.058 E4.71906
G1 F3579.7 X131.843 Y158.058 E4.89412
G1 F4104.6 X131.347 Y157.871 E4.91906
G1 F4800 X130.967 Y157.602 E4.9378
G1 X128.78 Y155.311 E5.06527
G1 X126.34 Y157.642 E5.20107
G1 F4665.1 X125.976 Y157.896 E5.21945
G1 F3964.5 X125.728 Y158.045 E5.23355
G1 F3546.9 X125.504 Y158.058 E5.24577
G1 F3579.7 X122.259 Y158.058 E5.42089
G1 F3441.8 X121.794 Y158.001 E5.44718
G1 F3314.1 X121.317 Y157.633 E5.4823
G1 X121.32 Y158.68 E5.54332
G1 X121.671 Y158.68 E5.56378
G1 F3441.8 X122.259 Y158.708 E5.59682
G1 F3579.7 X125.504 Y158.708 E5.77194
G1 F3546.9 X125.785 Y158.702 E5.78725
G1 F3964.5 X126.152 Y158.777 E5.8055
G1 F4665.1 X126.8 Y158.789 E5.83234
G1 F4800 X131.151 Y158.79 E6.00744
G1 F4104.6 X131.843 Y158.708 E6.04024
G1 F3579.7 X135.087 Y158.708 E6.2153
G1 F3546.9 X135.368 Y158.702 E6.2306
G1 F4061.5 X135.902 Y158.79 E6.25635
G1 F4800 X138.865 Y158.79 E6.37559
G1 X138.867 Y139.995 E7.13199
G1 X138.899 Y139.787 E7.14046
G1 X138.977 Y139.565 E7.14993
G1 X139.094 Y139.366 E7.15922
G1 X139.219 Y139.219 E7.16699
G1 X139.366 Y139.093 E7.17478
G1 X139.565 Y138.977 E7.18405
G1 X139.81 Y138.893 E7.19447
G1 X139.995 Y138.867 E7.20199
G1 X158.865 Y138.865 E7.96141
G1 X158.865 Y121.21 E8.67193
G1 X121.21 Y121.21 E10.18735
G1 X121.21 Y156.283 E11.59885
M204 S1000
G1 F3600 E9.59885
G0 F7800 X126.351 Y145.958
G0 X131.291 Y145.958
G0 X139.227 Y139.227
G0 X157.242 Y135.009
G0 X157.68 Y133.963
G0 X157.868 Y124.742
M204 S750
G1 F3600 E11.59885
G1 F4800 X157.828 Y124.902 E11.60549
G1 X157.523 Y125.395 E11.62882
G1 X153.573 Y129.282 E11.85185
G1 X157.537 Y133.307 E12.0792
G1 X157.83 Y133.79 E12.10193
G1 X157.868 Y133.946 E12.1084
G1 X157.885 Y134.156 E12.11687
G1 X157.861 Y134.397 E12.12662
G1 X157.615 Y134.921 E12.14992
G1 X157.228 Y135.233 E12.16992
G1 X156.848 Y135.354 E12.18597
G1 X156.674 Y135.366 E12.19299
G1 X153.082 Y135.366 E12.33755
G1 X152.748 Y135.32 E12.35112
G1 X152.451 Y135.19 E12.36417
G1 X152.215 Y135.002 E12.37631
G1 X150.662 Y133.374 E12.46686
G1 X148.927 Y135.032 E12.56344
G1 X148.695 Y135.205 E12.57509
G1 X148.409 Y135.324 E12.58755
G1 X148.3 Y135.349 E12.59205
G1 X148.091 Y135.366 E12.60049
G1 X144.499 Y135.366 E12.74505
G1 X144.198 Y135.329 E12.75726
G1 X143.924 Y135.221 E12.76911
G1 X143.696 Y135.063 E12.78027
G1 X143.493 Y134.84 E12.79241
G1 X143.34 Y134.508 E12.80712
G1 X143.289 Y134.122 E12.82279
G1 X143.382 Y133.688 E12.84065
G1 X143.508 Y133.46 E12.85114
G1 X143.65 Y133.293 E12.85996
G1 X147.756 Y129.252 E13.09181
G1 X143.943 Y125.382 E13.31045
G1 X143.689 Y125 E13.32891
G1 X143.596 Y124.582 E13.34615
G1 X143.639 Y124.208 E13.3613
G1 X143.765 Y123.913 E13.37421
G1 X144.003 Y123.626 E13.38921
G1 X144.363 Y123.405 E13.40621
G1 X144.597 Y123.34 E13.41599
G1 X144.806 Y123.322 E13.42443
G1 X148.399 Y123.322 E13.56903
G1 X148.885 Y123.423 E13.58901
G1 X149.262 Y123.683 E13.60744
G1 X150.718 Y125.162 E13.69096
G1 X152.233 Y123.669 E13.77656
G1 X152.607 Y123.419 E13.79467
G1 X152.874 Y123.34 E13.80587
G1 X153.083 Y123.322 E13.81432
G1 X156.674 Y123.322 E13.95884
G1 X157.193 Y123.438 E13.98024
G1 X157.595 Y123.744 E14.00057
G1 X157.866 Y124.291 E14.02514
G1 X157.885 Y124.532 E14.03487
G1 X157.868 Y124.742 E14.04335
M204 S1000
G0 F7800 X157.68 Y133.963
G0 X157.242 Y135.009
G0 X143.927 Y135.009
G0 X143.537 Y134.231
G0 X143.773 Y134.136
M204 S750
G1 F4800 X143.829 Y133.875 E14.05409
G1 X143.904 Y133.738 E14.06037
G1 X143.989 Y133.638 E14.06566
G1 X148.441 Y129.258 E14.317
G1 X144.288 Y125.042 E14.55517
G1 X144.136 Y124.813 E14.56623
G1 X144.08 Y124.562 E14.57658
G1 X144.106 Y124.337 E14.58569
G1 X144.181 Y124.161 E14.59339
G1 X144.324 Y123.988 E14.60242
G1 X144.54 Y123.856 E14.61261
G1 X144.68 Y123.816 E14.61847
G1 X144.806 Y123.806 E14.62356
G1 X148.399 Y123.806 E14.76816
G1 X148.691 Y123.867 E14.78016
G1 X148.917 Y124.022 E14.79119
G1 X150.713 Y125.847 E14.89424
G1 X152.573 Y124.014 E14.99934
G1 X152.797 Y123.864 E15.01018
G1 X152.957 Y123.816 E15.01691
G1 X153.083 Y123.806 E15.02199
G1 X156.674 Y123.806 E15.16651
G1 X156.986 Y123.876 E15.17938
G1 X157.227 Y124.059 E15.19156
G1 X157.385 Y124.378 E15.20589
G1 X157.401 Y124.532 E15.21212
G1 X157.386 Y124.724 E15.21987
G1 X157.184 Y125.05 E15.2353
G1 X152.888 Y129.277 E15.47785
G1 X157.192 Y133.646 E15.72467
G1 X157.386 Y133.965 E15.7397
G1 X157.401 Y134.156 E15.74741
G1 X157.387 Y134.301 E15.75327
G1 X157.239 Y134.615 E15.76724
G1 X157.007 Y134.803 E15.77926
G1 X156.778 Y134.875 E15.78892
G1 X156.674 Y134.882 E15.79311
G1 X153.082 Y134.882 E15.93767
G1 X152.881 Y134.855 E15.94583
G1 X152.703 Y134.776 E15.95367
G1 X152.556 Y134.658 E15.96126
G1 X150.678 Y132.689 E16.07076
G1 X148.593 Y134.682 E16.18684
G1 X148.454 Y134.786 E16.19383
G1 X148.252 Y134.869 E16.20262
G1 X148.091 Y134.882 E16.20912
G1 X144.499 Y134.882 E16.35368
G1 X144.318 Y134.86 E16.36101
G1 X144.154 Y134.795 E16.36811
G1 X144.017 Y134.7 E16.37482
G1 X143.894 Y134.565 E16.38217
G1 X143.804 Y134.367 E16.39093
G1 X143.773 Y134.136 E16.40031
M204 S1000
G0 F7800 X143.537 Y134.231
G0 X139.227 Y139.227
G0 X139.155 Y139.902
G0 X139.369 Y139.902
M204 S750
G1 F4800 X139.416 Y139.769 E16.40598
G1 X139.486 Y139.649 E16.41157
G1 X139.561 Y139.561 E16.41623
G1 X139.649 Y139.486 E16.42088
G1 X139.769 Y139.416 E16.42647
G1 X139.902 Y139.369 E16.43215
G1 X140.027 Y139.35 E16.43724
G1 X159.349 Y139.349 E17.21485
G1 X159.349 Y120.726 E17.96432
G1 X120.726 Y120.726 E19.5187
G1 X120.727 Y155.819 E20.93101
G1 F4083 X120.811 Y156.57 E20.96676
G1 F3552.3 X120.811 Y156.962 E20.98808
G1 F4083 X120.725 Y157.492 E21.01348
G1 F4800 X120.727 Y159.273 E21.08516
G1 X139.349 Y159.274 E21.8346
G1 X139.35 Y140.027 E22.60919
G1 X139.369 Y139.902 E22.61427
M204 S1000
G1 F3600 E20.61427
G0 F7800 X139.155 Y139.902
G0 X139.27 Y134.562
G0 X145.006 Y128.821
G0 X139.27 Y123.08
G0 X126.557 Y126.151
G1 F3600 E22.61427
G0 F7800 X126.557 Y126.557
M204 S750
G1 F4800 X126.659 Y126.472 E22.61962
G1 X126.782 Y126.404 E22.62527
G1 X126.945 Y126.355 E22.63212
G1 X127.071 Y126.345 E22.63721
G1 X138.345 Y126.345 E23.09093
G1 X138.345 Y124.086 E23.18184
G1 X138.353 Y123.973 E23.1864
G1 X138.41 Y123.784 E23.19435
G1 X138.542 Y123.587 E23.20389
G1 X138.765 Y123.427 E23.21494
G1 X138.945 Y123.37 E23.22254
G1 X139.058 Y123.36 E23.2271
G1 X139.197 Y123.37 E23.23271
G1 X139.354 Y123.417 E23.2393
G1 X139.585 Y123.572 E23.2505
G1 X144.325 Y128.31 E23.52022
G1 X144.405 Y128.407 E23.52528
G1 X144.506 Y128.623 E23.53487
G1 X144.521 Y128.95 E23.54805
G1 X144.453 Y129.153 E23.55666
G1 X144.32 Y129.335 E23.56574
G1 X139.548 Y134.104 E23.83725
G1 X139.43 Y134.188 E23.84308
G1 X139.29 Y134.249 E23.84922
G1 X139.119 Y134.281 E23.85622
G1 X138.977 Y134.277 E23.86194
G1 X138.842 Y134.246 E23.86752
G1 X138.735 Y134.201 E23.87219
G1 X138.617 Y134.124 E23.87786
G1 X138.512 Y134.02 E23.88381
G1 X138.432 Y133.903 E23.88951
G1 X138.381 Y133.786 E23.89465
G1 X138.345 Y133.556 E23.90402
G1 X138.345 Y131.297 E23.99493
G1 X131.297 Y131.297 E24.27857
G1 X131.297 Y138.345 E24.56222
G1 X133.556 Y138.345 E24.65313
G1 X133.786 Y138.381 E24.6625
G1 X133.903 Y138.432 E24.66764
G1 X134.023 Y138.514 E24.67349
G1 X134.124 Y138.617 E24.67929
G1 X134.201 Y138.735 E24.68496
G1 X134.246 Y138.842 E24.68963
G1 X134.277 Y138.977 E24.69521
G1 X134.28 Y139.133 E24.70149
G1 X134.249 Y139.29 E24.70793
G1 X134.174 Y139.453 E24.71515
G1 X134.07 Y139.585 E24.72191
G1 X129.335 Y144.32 E24.9914
G1 F4809.9 X128.993 Y144.518 E25.00727
G1 X128.821 Y144.532 E25.0142
G1 X128.649 Y144.518 E25.02114
G1 X128.307 Y144.32 E25.03701
G1 F4800 X123.572 Y139.585 E25.3065
G1 X123.417 Y139.354 E25.31769
G1 X123.37 Y139.197 E25.32429
G1 X123.36 Y139.058 E25.3299
G1 X123.37 Y138.945 E25.33446
G1 X123.427 Y138.765 E25.34206
G1 X123.587 Y138.542 E25.35311
G1 X123.784 Y138.41 E25.36265
G1 X123.973 Y138.353 E25.37059
G1 X124.086 Y138.345 E25.37515
G1 X126.345 Y138.345 E25.46607
G1 X126.345 Y127.071 E25.91979
G1 X126.36 Y126.922 E25.92581
G1 X126.404 Y126.782 E25.93172
G1 X126.472 Y126.659 E25.93738
G1 X126.557 Y126.557 E25.94272
M204 S1000
G1 F3600 E23.94272
G0 F7800 X126.557 Y126.151
G0 X126.223 Y126.223
G0 X123.08 Y139.27
G0 X121.244 Y156.713
G1 F3600 E25.94272
G0 F7800 X121.459 Y156.626
M204 S750
G1 F4083 X121.749 Y156.247 E25.9653
G1 F4800 X126.473 Y151.601 E26.23195
G1 X126.473 Y146.806 E26.42493
G1 X126.488 Y146.655 E26.43103
G1 X126.534 Y146.513 E26.43704
G1 X126.604 Y146.389 E26.44277
G1 X126.722 Y146.257 E26.4499
G1 X126.916 Y146.137 E26.45908
G1 X127.199 Y146.08 E26.47069
G1 X130.443 Y146.08 E26.60125
G1 X130.725 Y146.136 E26.61282
G1 X130.918 Y146.256 E26.62196
G1 X131.036 Y146.386 E26.62903
G1 X131.105 Y146.506 E26.6346
G1 X131.156 Y146.643 E26.64048
G1 X131.169 Y146.806 E26.64706
G1 X131.169 Y151.342 E26.82962
G1 X135.626 Y156.279 E27.09729
G1 X135.752 Y156.473 E27.1066
G1 X135.803 Y156.64 E27.11363
G1 X135.813 Y156.766 E27.11872
G1 X135.799 Y156.936 E27.12558
G1 X135.671 Y157.199 E27.13735
G1 X135.432 Y157.406 E27.15008
G1 X135.213 Y157.482 E27.15941
G1 X135.087 Y157.492 E27.16449
G1 X131.843 Y157.492 E27.29505
G1 X131.545 Y157.429 E27.3073
G1 X131.317 Y157.268 E27.31854
G1 X128.796 Y154.626 E27.4655
G1 X126.006 Y157.292 E27.62081
G1 X125.784 Y157.437 E27.63148
G1 X125.63 Y157.482 E27.63793
G1 X125.504 Y157.492 E27.64302
G1 X122.259 Y157.492 E27.77362
G1 X122.003 Y157.446 E27.78408
G1 X121.668 Y157.189 E27.80108
G1 F4083 X121.459 Y156.906 E27.81772
G1 F3574.2 X121.452 Y156.766 E27.8253
G1 X121.459 Y156.626 E27.83287
M204 S1000
G0 F7800 X122.062 Y156.907
M204 S750
;TYPE:WALL-OUTER
G1 F4800 X122 Y156.761 E27.83926
G1 X122.089 Y156.593 E27.84691
G1 X126.957 Y151.804 E28.12173
G1 X126.962 Y146.698 E28.32722
G1 X127.128 Y146.564 E28.33581
G1 X130.443 Y146.564 E28.46922
G1 X130.602 Y146.622 E28.47603
G1 X130.683 Y146.732 E28.48153
G1 X130.685 Y151.528 E28.67454
G1 X135.303 Y156.642 E28.95185
G1 X135.329 Y156.748 E28.95624
G1 X135.282 Y156.911 E28.96307
G1 X135.173 Y157.005 E28.96886
G1 X131.843 Y157.008 E29.10287
G1 X131.711 Y156.98 E29.1083
G1 X128.812 Y153.942 E29.2773
G1 X125.672 Y156.942 E29.45207
G1 X125.546 Y157.005 E29.45774
G1 X122.192 Y157.008 E29.59273
G1 X122.062 Y156.907 E29.59935
M204 S1000
G1 F3600 E27.59935
G0 F7800 X121.429 Y157.165
G0 X121.253 Y156.559
G0 X126.351 Y145.958
G0 X129.356 Y145.952
G0 X134.562 Y139.27
G0 X134.43 Y138.778
G1 F3600 E29.59935
G0 F7800 X133.797 Y139.039
M204 S750
G1 F4800 X133.754 Y139.217 E29.60672
G1 X128.993 Y143.978 E29.87769
G1 F4809.9 X128.887 Y144.039 E29.8826
G1 X128.755 Y144.039 E29.8879
G1 X128.649 Y143.978 E29.89282
G1 F4800 X123.866 Y139.195 E30.16504
G1 X123.847 Y139.029 E30.17176
G1 X123.919 Y138.894 E30.17792
G1 X124.048 Y138.831 E30.1837
G1 X126.829 Y138.829 E30.29562
G1 X126.829 Y127.002 E30.77159
G1 X126.899 Y126.899 E30.77661
G1 X127.029 Y126.832 E30.78249
G1 X138.829 Y126.829 E31.25738
G1 X138.831 Y124.048 E31.3693
G1 X138.917 Y123.873 E31.37715
G1 X139.113 Y123.847 E31.3851
G1 X139.243 Y123.914 E31.39099
G1 X144.038 Y128.715 E31.66407
G1 X144.045 Y128.864 E31.67007
G1 X143.978 Y128.993 E31.67592
G1 X139.243 Y133.728 E31.94541
G1 X139.085 Y133.817 E31.95271
G1 X138.919 Y133.746 E31.95998
G1 X138.829 Y133.616 E31.96634
G1 X138.829 Y130.813 E32.07914
G1 X130.813 Y130.813 E32.40175
G1 X130.813 Y138.829 E32.72435
G1 X133.616 Y138.829 E32.83715
G1 X133.746 Y138.919 E32.84352
G1 X133.797 Y139.039 E32.84877
M204 S1000
G1 F3600 E30.84877
G0 F7800 X134.43 Y138.778
G0 X139.155 Y139.933
G1 F3600 E32.84877
G0 F7800 X139.878 Y139.933
M204 S750
G1 F4800 X140 Y139.833 E32.85511
G1 X159.833 Y139.833 E33.65329
G1 X159.833 Y120.242 E34.44172
G1 X120.242 Y120.242 E36.03505
G1 X120.243 Y159.757 E37.62533
G1 X139.833 Y159.758 E38.41372
G1 X139.833 Y140.03 E39.20767
G1 X139.878 Y139.933 E39.21197
M204 S1000
G1 F3600 E37.21197
G0 F7800 X139.155 Y139.933
G0 X139.227 Y139.227
G0 X143.623 Y134.443
G1 F3600 E39.21197
G0 F7800 X144.244 Y134.19
M204 S750
G1 F4800 X144.3 Y134.016 E39.21933
G1 X149.125 Y129.263 E39.4919
G1 X144.584 Y124.652 E39.75235
