;FLAVOR:Marlin
;TIME:26
;Filament used: 0.0188924m, 0.018893m
;Layer height: 0.2
;MINX:127.742
;MINY:142.742
;MINZ:0.2
;MAXX:172.258
;MAXY:158.165
;MAXZ:0.7
;Generated with Cura_SteamEngine 5.2.1
T0
M140 S60
M104 S200
M104 T1 S200
M82 ;absolute extrusion mode
;----------Proforge 3.5 Start G-code---------- 
G92 E0 ;Zero Extruder 
M82 ;absolute extrusion mode 
M190 S60 ;wait for bed temp 
M109 S200 ; wait for nozzle temp
M109 T1 S200 ; wait for nozzle temp
G28 ;Home 
Z_TILT_ADJUST
G28  ;Re-Home
BED_MESH_PROFILE LOAD=mesh_60c ; Load bed Mesh.
G0 F8000 X120 Y5 Z0.4;Move hotend to bottom center
G1 F1500 X290 E20 ;Prime Nozzle 0 
T1 ; Prime Nozzle 1
G0 F8000 X120 Y10 Z0.5;Move hotend to bottom center
G1 F1500 X290 E20 ;Prime Nozzle 1 
G1 E18 ; Retract filament
T0 ; 
; ----------Proforge 3.5 Start G-code----------
G92 E0
G1 F3600 E-2
;LAYER_COUNT:1
;LAYER:0
M107
M104 T1 S200
M204 S1000
G1 F600 Z0.7
;MESH:Print-Z_Test 0.20 v2.stl
G0 F7800 X128.71 Y143.71 Z0.7
M204 S750
;TYPE:WALL-INNER
G1 F600 Z0.2
G1 F3600 E0
G1 F4800 X128.71 Y156.29 E0.50628
G1 X141.29 Y156.29 E1.01256
G1 X141.29 Y150 E1.2657
G1 X141.29 Y143.71 E1.51884
G1 X128.71 Y143.71 E2.02512
M204 S1000
G0 F7800 X128.226 Y143.226
M204 S750
G1 F4800 X128.226 Y156.774 E2.57035
G1 X141.774 Y156.774 E3.11559
G1 X141.774 Y150 E3.38821
G1 X141.774 Y143.226 E3.66082
G1 X128.226 Y143.226 E4.20606
M204 S1000
G0 F7800 X127.742 Y142.742
M204 S750
;TYPE:WALL-OUTER
G1 F4800 X127.742 Y157.258 E4.79025
G1 X142.258 Y157.258 E5.37445
G1 X142.258 Y150 E5.66654
G1 X142.258 Y142.742 E5.95864
G1 X127.742 Y142.742 E6.54283
M204 S1000
G0 F7800 X128.39 Y143.39
G0 X129.15 Y144.15
M204 S750
;TYPE:SKIN
G1 F4800 X129.15 Y155.85 E7.0137
G1 X140.85 Y155.85 E7.48456
G1 X140.85 Y150 E7.71999
G1 X140.85 Y144.15 E7.95542
G1 X129.15 Y144.15 E8.42629
M204 S1000
G0 F7800 X140.608 Y144.715
M204 S750
G1 F4800 X140.284 Y144.391 E8.44473
M204 S1000
G0 F7800 X139.599 Y144.391
M204 S750
G1 F4800 X140.608 Y145.399 E8.50213
M204 S1000
G0 F7800 X140.608 Y146.084
M204 S750
G1 F4800 X138.915 Y144.391 E8.59848
M204 S1000
G0 F7800 X138.23 Y144.391
M204 S750
G1 F4800 X140.608 Y146.768 E8.7338
M204 S1000
G0 F7800 X140.608 Y147.452
M204 S750
G1 F4800 X137.546 Y144.391 E8.90804
M204 S1000
G0 F7800 X136.861 Y144.391
M204 S750
G1 F4800 X140.608 Y148.137 E9.12127
M204 S1000
G0 F7800 X140.608 Y148.821
M204 S750
G1 F4800 X136.177 Y144.391 E9.37343
M204 S1000
G0 F7800 X135.492 Y144.391
M204 S750
G1 F4800 X140.608 Y149.506 E9.66458
M204 S1000
G0 F7800 X140.608 Y150.19
M204 S750
G1 F4800 X134.808 Y144.391 E9.99466
M204 S1000
G0 F7800 X134.124 Y144.391
M204 S750
G1 F4800 X140.608 Y150.875 E10.36369
M204 S1000
G0 F7800 X140.608 Y151.559
M204 S750
G1 F4800 X133.439 Y144.391 E10.77169
M204 S1000
G0 F7800 X132.755 Y144.391
M204 S750
G1 F4800 X140.608 Y152.244 E11.21864
M204 S1000
G0 F7800 X140.608 Y152.928
M204 S750
G1 F4800 X132.07 Y144.391 E11.70455
M204 S1000
G0 F7800 X131.386 Y144.391
M204 S750
G1 F4800 X140.608 Y153.613 E12.22941
M204 S1000
G0 F7800 X140.608 Y154.297
M204 S750
G1 F4800 X130.701 Y144.391 E12.79324
M204 S1000
G0 F7800 X130.017 Y144.391
M104 S200
M204 S750
G1 F4800 X140.608 Y154.982 E13.39602
M204 S1000
G0 F7800 X140.548 Y155.607
M204 S750
G1 F4800 X129.392 Y144.45 E14.03099
M204 S1000
G0 F7800 X129.392 Y145.135
M204 S750
G1 F4800 X139.864 Y155.607 E14.627
M204 S1000
G0 F7800 X139.179 Y155.607
M204 S750
G1 F4800 X129.392 Y145.819 E15.18405
M204 S1000
G0 F7800 X129.392 Y146.504
M204 S750
G1 F4800 X138.495 Y155.607 E15.70215
M204 S1000
G0 F7800 X137.81 Y155.607
M204 S750
G1 F4800 X129.392 Y147.188 E16.18128
M204 S1000
G0 F7800 X129.392 Y147.872
M204 S750
G1 F4800 X137.126 Y155.607 E16.62149
M204 S1000
G0 F7800 X136.441 Y155.607
M204 S750
G1 F4800 X129.392 Y148.557 E17.02271
M204 S1000
G0 F7800 X129.392 Y149.241
M204 S750
G1 F4800 X135.757 Y155.607 E17.385
M204 S1000
G0 F7800 X135.072 Y155.607
M204 S750
G1 F4800 X129.392 Y149.926 E17.70831
M204 S1000
G0 F7800 X129.392 Y150.61
M204 S750
G1 F4800 X134.388 Y155.607 E17.99268
M204 S1000
G0 F7800 X133.703 Y155.607
M204 S750
G1 F4800 X129.392 Y151.295 E18.23807
M204 S1000
G0 F7800 X129.392 Y151.979
M204 S750
G1 F4800 X133.019 Y155.607 E18.44453
M204 S1000
G0 F7800 X132.335 Y155.607
M204 S750
G1 F4800 X129.392 Y152.664 E18.61203
M204 S1000
G0 F7800 X129.392 Y153.348
M204 S750
G1 F4800 X131.65 Y155.607 E18.74057
M204 S1000
G0 F7800 X130.966 Y155.607
M204 S750
G1 F4800 X129.392 Y154.033 E18.83015
M204 S1000
G0 F7800 X129.392 Y154.717
M204 S750
G1 F4800 X130.281 Y155.607 E18.88078
M204 S1000
G0 F7800 X129.597 Y155.607
M204 S750
G1 F4800 X129.392 Y155.402 E18.89244
G1 F6000 E16.89244
G1 F600 Z0.7
G92 E0
G0 F20000 X297.407 Y265.407
T1
G92 E0
M104 T0 S0
M105
M109 S200
G1 F3600 E-2
M204 S1000
;MESH:Print-Z_Test 0.20 v2.stl(1)
G0 F6000 X143.153 Y158.153 Z0.7
G4 S500
G1 F600 Z0.2
G4 S500
; G0 F6000 X129.392 Y158.165
G0 X143.153 Y158.153
G0 X156.835 Y155.402
G0 X157.94 Y155.402
G0 X158.71 Y143.71
M104 S200
M204 S750
;TYPE:WALL-INNER
G1 F3600 E0
G1 F3000 X158.71 Y156.29 E0.50628
G1 X171.29 Y156.29 E1.01256
G1 X171.29 Y150 E1.2657
G1 X171.29 Y143.71 E1.51884
G1 X158.71 Y143.71 E2.02512
M204 S1000
G0 F6000 X158.226 Y143.226
M204 S750
G1 F3000 X158.226 Y156.774 E2.57035
G1 X171.774 Y156.774 E3.11559
G1 X171.774 Y150 E3.38821
G1 X171.774 Y143.226 E3.66082
G1 X158.226 Y143.226 E4.20606
M204 S1000
G0 F6000 X157.742 Y142.742
M204 S750
;TYPE:WALL-OUTER
G1 F3000 X157.742 Y157.258 E4.79025
G1 X172.258 Y157.258 E5.37445
G1 X172.258 Y150 E5.66654
G1 X172.258 Y142.742 E5.95864
G1 X157.742 Y142.742 E6.54283
M204 S1000
G0 F6000 X158.39 Y143.39
G0 X159.15 Y144.15
M204 S750
;TYPE:SKIN
G1 F3000 X159.15 Y155.85 E7.0137
G1 X170.85 Y155.85 E7.48456
G1 X170.85 Y150 E7.71999
G1 X170.85 Y144.15 E7.95542
G1 X159.15 Y144.15 E8.42629
M204 S1000
G0 F6000 X170.607 Y144.596
M204 S750
G1 F3000 X170.402 Y144.391 E8.43796
M204 S1000
G0 F6000 X169.717 Y144.391
M204 S750
G1 F3000 X170.607 Y145.281 E8.48861
M204 S1000
G0 F6000 X170.607 Y145.965
M204 S750
G1 F3000 X169.033 Y144.391 E8.57819
M204 S1000
G0 F6000 X168.348 Y144.391
M204 S750
G1 F3000 X170.607 Y146.65 E8.70676
M204 S1000
G0 F6000 X170.607 Y147.334
M204 S750
G1 F3000 X167.664 Y144.391 E8.87426
M204 S1000
G0 F6000 X166.979 Y144.391
M204 S750
G1 F3000 X170.607 Y148.019 E9.08075
M204 S1000
G0 F6000 X170.607 Y148.703
M204 S750
G1 F3000 X166.295 Y144.391 E9.32617
M204 S1000
G0 F6000 X165.61 Y144.391
M204 S750
G1 F3000 X170.607 Y149.388 E9.61057
M204 S1000
G0 F6000 X170.607 Y150.072
M204 S750
G1 F3000 X164.926 Y144.391 E9.9339
M204 S1000
G0 F6000 X164.241 Y144.391
M204 S750
G1 F3000 X170.607 Y150.757 E10.29622
M204 S1000
G0 F6000 X170.607 Y151.441
M204 S750
G1 F3000 X163.557 Y144.391 E10.69747
M204 S1000
G0 F6000 X162.872 Y144.391
M204 S750
G1 F3000 X170.607 Y152.126 E11.1377
M204 S1000
G0 F6000 X170.607 Y152.81
M204 S750
G1 F3000 X162.188 Y144.391 E11.61687
M204 S1000
G0 F6000 X161.503 Y144.391
M204 S750
G1 F3000 X170.607 Y153.495 E12.13502
M204 S1000
G0 F6000 X170.607 Y154.179
M204 S750
G1 F3000 X160.819 Y144.391 E12.6921
M204 S1000
G0 F6000 X160.134 Y144.391
M204 S750
G1 F3000 X170.607 Y154.864 E13.28817
M204 S1000
G0 F6000 X170.607 Y155.548
M204 S750
G1 F3000 X159.45 Y144.391 E13.92317
M204 S1000
G0 F6000 X159.391 Y145.016
M204 S750
G1 F3000 X169.982 Y155.608 E14.52598
M204 S1000
G0 F6000 X169.297 Y155.608
M204 S750
G1 F3000 X159.391 Y145.701 E15.0898
M204 S1000
G0 F6000 X159.391 Y146.385
M204 S750
G1 F3000 X168.613 Y155.608 E15.6147
M204 S1000
G0 F6000 X167.928 Y155.608
M204 S750
G1 F3000 X159.391 Y147.07 E16.10061
M204 S1000
G0 F6000 X159.391 Y147.754
M204 S750
G1 F3000 X167.244 Y155.608 E16.54759
M204 S1000
G0 F6000 X166.559 Y155.608
M204 S750
G1 F3000 X159.391 Y148.439 E16.95558
M204 S1000
G0 F6000 X159.391 Y149.123
M204 S750
G1 F3000 X165.875 Y155.608 E17.32464
M204 S1000
G0 F6000 X165.19 Y155.608
M204 S750
G1 F3000 X159.391 Y149.808 E17.65472
M204 S1000
G0 F6000 X159.391 Y150.492
M204 S750
G1 F3000 X164.506 Y155.608 E17.94587
M204 S1000
G0 F6000 X163.821 Y155.608
M204 S750
G1 F3000 X159.391 Y151.177 E18.19803
M204 S1000
G0 F6000 X159.391 Y151.861
M204 S750
G1 F3000 X163.137 Y155.608 E18.41126
M204 S1000
G0 F6000 X162.452 Y155.608
M204 S750
G1 F3000 X159.391 Y152.546 E18.5855
M204 S1000
G0 F6000 X159.391 Y153.23
M204 S750
G1 F3000 X161.768 Y155.608 E18.72082
M204 S1000
G0 F6000 X161.083 Y155.608
M204 S750
G1 F3000 X159.391 Y153.915 E18.81715
M204 S1000
G0 F6000 X159.391 Y154.599
M204 S750
G1 F3000 X160.399 Y155.608 E18.87454
M204 S1000
G0 F6000 X159.714 Y155.608
M204 S750
G1 F3000 X159.391 Y155.284 E18.89296
;TIME_ELAPSED:26.642763
G1 F3600 E16.89296
M204 S4000
G92 E0 ; Zero Extruder Counts
G91 ; Relative positioning
G0 Z20 ; Lower baseplate.
G90 ; Absolute Positioning
M104 S0
T0 ;
M104 S0 ; Nozzle heater off
M140 S0 ; Baseplate heater off
G0 F4000 X0 Y300
M107;Fan off
M82 ;absolute extrusion mode
;End of Gcode
;SETTING_3 {"global_quality": "[general]\\nversion = 4\\nname = 0.2mm PLA custom
;SETTING_3  prime\\ndefinition = makertech_proforge_35\\n\\n[metadata]\\ntype = 
;SETTING_3 quality_changes\\nquality_type = normal\\nsetting_version = 20\\n\\n[
;SETTING_3 values]\\nadhesion_type = none\\nlayer_height_0 = 0.2\\n\\n", "extrud
;SETTING_3 er_quality": ["[general]\\nversion = 4\\nname = 0.2mm PLA custom prim
;SETTING_3 e\\ndefinition = makertech_proforge_35\\n\\n[metadata]\\ntype = quali
;SETTING_3 ty_changes\\nquality_type = normal\\nposition = 0\\nintent_category =
;SETTING_3  default\\nsetting_version = 20\\n\\n[values]\\ninfill_pattern = trih
;SETTING_3 exagon\\ninfill_sparse_density = 12.0\\nretraction_hop = 0.5\\nretrac
;SETTING_3 tion_hop_enabled = True\\nspeed_layer_0 = 80.0\\nspeed_print = 80.0\\
;SETTING_3 nspeed_topbottom = 80.0\\nspeed_travel = 130.0\\nspeed_wall_x = 80.0\
;SETTING_3 \n\\n", "[general]\\nversion = 4\\nname = 0.2mm PLA custom prime\\nde
;SETTING_3 finition = makertech_base\\n\\n[metadata]\\ntype = quality_changes\\n
;SETTING_3 quality_type = normal\\nposition = 1\\nintent_category = default\\nse
;SETTING_3 tting_version = 20\\n\\n[values]\\n\\n"]}
