;FLAVOR:Marlin
;TIME:1572
;Filament used: 1.12765m, 1.14912m
;Layer height: 0.2
;MINX:105.22
;MINY:140.22
;MINZ:0.2
;MAXX:194.78
;MAXY:159.78
;MAXZ:15.5
;Generated with Cura_SteamEngine 5.2.1
T0
M104 S200
M104 T1 S200
M82 ;absolute extrusion mode
;----------Proforge 3.5 Start G-code---------- 
G92 E0 ;Zero Extruder 
M82 ;absolute extrusion mode 
M190 S60 ;wait for bed temp 
M109 S200 ; wait for nozzle temp
M109 T1 S200 ; wait for nozzle temp
G28 ;Home 
Z_TILT_ADJUST
G28
BED_MESH_PROFILE LOAD=mesh_60c ; Load bed Mesh.
G0 F8000 X150 Y5 Z0.4;Move hotend to bottom center
G1 F1500 X290 E20 ;Prime Hotend 
T1
G0 F8000 X150 Y10 Z0.4;Move hotend to bottom center
G1 F1500 X290 E20 ;Prime Hotend
G1 F500 E17
T0
; ----------Proforge 3.5 Start G-code----------
G92 E0
G92 E0
G1 F1800 E-3
;LAYER_COUNT:75
;LAYER:0
M107
M204 S1000
G1 F600 Z0.7
;MESH:Retract Tester with Fill v2.stl
G0 F7800 X106.21 Y141.21 Z0.7
M204 S750
;TYPE:WALL-INNER
G1 F600 Z0.2
G1 F1800 E0
G1 F4800 X106.21 Y158.79 E0.7075
G1 X143.79 Y158.79 E2.2199
G1 X143.79 Y150 E2.57365
G1 X143.79 Y141.21 E2.9274
G1 X106.21 Y141.21 E4.4398
M204 S1000
G0 F7800 X105.726 Y140.726
M204 S750
G1 F4800 X105.726 Y159.274 E5.18626
G1 X144.274 Y159.274 E6.73762
G1 X144.274 Y150 E7.11085
G1 X144.274 Y140.726 E7.48408
G1 X105.726 Y140.726 E9.03543
M204 S1000
G0 F7800 X105.242 Y140.242
M204 S750
;TYPE:WALL-OUTER
G1 F4800 X105.242 Y159.758 E9.82085
G1 X144.758 Y159.758 E11.41116
G1 X144.758 Y150 E11.80387
G1 X144.758 Y140.242 E12.19658
G1 X105.242 Y140.242 E13.78689
M204 S1000
G0 F7800 X105.89 Y140.89
G0 X106.65 Y141.65
M204 S750
;TYPE:SKIN
G1 F4800 X106.65 Y158.35 E14.45898
G1 X143.35 Y158.35 E15.93596
G1 X143.35 Y150 E16.272
G1 X143.35 Y141.65 E16.60805
G1 X106.65 Y141.65 E18.08503
M204 S1000
G0 F7800 X107.455 Y158.106
M204 S750
G1 F4800 X106.891 Y157.543 E18.1171
M204 S1000
G0 F7800 X106.891 Y156.858
M204 S750
G1 F4800 X108.139 Y158.106 E18.18813
M204 S1000
G0 F7800 X108.824 Y158.106
M204 S750
G1 F4800 X106.891 Y156.174 E18.29812
M204 S1000
G0 F7800 X106.891 Y155.489
M204 S750
G1 F4800 X109.508 Y158.106 E18.44707
M204 S1000
G0 F7800 X110.193 Y158.106
M204 S750
G1 F4800 X106.891 Y154.805 E18.63497
M204 S1000
G0 F7800 X106.891 Y154.12
M204 S750
G1 F4800 X110.877 Y158.106 E18.86183
M204 S1000
G0 F7800 X111.562 Y158.106
M204 S750
G1 F4800 X106.891 Y153.436 E19.12765
M204 S1000
G0 F7800 X106.891 Y152.752
M204 S750
G1 F4800 X112.246 Y158.106 E19.4324
M204 S1000
G0 F7800 X112.931 Y158.106
M204 S750
G1 F4800 X106.891 Y152.067 E19.77614
M204 S1000
G0 F7800 X106.891 Y151.383
M204 S750
G1 F4800 X113.615 Y158.106 E20.1588
M204 S1000
G0 F7800 X114.3 Y158.106
M204 S750
G1 F4800 X106.891 Y150.698 E20.58046
M204 S1000
G0 F7800 X106.891 Y150.014
M204 S750
G1 F4800 X114.984 Y158.106 E21.04104
M204 S1000
G0 F7800 X115.669 Y158.106
M204 S750
G1 F4800 X106.891 Y149.329 E21.54061
M204 S1000
G0 F7800 X106.891 Y148.645
M204 S750
G1 F4800 X116.353 Y158.106 E22.0791
M204 S1000
G0 F7800 X117.038 Y158.106
M204 S750
G1 F4800 X106.891 Y147.96 E22.65659
M204 S1000
G0 F7800 X106.891 Y147.276
M204 S750
G1 F4800 X117.722 Y158.106 E23.273
M204 S1000
G0 F7800 X118.407 Y158.106
M204 S750
G1 F4800 X106.891 Y146.591 E23.92841
M204 S1000
G0 F7800 X106.891 Y145.907
M204 S750
G1 F4800 X119.091 Y158.106 E24.62274
M204 S1000
G0 F7800 X119.776 Y158.106
M204 S750
G1 F4800 X106.891 Y145.222 E25.35605
M204 S1000
G0 F7800 X106.891 Y144.538
M204 S750
G1 F4800 X120.46 Y158.106 E26.1283
M204 S1000
G0 F7800 X121.145 Y158.106
M204 S750
G1 F4800 X106.891 Y143.853 E26.93953
M204 S1000
G0 F7800 X106.891 Y143.169
M204 S750
G1 F4800 X121.829 Y158.106 E27.7897
M204 S1000
G0 F7800 X122.514 Y158.106
M204 S750
G1 F4800 X106.891 Y142.484 E28.67885
M204 S1000
G0 F7800 X106.983 Y141.891
M204 S750
G1 F4800 X123.198 Y158.106 E29.60172
M204 S1000
G0 F7800 X123.882 Y158.106
M204 S750
G1 F4800 X107.667 Y141.891 E30.52459
M204 S1000
G0 F7800 X108.352 Y141.891
M204 S750
G1 F4800 X124.567 Y158.106 E31.44746
M204 S1000
G0 F7800 X125.251 Y158.106
M204 S750
G1 F4800 X109.036 Y141.891 E32.37033
M204 S1000
G0 F7800 X109.721 Y141.891
M204 S750
G1 F4800 X125.936 Y158.106 E33.29321
M204 S1000
G0 F7800 X126.62 Y158.106
M204 S750
G1 F4800 X110.405 Y141.891 E34.21608
M204 S1000
G0 F7800 X111.09 Y141.891
M204 S750
G1 F4800 X127.305 Y158.106 E35.13895
M204 S1000
G0 F7800 X127.989 Y158.106
M204 S750
G1 F4800 X111.774 Y141.891 E36.06182
M204 S1000
G0 F7800 X112.458 Y141.891
M204 S750
G1 F4800 X128.674 Y158.106 E36.98472
M204 S1000
G0 F7800 X129.358 Y158.106
M204 S750
G1 F4800 X113.143 Y141.891 E37.90759
M204 S1000
G0 F7800 X113.827 Y141.891
M204 S750
G1 F4800 X130.043 Y158.106 E38.83049
M204 S1000
G0 F7800 X130.727 Y158.106
M204 S750
G1 F4800 X114.512 Y141.891 E39.75336
M204 S1000
G0 F7800 X115.196 Y141.891
M204 S750
G1 F4800 X131.412 Y158.106 E40.67626
M204 S1000
G0 F7800 X132.096 Y158.106
M204 S750
G1 F4800 X115.881 Y141.891 E41.59914
M204 S1000
G0 F7800 X116.565 Y141.891
M204 S750
G1 F4800 X132.781 Y158.106 E42.52204
M204 S1000
G0 F7800 X133.465 Y158.106
M204 S750
G1 F4800 X117.25 Y141.891 E43.44491
M204 S1000
G0 F7800 X117.934 Y141.891
M204 S750
G1 F4800 X134.15 Y158.106 E44.36781
M204 S1000
G0 F7800 X134.834 Y158.106
M204 S750
G1 F4800 X118.619 Y141.891 E45.29068
M204 S1000
G0 F7800 X119.303 Y141.891
M204 S750
G1 F4800 X135.519 Y158.106 E46.21358
M204 S1000
G0 F7800 X136.203 Y158.106
M204 S750
G1 F4800 X119.988 Y141.891 E47.13645
M204 S1000
G0 F7800 X120.672 Y141.891
M204 S750
G1 F4800 X136.888 Y158.106 E48.05935
M204 S1000
G0 F7800 X137.572 Y158.106
M204 S750
G1 F4800 X121.357 Y141.891 E48.98222
M204 S1000
G0 F7800 X122.041 Y141.891
M204 S750
G1 F4800 X138.257 Y158.106 E49.90512
M204 S1000
G0 F7800 X138.941 Y158.106
M204 S750
G1 F4800 X122.726 Y141.891 E50.828
M204 S1000
G0 F7800 X123.41 Y141.891
M204 S750
G1 F4800 X139.626 Y158.106 E51.7509
M204 S1000
G0 F7800 X140.31 Y158.106
M204 S750
G1 F4800 X124.095 Y141.891 E52.67377
M204 S1000
G0 F7800 X124.779 Y141.891
M204 S750
G1 F4800 X140.994 Y158.106 E53.59664
M204 S1000
G0 F7800 X141.679 Y158.106
M204 S750
G1 F4800 X125.464 Y141.892 E54.51948
M204 S1000
G0 F7800 X126.149 Y141.892
M204 S750
G1 F4800 X142.363 Y158.106 E55.4423
M204 S1000
G0 F7800 X143.048 Y158.106
M204 S750
G1 F4800 X126.833 Y141.892 E56.36514
M204 S1000
G0 F7800 X127.518 Y141.892
M204 S750
G1 F4800 X143.107 Y157.481 E57.25238
M204 S1000
G0 F7800 X143.107 Y156.797
M204 S750
G1 F4800 X128.202 Y141.892 E58.1007
M204 S1000
G0 F7800 X128.887 Y141.892
M204 S750
G1 F4800 X143.107 Y156.112 E58.91002
M204 S1000
G0 F7800 X143.107 Y155.428
M204 S750
G1 F4800 X129.571 Y141.892 E59.68042
M204 S1000
G0 F7800 X130.256 Y141.892
M204 S750
G1 F4800 X143.107 Y154.743 E60.41183
M204 S1000
G0 F7800 X143.107 Y154.059
M204 S750
G1 F4800 X130.94 Y141.892 E61.10431
M204 S1000
G0 F7800 X131.625 Y141.892
M204 S750
G1 F4800 X143.107 Y153.374 E61.75781
M204 S1000
G0 F7800 X143.107 Y152.69
M204 S750
G1 F4800 X132.309 Y141.892 E62.37237
M204 S1000
G0 F7800 X132.994 Y141.892
M204 S750
G1 F4800 X143.107 Y152.006 E62.94798
M204 S1000
G0 F7800 X143.107 Y151.321
M204 S750
G1 F4800 X133.678 Y141.892 E63.48463
M204 S1000
G0 F7800 X134.363 Y141.892
M204 S750
G1 F4800 X143.107 Y150.637 E63.98232
M204 S1000
G0 F7800 X143.107 Y149.952
M204 S750
G1 F4800 X135.047 Y141.892 E64.44105
M204 S1000
G0 F7800 X135.731 Y141.892
M204 S750
G1 F4800 X143.107 Y149.268 E64.86085
M204 S1000
G0 F7800 X143.107 Y148.583
M204 S750
G1 F4800 X136.416 Y141.892 E65.24167
M204 S1000
G0 F7800 X137.1 Y141.892
M204 S750
G1 F4800 X143.107 Y147.899 E65.58356
M204 S1000
G0 F7800 X143.107 Y147.214
M204 S750
G1 F4800 X137.785 Y141.892 E65.88646
M204 S1000
G0 F7800 X138.469 Y141.892
M204 S750
G1 F4800 X143.107 Y146.53 E66.15043
M204 S1000
G0 F7800 X143.107 Y145.845
M204 S750
G1 F4800 X139.154 Y141.892 E66.37541
M204 S1000
G0 F7800 X139.838 Y141.892
M204 S750
G1 F4800 X143.107 Y145.161 E66.56146
M204 S1000
G0 F7800 X143.107 Y144.476
M204 S750
G1 F4800 X140.523 Y141.892 E66.70853
M204 S1000
G0 F7800 X141.207 Y141.892
M204 S750
G1 F4800 X143.107 Y143.792 E66.81667
M204 S1000
G0 F7800 X143.107 Y143.107
M204 S750
G1 F4800 X141.892 Y141.892 E66.88582
M204 S1000
G0 F7800 X142.576 Y141.892
M204 S750
G1 F4800 X143.107 Y142.423 E66.91604
G1 F1200 E61.91604
G1 F600 Z0.7
G92 E0
G0 F20000 X297.407 Y265.407
T1
G92 E0
M105
M109 S200
G1 F1800 E-3
M204 S1000
;MESH:Retract Tester with Fill v2.stl(1)
G0 F7800 X143.107 Y142.423 Z0.7
G1 F600 Z0.2
G0 F7800 X145.665 Y142.423
G0 X154.335 Y142.423
G0 X155.44 Y142.423
G0 X156.21 Y141.21
M204 S750
;TYPE:WALL-INNER
G1 F1800 E0
G1 F4800 X156.21 Y158.79 E0.7075
G1 X193.79 Y158.79 E2.2199
G1 X193.79 Y150 E2.57365
G1 X193.79 Y141.21 E2.9274
G1 X156.21 Y141.21 E4.4398
M204 S1000
G0 F7800 X155.726 Y140.726
M204 S750
G1 F4800 X155.726 Y159.274 E5.18626
G1 X194.274 Y159.274 E6.73762
G1 X194.274 Y150 E7.11085
G1 X194.274 Y140.726 E7.48408
G1 X155.726 Y140.726 E9.03543
M204 S1000
G0 F7800 X155.242 Y140.242
M204 S750
;TYPE:WALL-OUTER
G1 F4800 X155.242 Y159.758 E9.82085
G1 X194.758 Y159.758 E11.41116
G1 X194.758 Y150 E11.80387
G1 X194.758 Y140.242 E12.19658
G1 X155.242 Y140.242 E13.78689
M204 S1000
G0 F7800 X155.89 Y140.89
G0 X156.65 Y141.65
M204 S750
;TYPE:SKIN
G1 F4800 X156.65 Y158.35 E14.45898
G1 X193.35 Y158.35 E15.93596
G1 X193.35 Y150 E16.272
G1 X193.35 Y141.65 E16.60805
G1 X156.65 Y141.65 E18.08503
M204 S1000
G0 F7800 X157.422 Y158.106
M204 S750
G1 F4800 X156.891 Y157.575 E18.11525
M204 S1000
G0 F7800 X156.891 Y156.891
M204 S750
G1 F4800 X158.106 Y158.106 E18.1844
M204 S1000
G0 F7800 X158.791 Y158.106
M204 S750
G1 F4800 X156.891 Y156.206 E18.29254
M204 S1000
G0 F7800 X156.891 Y155.522
M204 S750
G1 F4800 X159.475 Y158.106 E18.43961
M204 S1000
G0 F7800 X160.16 Y158.106
M204 S750
G1 F4800 X156.891 Y154.838 E18.62563
M204 S1000
G0 F7800 X156.891 Y154.153
M204 S750
G1 F4800 X160.844 Y158.106 E18.85062
M204 S1000
G0 F7800 X161.529 Y158.106
M204 S750
G1 F4800 X156.891 Y153.469 E19.11456
M204 S1000
G0 F7800 X156.891 Y152.784
M204 S750
G1 F4800 X162.213 Y158.106 E19.41746
M204 S1000
G0 F7800 X162.898 Y158.106
M204 S750
G1 F4800 X156.891 Y152.1 E19.75932
M204 S1000
G0 F7800 X156.891 Y151.415
M204 S750
G1 F4800 X163.582 Y158.106 E20.14013
M204 S1000
G0 F7800 X164.267 Y158.106
M204 S750
G1 F4800 X156.891 Y150.731 E20.55991
M204 S1000
G0 F7800 X156.891 Y150.046
M204 S750
G1 F4800 X164.951 Y158.106 E21.01864
M204 S1000
G0 F7800 X165.636 Y158.106
M204 S750
G1 F4800 X156.891 Y149.362 E21.51633
M204 S1000
G0 F7800 X156.891 Y148.677
M204 S750
G1 F4800 X166.32 Y158.106 E22.05298
M204 S1000
G0 F7800 X167.005 Y158.106
M204 S750
G1 F4800 X156.891 Y147.993 E22.62859
M204 S1000
G0 F7800 X156.891 Y147.308
M204 S750
G1 F4800 X167.689 Y158.106 E23.24315
M204 S1000
G0 F7800 X168.374 Y158.106
M204 S750
G1 F4800 X156.891 Y146.624 E23.89668
M204 S1000
G0 F7800 X156.891 Y145.939
M204 S750
G1 F4800 X169.058 Y158.106 E24.58916
M204 S1000
G0 F7800 X169.743 Y158.106
M204 S750
G1 F4800 X156.891 Y145.255 E25.3206
M204 S1000
G0 F7800 X156.891 Y144.57
M204 S750
G1 F4800 X170.427 Y158.106 E26.09099
M204 S1000
G0 F7800 X171.112 Y158.106
M204 S750
G1 F4800 X156.891 Y143.886 E26.90035
M204 S1000
G0 F7800 X156.891 Y143.201
M204 S750
G1 F4800 X171.796 Y158.106 E27.74866
M204 S1000
G0 F7800 X172.481 Y158.106
M204 S750
G1 F4800 X156.891 Y142.517 E28.63593
M204 S1000
G0 F7800 X156.95 Y141.892
M204 S750
G1 F4800 X173.165 Y158.106 E29.55878
M204 S1000
G0 F7800 X173.849 Y158.106
M204 S750
G1 F4800 X157.635 Y141.892 E30.48159
M204 S1000
G0 F7800 X158.319 Y141.892
M204 S750
G1 F4800 X174.534 Y158.106 E31.40443
M204 S1000
G0 F7800 X175.219 Y158.107
M204 S750
G1 F4800 X159.004 Y141.892 E32.32731
M204 S1000
G0 F7800 X159.688 Y141.892
M204 S750
G1 F4800 X175.904 Y158.107 E33.25021
M204 S1000
G0 F7800 X176.588 Y158.107
M204 S750
G1 F4800 X160.373 Y141.892 E34.17308
M204 S1000
G0 F7800 X161.057 Y141.892
M204 S750
G1 F4800 X177.273 Y158.107 E35.09598
M204 S1000
G0 F7800 X177.957 Y158.107
M204 S750
G1 F4800 X161.742 Y141.892 E36.01885
M204 S1000
G0 F7800 X162.426 Y141.892
M204 S750
G1 F4800 X178.642 Y158.107 E36.94175
M204 S1000
G0 F7800 X179.326 Y158.107
M204 S750
G1 F4800 X163.111 Y141.892 E37.86462
M204 S1000
G0 F7800 X163.795 Y141.892
M204 S750
G1 F4800 X180.011 Y158.107 E38.78752
M204 S1000
G0 F7800 X180.695 Y158.107
M204 S750
G1 F4800 X164.48 Y141.892 E39.71039
M204 S1000
G0 F7800 X165.164 Y141.892
M204 S750
G1 F4800 X181.379 Y158.107 E40.63327
M204 S1000
G0 F7800 X182.064 Y158.107
M204 S750
G1 F4800 X165.849 Y141.892 E41.55614
M204 S1000
G0 F7800 X166.533 Y141.892
M204 S750
G1 F4800 X182.748 Y158.107 E42.47901
M204 S1000
G0 F7800 X183.433 Y158.107
M204 S750
G1 F4800 X167.218 Y141.892 E43.40188
M204 S1000
G0 F7800 X167.902 Y141.892
M204 S750
G1 F4800 X184.117 Y158.107 E44.32475
M204 S1000
G0 F7800 X184.802 Y158.107
M204 S750
G1 F4800 X168.586 Y141.892 E45.24765
M204 S1000
G0 F7800 X169.271 Y141.892
M204 S750
G1 F4800 X185.486 Y158.107 E46.17052
M204 S1000
G0 F7800 X186.171 Y158.107
M204 S750
G1 F4800 X169.955 Y141.892 E47.09342
M204 S1000
G0 F7800 X170.64 Y141.892
M204 S750
G1 F4800 X186.855 Y158.107 E48.0163
M204 S1000
G0 F7800 X187.54 Y158.107
M204 S750
G1 F4800 X171.324 Y141.892 E48.9392
M204 S1000
G0 F7800 X172.009 Y141.892
M204 S750
G1 F4800 X188.224 Y158.107 E49.86207
M204 S1000
G0 F7800 X188.909 Y158.107
M204 S750
G1 F4800 X172.693 Y141.892 E50.78497
M204 S1000
G0 F7800 X173.378 Y141.892
M204 S750
G1 F4800 X189.593 Y158.107 E51.70784
M204 S1000
G0 F7800 X190.278 Y158.107
M204 S750
G1 F4800 X174.062 Y141.892 E52.63074
M204 S1000
G0 F7800 X174.747 Y141.892
M204 S750
G1 F4800 X190.962 Y158.107 E53.55361
M204 S1000
G0 F7800 X191.647 Y158.107
M204 S750
G1 F4800 X175.431 Y141.892 E54.47651
M204 S1000
G0 F7800 X176.116 Y141.892
M204 S750
G1 F4800 X192.331 Y158.107 E55.39938
M204 S1000
G0 F7800 X193.016 Y158.107
M204 S750
G1 F4800 X176.8 Y141.892 E56.32228
M204 S1000
G0 F7800 X177.485 Y141.892
M204 S750
G1 F4800 X193.107 Y157.514 E57.2114
M204 S1000
G0 F7800 X193.107 Y156.829
M204 S750
G1 F4800 X178.169 Y141.892 E58.06157
M204 S1000
G0 F7800 X178.854 Y141.892
M204 S750
G1 F4800 X193.107 Y156.145 E58.87277
M204 S1000
G0 F7800 X193.107 Y155.46
M204 S750
G1 F4800 X179.538 Y141.892 E59.64502
M204 S1000
G0 F7800 X180.223 Y141.892
M204 S750
G1 F4800 X193.107 Y154.776 E60.37831
M204 S1000
G0 F7800 X193.107 Y154.092
M204 S750
G1 F4800 X180.907 Y141.892 E61.07267
M204 S1000
G0 F7800 X181.592 Y141.892
M204 S750
G1 F4800 X193.107 Y153.407 E61.72804
M204 S1000
G0 F7800 X193.107 Y152.723
M204 S750
G1 F4800 X182.276 Y141.892 E62.34448
M204 S1000
G0 F7800 X182.961 Y141.892
M204 S750
G1 F4800 X193.107 Y152.038 E62.92194
M204 S1000
G0 F7800 X193.107 Y151.354
M204 S750
G1 F4800 X183.645 Y141.892 E63.46047
M204 S1000
G0 F7800 X184.33 Y141.892
M204 S750
G1 F4800 X193.107 Y150.669 E63.96001
M204 S1000
G0 F7800 X193.107 Y149.985
M204 S750
G1 F4800 X185.014 Y141.892 E64.42062
M204 S1000
G0 F7800 X185.698 Y141.892
M204 S750
G1 F4800 X193.107 Y149.3 E64.84227
M204 S1000
G0 F7800 X193.107 Y148.616
M204 S750
G1 F4800 X186.383 Y141.892 E65.22496
M204 S1000
G0 F7800 X187.067 Y141.892
M204 S750
G1 F4800 X193.107 Y147.931 E65.5687
M204 S1000
G0 F7800 X193.107 Y147.247
M204 S750
G1 F4800 X187.752 Y141.892 E65.87348
M204 S1000
G0 F7800 X188.436 Y141.892
M204 S750
G1 F4800 X193.107 Y146.562 E66.1393
M204 S1000
G0 F7800 X193.107 Y145.878
M204 S750
G1 F4800 X189.121 Y141.892 E66.36616
M204 S1000
G0 F7800 X189.805 Y141.892
M204 S750
G1 F4800 X193.107 Y145.193 E66.55406
M204 S1000
G0 F7800 X193.107 Y144.509
M204 S750
G1 F4800 X190.49 Y141.892 E66.70301
M204 S1000
G0 F7800 X191.174 Y141.892
M204 S750
G1 F4800 X193.107 Y143.824 E66.813
M204 S1000
G0 F7800 X193.107 Y143.14
M204 S750
G1 F4800 X191.859 Y141.892 E66.88403
M204 S1000
G0 F7800 X192.543 Y141.892
M204 S750
G1 F4800 X193.107 Y142.455 E66.9161
M204 S1000
G1 F1800 E63.9161
;MESH:NONMESH
G0 F600 X193.107 Y142.455 Z0.4
G0 F7800 X156.1 Y141.1
;TIME_ELAPSED:64.406628
;LAYER:1
M106 S127.5
M204 S1600
;TYPE:WALL-INNER
;MESH:Retract Tester with Fill v2.stl(1)
G1 F1800 E66.9161
G1 F4800 X156.1 Y158.9 E67.56733
