;FLAVOR:Marlin
;TIME:306
;Filament used: 0.268104m, 0m
;Layer height: 0.2
;MINX:141.907
;MINY:136.792
;MINZ:0.16
;MAXX:158.093
;MAXY:163.208
;MAXZ:4.96
;Generated with Cura_SteamEngine 5.2.1
T0
M140 S60
M104 S205
M82 ;absolute extrusion mode
;----------Proforge 3.5 Start G-code---------- 
G92 E0 ;Zero Extruder 
M82 ;absolute extrusion mode 
M190 S60 ;wait for bed temp 
M109 S200 ; wait for nozzle temp
M109 T1 S200 ; wait for nozzle temp
G28 ;Home 
Z_TILT_ADJUST
G28 ; ReHome
BED_MESH_PROFILE LOAD=mesh_60c ; Load bed Mesh.
G0 F8000 X150 Y5 Z0.4;Move hotend to bottom center
G1 F1500 X290 E20 ;Prime Nozzle 0 
T1 ; Prime Nozzle 1
G0 F8000 X150 Y10 Z0.4;Move hotend to bottom center
G1 F1500 X290 E20 ;Prime Nozzle 1 
G1 Y15 E18 ; Retract filament
T0 ; 
; ----------Proforge 3.5 Start G-code----------
G92 E0
G92 E0
G1 F3600 E-2
;LAYER_COUNT:25
;LAYER:0
M107
M204 S1000
G0 F6000 X142.662 Y139.266 Z0.16
M204 S750
;TYPE:SKIRT
G1 F3600 E0
G1 F3000 X142.844 Y139.099 E0.00795
G1 X143.009 Y138.972 E0.01466
G1 X143.215 Y138.84 E0.02253
G1 X143.402 Y138.742 E0.02933
G1 X143.708 Y138.62 E0.03994
G1 X148.984 Y136.945 E0.21816
G1 X149.381 Y136.847 E0.23132
G1 X149.572 Y136.817 E0.23755
G1 X149.911 Y136.792 E0.24849
G1 X150.089 Y136.792 E0.25422
G1 X150.428 Y136.817 E0.26517
G1 X150.619 Y136.847 E0.27139
G1 X151.016 Y136.945 E0.28456
G1 X156.292 Y138.62 E0.46278
G1 X156.598 Y138.742 E0.47338
G1 X156.785 Y138.84 E0.48018
G1 X156.991 Y138.972 E0.48806
G1 X157.156 Y139.099 E0.49476
G1 X157.338 Y139.266 E0.50271
G1 X157.479 Y139.42 E0.50944
G1 X157.626 Y139.611 E0.5172
G1 X157.741 Y139.792 E0.5241
G1 X157.855 Y140.012 E0.53208
G1 X157.936 Y140.209 E0.53893
G1 X158.008 Y140.44 E0.54672
G1 X158.054 Y140.649 E0.55361
G1 X158.085 Y140.895 E0.5616
G1 X158.093 Y141.101 E0.56823
G1 X158.082 Y141.341 E0.57597
G1 X158.054 Y141.551 E0.58279
G1 X157.976 Y141.875 E0.59352
G1 X155.505 Y149.66 E0.85649
G1 X156.596 Y156.345 E1.07456
G1 X156.609 Y156.618 E1.08336
G1 X156.558 Y157.405 E1.10875
G1 X156.536 Y157.574 E1.11424
G1 X156.378 Y158.332 E1.13917
G1 X156.33 Y158.5 E1.1448
G1 X156.064 Y159.228 E1.16975
G1 X155.993 Y159.386 E1.17533
G1 X155.626 Y160.068 E1.20026
G1 X155.532 Y160.216 E1.20591
G1 X155.069 Y160.84 E1.23092
G1 X154.957 Y160.971 E1.23647
G1 X154.414 Y161.519 E1.26131
G1 X154.283 Y161.633 E1.2669
G1 X153.664 Y162.1 E1.29187
G1 X153.514 Y162.196 E1.2976
G1 X152.83 Y162.569 E1.32268
G1 X152.679 Y162.639 E1.32804
G1 X151.96 Y162.911 E1.35279
G1 X151.791 Y162.961 E1.35847
G1 X151.03 Y163.128 E1.38355
G1 X150.857 Y163.153 E1.38918
G1 X150.086 Y163.208 E1.41406
G1 X149.916 Y163.208 E1.41954
G1 X149.157 Y163.155 E1.44403
G1 X148.983 Y163.13 E1.44969
G1 X148.21 Y162.961 E1.47517
G1 X148.04 Y162.911 E1.48087
G1 X147.321 Y162.639 E1.50562
G1 X147.17 Y162.569 E1.51098
G1 X146.486 Y162.196 E1.53606
G1 X146.336 Y162.1 E1.5418
G1 X145.717 Y161.633 E1.56676
G1 X145.586 Y161.519 E1.57235
G1 X145.043 Y160.971 E1.59719
G1 X144.931 Y160.84 E1.60274
G1 X144.468 Y160.216 E1.62776
G1 X144.374 Y160.068 E1.6334
G1 X144.007 Y159.386 E1.65834
G1 X143.936 Y159.228 E1.66391
G1 X143.67 Y158.5 E1.68887
G1 X143.622 Y158.332 E1.69449
G1 X143.464 Y157.574 E1.71942
G1 X143.442 Y157.405 E1.72491
G1 X143.391 Y156.618 E1.7503
G1 X143.404 Y156.345 E1.7591
G1 X144.494 Y149.657 E1.97727
G1 X142.024 Y141.875 E2.24013
G1 X141.946 Y141.551 E2.25086
G1 X141.918 Y141.341 E2.25768
G1 X141.907 Y141.101 E2.26542
G1 X141.916 Y140.893 E2.27212
G1 X141.947 Y140.649 E2.28004
G1 X141.988 Y140.453 E2.28649
G1 X142.057 Y140.224 E2.29419
G1 X142.142 Y140.016 E2.30142
G1 X142.257 Y139.794 E2.30947
G1 X142.373 Y139.612 E2.31642
G1 X142.522 Y139.419 E2.32427
G1 X142.662 Y139.266 E2.33095
M204 S1000
G0 F6000 X142.989 Y139.623
M204 S750
G1 F3000 X143.171 Y139.456 E2.3389
G1 X143.27 Y139.38 E2.34292
G1 X143.476 Y139.248 E2.35079
G1 X143.588 Y139.189 E2.35487
G1 X143.854 Y139.081 E2.36411
G1 X149.13 Y137.406 E2.54233
G1 X149.493 Y137.318 E2.55436
G1 X149.608 Y137.3 E2.55811
G1 X149.947 Y137.275 E2.56905
G1 X150.053 Y137.275 E2.57246
G1 X150.392 Y137.3 E2.58341
G1 X150.507 Y137.318 E2.58716
G1 X150.87 Y137.406 E2.59918
G1 X156.146 Y139.081 E2.7774
G1 X156.412 Y139.189 E2.78664
G1 X156.524 Y139.248 E2.79072
G1 X156.73 Y139.38 E2.7986
G1 X156.829 Y139.456 E2.80261
G1 X157.011 Y139.623 E2.81057
G1 X157.095 Y139.715 E2.81458
G1 X157.242 Y139.906 E2.82234
G1 X157.312 Y140.015 E2.82651
G1 X157.426 Y140.235 E2.83449
G1 X157.474 Y140.353 E2.83859
G1 X157.546 Y140.584 E2.84638
G1 X157.573 Y140.709 E2.8505
G1 X157.604 Y140.955 E2.85848
G1 X157.609 Y141.079 E2.86247
G1 X157.598 Y141.319 E2.87021
G1 X157.581 Y141.445 E2.8743
G1 X157.515 Y141.729 E2.88369
G1 X155.009 Y149.624 E3.15037
G1 X156.119 Y156.423 E3.37217
G1 X156.126 Y156.587 E3.37746
G1 X156.075 Y157.374 E3.40285
G1 X156.062 Y157.475 E3.40613
G1 X155.904 Y158.233 E3.43105
G1 X155.875 Y158.334 E3.43444
G1 X155.609 Y159.062 E3.45939
G1 X155.566 Y159.157 E3.46275
G1 X155.199 Y159.839 E3.48768
G1 X155.143 Y159.928 E3.49107
G1 X154.68 Y160.552 E3.51609
G1 X154.613 Y160.63 E3.5194
G1 X154.07 Y161.178 E3.54423
G1 X153.991 Y161.247 E3.54761
G1 X153.372 Y161.714 E3.57258
G1 X153.283 Y161.771 E3.57598
G1 X152.599 Y162.144 E3.60106
G1 X152.508 Y162.186 E3.60429
G1 X151.789 Y162.458 E3.62904
G1 X151.688 Y162.488 E3.63243
G1 X150.927 Y162.655 E3.65751
G1 X150.823 Y162.67 E3.6609
G1 X150.052 Y162.725 E3.68578
G1 X149.949 Y162.725 E3.6891
G1 X149.19 Y162.672 E3.7136
G1 X149.086 Y162.657 E3.71698
G1 X148.313 Y162.488 E3.74245
G1 X148.211 Y162.458 E3.74588
G1 X147.492 Y162.186 E3.77063
G1 X147.401 Y162.144 E3.77385
G1 X146.717 Y161.771 E3.79894
G1 X146.628 Y161.714 E3.80234
G1 X146.009 Y161.247 E3.82731
G1 X145.93 Y161.178 E3.83068
G1 X145.387 Y160.63 E3.85552
G1 X145.32 Y160.552 E3.85883
G1 X144.857 Y159.928 E3.88385
G1 X144.801 Y159.839 E3.88723
G1 X144.434 Y159.157 E3.91217
G1 X144.391 Y159.062 E3.91552
G1 X144.125 Y158.334 E3.94048
G1 X144.096 Y158.233 E3.94386
G1 X143.938 Y157.475 E3.96879
G1 X143.925 Y157.374 E3.97207
G1 X143.874 Y156.587 E3.99746
G1 X143.881 Y156.423 E4.00275
G1 X144.99 Y149.62 E4.22467
G1 X142.485 Y141.729 E4.49122
G1 X142.419 Y141.445 E4.5006
G1 X142.402 Y141.319 E4.5047
G1 X142.391 Y141.079 E4.51243
G1 X142.396 Y140.954 E4.51646
G1 X142.427 Y140.71 E4.52438
G1 X142.452 Y140.593 E4.52823
G1 X142.521 Y140.364 E4.53593
G1 X142.571 Y140.239 E4.54027
G1 X142.686 Y140.017 E4.54831
G1 X142.756 Y139.907 E4.55251
G1 X142.905 Y139.714 E4.56036
G1 X142.989 Y139.623 E4.56435
M204 S1000
G0 F6000 X143.288 Y140.01
M204 S750
G1 F3000 X143.531 Y139.787 E4.57497
G1 X143.737 Y139.655 E4.58285
G1 X144.001 Y139.542 E4.59209
G1 X149.277 Y137.867 E4.77031
G1 X149.643 Y137.783 E4.7824
G1 X150.018 Y137.758 E4.7945
G1 X150.357 Y137.783 E4.80545
G1 X150.723 Y137.867 E4.81754
G1 X155.999 Y139.542 E4.99576
G1 X156.263 Y139.655 E5.005
G1 X156.469 Y139.787 E5.01288
G1 X156.712 Y140.01 E5.0235
G1 X156.859 Y140.201 E5.03126
G1 X156.996 Y140.458 E5.04063
G1 X157.084 Y140.728 E5.04978
G1 X157.126 Y141.057 E5.06045
G1 X157.115 Y141.297 E5.06819
G1 X157.054 Y141.582 E5.07757
G1 X154.548 Y149.479 E5.34432
G1 X154.522 Y149.643 E5.34966
G1 X155.645 Y156.526 E5.5742
G1 X155.588 Y157.376 E5.60163
G1 X155.43 Y158.134 E5.62656
G1 X155.14 Y158.928 E5.65377
G1 X154.773 Y159.61 E5.67871
G1 X154.269 Y160.289 E5.70593
G1 X153.7 Y160.86 E5.73188
G1 X153.081 Y161.327 E5.75685
G1 X152.337 Y161.733 E5.78414
G1 X151.618 Y162.005 E5.80889
G1 X150.823 Y162.182 E5.83511
G1 X149.983 Y162.242 E5.86222
G1 X149.189 Y162.184 E5.88785
G1 X148.382 Y162.005 E5.91447
G1 X147.663 Y161.733 E5.93922
G1 X146.919 Y161.327 E5.96651
G1 X146.3 Y160.86 E5.99147
G1 X145.731 Y160.289 E6.01742
G1 X145.227 Y159.61 E6.04465
G1 X144.86 Y158.928 E6.06958
G1 X144.57 Y158.134 E6.0968
G1 X144.412 Y157.376 E6.12173
G1 X144.355 Y156.526 E6.14916
G1 X145.478 Y149.638 E6.37385
G1 X145.451 Y149.473 E6.37923
G1 X142.946 Y141.582 E6.64578
G1 X142.885 Y141.297 E6.65517
G1 X142.874 Y141.057 E6.6629
G1 X142.915 Y140.732 E6.67345
G1 X142.984 Y140.503 E6.68115
G1 X143.139 Y140.203 E6.69202
G1 X143.288 Y140.01 E6.69987
M204 S1000
G1 F3600 E4.69987
;MESH:Servo Arm (01???11???22).STL
G0 F6000 X144.101 Y140.727
G0 X144.781 Y141.239
M204 S750
;TYPE:WALL-INNER
G1 F3600 E6.69987
G1 F3000 X147.227 Y148.945 E6.96017
G1 X147.307 Y149.278 E6.9712
G1 X147.329 Y149.624 E6.98236
G1 X147.313 Y149.879 E6.99058
G1 X146.217 Y156.612 E7.21021
G1 X146.249 Y157.11 E7.22628
G1 X146.361 Y157.641 E7.24375
G1 X146.548 Y158.157 E7.26142
G1 X146.805 Y158.632 E7.27881
G1 X147.121 Y159.06 E7.29594
G1 X147.513 Y159.454 E7.31383
G1 X147.941 Y159.776 E7.33107
G1 X148.424 Y160.04 E7.3488
G1 X148.928 Y160.23 E7.36614
G1 X149.47 Y160.348 E7.384
G1 X149.998 Y160.386 E7.40104
G1 X150.538 Y160.347 E7.41847
G1 X151.074 Y160.229 E7.43614
G1 X151.578 Y160.04 E7.45347
G1 X152.059 Y159.776 E7.47114
G1 X152.487 Y159.454 E7.48838
G1 X152.878 Y159.059 E7.50628
G1 X153.195 Y158.633 E7.52337
G1 X153.451 Y158.156 E7.5408
G1 X153.639 Y157.641 E7.55845
G1 X153.75 Y157.11 E7.57592
G1 X153.783 Y156.612 E7.59199
G1 X152.697 Y149.968 E7.80873
G1 X152.671 Y149.627 E7.81974
G1 X152.694 Y149.281 E7.83091
G1 X152.751 Y149.025 E7.83935
G1 X155.218 Y141.24 E8.10228
G1 X150.221 Y139.652 E8.27109
G1 X150.09 Y139.622 E8.27542
G1 X149.91 Y139.622 E8.28121
G1 X149.779 Y139.652 E8.28554
G1 X144.781 Y141.239 E8.45437
M204 S1000
G0 F6000 X152.315 Y155.759
G0 X152.463 Y156.6
G0 X152.344 Y157.28
G0 X151.84 Y158.726
M204 S750
G1 F3000 X151.759 Y158.796 E8.45782
G1 X151.387 Y159.048 E8.47229
G1 X150.975 Y159.239 E8.48691
G1 X150.54 Y159.358 E8.50143
G1 X150.414 Y159.378 E8.50553
G1 X150.089 Y159.407 E8.51604
G1 X149.913 Y159.407 E8.52171
G1 X149.591 Y159.379 E8.53211
G1 X149.463 Y159.358 E8.53629
G1 X149.139 Y159.273 E8.54707
G1 X148.944 Y159.203 E8.55374
G1 X148.614 Y159.048 E8.56548
G1 X148.242 Y158.794 E8.57998
G1 X148.16 Y158.726 E8.58341
G1 X147.858 Y158.423 E8.59719
G1 X147.619 Y158.093 E8.6103
G1 X147.548 Y157.978 E8.61466
G1 X147.36 Y157.565 E8.62927
G1 X147.24 Y157.127 E8.64389
G1 X147.219 Y156.984 E8.64854
G1 X147.193 Y156.681 E8.65833
G1 X147.195 Y156.496 E8.66429
G1 X147.23 Y156.125 E8.67629
G1 X147.327 Y155.739 E8.6891
G1 X147.397 Y155.544 E8.69577
G1 X147.514 Y155.29 E8.70477
G1 X147.624 Y155.1 E8.71184
G1 X147.782 Y154.874 E8.72072
G1 X147.917 Y154.715 E8.72744
G1 X148.115 Y154.517 E8.73645
G1 X148.274 Y154.383 E8.74315
G1 X148.5 Y154.224 E8.75204
G1 X148.69 Y154.115 E8.7591
G1 X148.944 Y153.997 E8.76811
G1 X149.139 Y153.927 E8.77478
G1 X149.409 Y153.855 E8.78378
G1 X149.617 Y153.819 E8.79058
G1 X150 Y153.79 E8.80294
G1 X150.383 Y153.819 E8.81531
G1 X150.591 Y153.855 E8.8221
G1 X150.861 Y153.928 E8.83111
G1 X151.056 Y153.997 E8.83777
G1 X151.31 Y154.115 E8.84679
G1 X151.499 Y154.224 E8.85381
G1 X151.725 Y154.383 E8.86271
G1 X151.885 Y154.517 E8.86943
G1 X152.084 Y154.714 E8.87844
G1 X152.217 Y154.874 E8.88514
G1 X152.376 Y155.1 E8.89404
G1 X152.486 Y155.29 E8.90111
G1 X152.602 Y155.545 E8.91013
G1 X152.673 Y155.739 E8.91678
G1 X152.77 Y156.124 E8.92956
G1 X152.806 Y156.496 E8.94159
G1 X152.809 Y156.681 E8.94755
G1 X152.781 Y156.997 E8.95776
G1 X152.762 Y157.127 E8.96199
G1 X152.643 Y157.566 E8.97664
G1 X152.455 Y157.978 E8.99122
G1 X152.173 Y158.393 E9.00737
G1 X151.84 Y158.726 E9.02253
M204 S1000
G0 F6000 X150.426 Y159.026
G0 X149.574 Y159.026
G0 X148.768 Y158.733
G0 X148.239 Y158.288
G0 X147.637 Y157.481
G0 X147.815 Y157.399
M204 S750
G1 F3000 X147.714 Y157.028 E9.03491
G1 X147.676 Y156.649 E9.04718
G1 X147.677 Y156.537 E9.05078
G1 X147.708 Y156.203 E9.06158
G1 X147.795 Y155.864 E9.07285
G1 X147.837 Y155.747 E9.07685
G1 X147.954 Y155.493 E9.08586
G1 X148.02 Y155.378 E9.09012
G1 X148.178 Y155.153 E9.09898
G1 X148.259 Y155.057 E9.10302
G1 X148.457 Y154.859 E9.11204
G1 X148.553 Y154.779 E9.11606
G1 X148.779 Y154.62 E9.12496
G1 X148.893 Y154.554 E9.1292
G1 X149.147 Y154.437 E9.1382
G1 X149.263 Y154.395 E9.14217
G1 X149.533 Y154.323 E9.15117
G1 X149.658 Y154.301 E9.15525
G1 X150 Y154.274 E9.1663
G1 X150.342 Y154.301 E9.17735
G1 X150.467 Y154.323 E9.18143
G1 X150.737 Y154.395 E9.19043
G1 X150.853 Y154.437 E9.1944
G1 X151.107 Y154.554 E9.2034
G1 X151.221 Y154.62 E9.20765
G1 X151.447 Y154.779 E9.21654
G1 X151.543 Y154.859 E9.22056
G1 X151.741 Y155.057 E9.22958
G1 X151.821 Y155.153 E9.2336
G1 X151.98 Y155.379 E9.2425
G1 X152.046 Y155.493 E9.24674
G1 X152.163 Y155.747 E9.25574
G1 X152.205 Y155.864 E9.25975
G1 X152.292 Y156.203 E9.27102
G1 X152.323 Y156.537 E9.28181
G1 X152.324 Y156.663 E9.28587
G1 X152.287 Y157.028 E9.29768
G1 X152.187 Y157.399 E9.31005
G1 X152.027 Y157.748 E9.32242
G1 X151.812 Y158.063 E9.33469
G1 X151.495 Y158.389 E9.34933
G1 X151.154 Y158.624 E9.36267
G1 X150.805 Y158.785 E9.37504
G1 X150.436 Y158.885 E9.38735
G1 X150.054 Y158.924 E9.39971
G1 X149.937 Y158.923 E9.40348
G1 X149.6 Y158.894 E9.41437
G1 X149.195 Y158.783 E9.42789
G1 X148.847 Y158.623 E9.44022
G1 X148.484 Y158.367 E9.45452
G1 X148.224 Y158.106 E9.46638
G1 X147.974 Y157.748 E9.48044
G1 X147.815 Y157.399 E9.49279
M204 S1000
G0 F6000 X147.637 Y157.481
G0 X146.901 Y149.082
G0 X144.44 Y141.083
G0 X144.238 Y141.042
M204 S750
G1 F3000 X144.261 Y141.197 E9.49783
G1 X146.778 Y149.135 E9.76595
G1 X146.828 Y149.35 E9.77305
G1 X146.844 Y149.571 E9.78019
G1 X146.831 Y149.837 E9.78876
G1 X145.73 Y156.589 E10.00902
G1 X145.768 Y157.176 E10.02796
G1 X145.894 Y157.775 E10.04766
G1 X146.105 Y158.356 E10.06756
G1 X146.395 Y158.893 E10.08721
G1 X146.753 Y159.376 E10.10657
G1 X147.194 Y159.82 E10.12672
G1 X147.678 Y160.184 E10.14622
G1 X148.221 Y160.482 E10.16616
G1 X148.79 Y160.696 E10.18573
G1 X149.401 Y160.829 E10.20586
G1 X149.998 Y160.871 E10.22513
G1 X150.608 Y160.827 E10.24482
G1 X151.212 Y160.694 E10.26473
G1 X151.78 Y160.482 E10.28425
G1 X152.322 Y160.184 E10.30417
G1 X152.806 Y159.82 E10.32366
G1 X153.246 Y159.376 E10.34379
G1 X153.605 Y158.893 E10.36317
G1 X153.894 Y158.355 E10.38283
G1 X154.106 Y157.775 E10.40271
G1 X154.231 Y157.176 E10.42241
G1 X154.27 Y156.589 E10.44135
G1 X153.175 Y149.89 E10.65989
G1 X153.156 Y149.674 E10.66687
G1 X153.156 Y149.573 E10.67013
G1 X153.173 Y149.354 E10.6772
G1 X153.236 Y149.089 E10.68597
G1 X155.739 Y141.191 E10.95271
G1 X155.752 Y141.115 E10.9552
G1 X155.748 Y141.041 E10.95758
G1 X155.681 Y140.916 E10.96215
G1 X155.601 Y140.854 E10.96541
G1 X150.349 Y139.185 E11.14283
G1 X150.164 Y139.142 E11.14895
G1 X150 Y139.129 E11.15424
G1 X149.836 Y139.142 E11.15954
G1 X149.651 Y139.185 E11.16566
G1 X144.399 Y140.854 E11.34308
G1 X144.32 Y140.916 E11.34631
G1 X144.238 Y141.042 E11.35115
M204 S1000
G1 F3600 E9.35115
G0 F6000 X144.44 Y141.083
G0 X155.549 Y141.059
G1 F3600 E11.35115
G0 F6000 X156.126 Y140.701
M204 S750
;TYPE:WALL-OUTER
G1 F3000 X156.039 Y140.588 E11.35575
G1 X155.944 Y140.501 E11.35989
G1 X155.839 Y140.433 E11.36392
G1 X155.708 Y140.379 E11.36848
G1 X150.477 Y138.717 E11.54519
G1 X150.238 Y138.662 E11.55309
G1 X150 Y138.643 E11.56078
G1 X149.762 Y138.662 E11.56846
G1 X149.523 Y138.717 E11.57636
G1 X144.292 Y140.379 E11.75307
G1 X144.161 Y140.433 E11.75764
G1 X144.056 Y140.501 E11.76166
G1 X143.961 Y140.588 E11.76581
G1 X143.874 Y140.701 E11.7704
G1 X143.814 Y140.816 E11.77458
G1 X143.779 Y140.93 E11.77842
G1 X143.76 Y141.077 E11.78319
G1 X143.767 Y141.2 E11.78716
G1 X143.797 Y141.336 E11.79164
G1 X146.308 Y149.251 E12.05899
G1 X146.349 Y149.422 E12.06465
G1 X146.361 Y149.636 E12.07155
G1 X146.349 Y149.795 E12.07668
G1 X145.243 Y156.565 E12.29754
G1 X145.288 Y157.242 E12.31938
G1 X145.427 Y157.908 E12.34129
G1 X145.663 Y158.554 E12.36343
