;FLAVOR:Marlin
;TIME:310
;Filament used: 0.00669987m, 0.266361m
;Layer height: 0.2
;MINX:140.94
;MINY:135.827
;MINZ:0.16
;MAXX:159.06
;MAXY:164.174
;MAXZ:4.96
;Generated with Cura_SteamEngine 5.2.1
T1
M140 S60
M104 S220
M104 T0 S190
M82 ;absolute extrusion mode
;----------Proforge 3.5 Start G-code---------- 
G92 E0 ;Zero Extruder 
M82 ;absolute extrusion mode 
M190 S60 ;wait for bed temp 
M109 S220 ; wait for nozzle temp
; M109 T1 S220 ; wait for nozzle temp
G28 ;Home 
Z_TILT_ADJUST
G28 ; ReHome
BED_MESH_PROFILE LOAD=mesh_60c ; Load bed Mesh.
G0 F8000 X150 Y10 Z0.4;Move hotend to bottom center
G1 F1500 X290 E20 ;Prime Nozzle 1 
G1 Y15 E18 ; Retract filament
; T0 ; 
; ----------Proforge 3.5 Start G-code----------
G92 E0
G1 F3600 E-2
;LAYER_COUNT:25
;LAYER:0
M107
M104 T1 S235
M204 S1000
G0 F6000 X142.662 Y139.266 Z0.16
M204 S750
;TYPE:SKIRT
G1 F3600 E0
G1 F3000 X142.844 Y139.099 E0.00795
G1 X143.009 Y138.972 E0.01466
G1 X143.215 Y138.84 E0.02253
G1 X143.402 Y138.742 E0.02933
G1 X143.708 Y138.62 E0.03994
G1 X148.984 Y136.945 E0.21816
G1 X149.381 Y136.847 E0.23132
G1 X149.572 Y136.817 E0.23755
G1 X149.911 Y136.792 E0.24849
G1 X150.089 Y136.792 E0.25422
G1 X150.428 Y136.817 E0.26517
G1 X150.619 Y136.847 E0.27139
G1 X151.016 Y136.945 E0.28456
G1 X156.292 Y138.62 E0.46278
G1 X156.598 Y138.742 E0.47338
G1 X156.785 Y138.84 E0.48018
G1 X156.991 Y138.972 E0.48806
G1 X157.156 Y139.099 E0.49476
G1 X157.338 Y139.266 E0.50271
G1 X157.479 Y139.42 E0.50944
G1 X157.626 Y139.611 E0.5172
G1 X157.741 Y139.792 E0.5241
G1 X157.855 Y140.012 E0.53208
G1 X157.936 Y140.209 E0.53893
G1 X158.008 Y140.44 E0.54672
G1 X158.054 Y140.649 E0.55361
G1 X158.085 Y140.895 E0.5616
G1 X158.093 Y141.101 E0.56823
G1 X158.082 Y141.341 E0.57597
G1 X158.054 Y141.551 E0.58279
G1 X157.976 Y141.875 E0.59352
G1 X155.505 Y149.66 E0.85649
G1 X156.596 Y156.345 E1.07456
G1 X156.609 Y156.618 E1.08336
G1 X156.558 Y157.405 E1.10875
G1 X156.536 Y157.574 E1.11424
G1 X156.378 Y158.332 E1.13917
G1 X156.33 Y158.5 E1.1448
G1 X156.064 Y159.228 E1.16975
G1 X155.993 Y159.386 E1.17533
G1 X155.626 Y160.068 E1.20026
G1 X155.532 Y160.216 E1.20591
G1 X155.069 Y160.84 E1.23092
G1 X154.957 Y160.971 E1.23647
G1 X154.414 Y161.519 E1.26131
G1 X154.283 Y161.633 E1.2669
G1 X153.664 Y162.1 E1.29187
G1 X153.514 Y162.196 E1.2976
G1 X152.83 Y162.569 E1.32268
G1 X152.679 Y162.639 E1.32804
G1 X151.96 Y162.911 E1.35279
G1 X151.791 Y162.961 E1.35847
G1 X151.03 Y163.128 E1.38355
G1 X150.857 Y163.153 E1.38918
G1 X150.086 Y163.208 E1.41406
G1 X149.916 Y163.208 E1.41954
G1 X149.157 Y163.155 E1.44403
G1 X148.983 Y163.13 E1.44969
G1 X148.21 Y162.961 E1.47517
G1 X148.04 Y162.911 E1.48087
G1 X147.321 Y162.639 E1.50562
G1 X147.17 Y162.569 E1.51098
G1 X146.486 Y162.196 E1.53606
G1 X146.336 Y162.1 E1.5418
G1 X145.717 Y161.633 E1.56676
G1 X145.586 Y161.519 E1.57235
G1 X145.043 Y160.971 E1.59719
G1 X144.931 Y160.84 E1.60274
G1 X144.468 Y160.216 E1.62776
G1 X144.374 Y160.068 E1.6334
G1 X144.007 Y159.386 E1.65834
G1 X143.936 Y159.228 E1.66391
G1 X143.67 Y158.5 E1.68887
G1 X143.622 Y158.332 E1.69449
G1 X143.464 Y157.574 E1.71942
G1 X143.442 Y157.405 E1.72491
G1 X143.391 Y156.618 E1.7503
G1 X143.404 Y156.345 E1.7591
G1 X144.494 Y149.657 E1.97727
G1 X142.024 Y141.875 E2.24013
G1 X141.946 Y141.551 E2.25086
G1 X141.918 Y141.341 E2.25768
G1 X141.907 Y141.101 E2.26542
G1 X141.916 Y140.893 E2.27212
G1 X141.947 Y140.649 E2.28004
G1 X141.988 Y140.453 E2.28649
G1 X142.057 Y140.224 E2.29419
G1 X142.142 Y140.016 E2.30142
G1 X142.257 Y139.794 E2.30947
G1 X142.373 Y139.612 E2.31642
G1 X142.522 Y139.419 E2.32427
G1 X142.662 Y139.266 E2.33095
M204 S1000
G0 F6000 X142.989 Y139.623
M104 S200
M204 S750
G1 F3000 X143.171 Y139.456 E2.3389
G1 X143.27 Y139.38 E2.34292
G1 X143.476 Y139.248 E2.35079
G1 X143.588 Y139.189 E2.35487
G1 X143.854 Y139.081 E2.36411
G1 X149.13 Y137.406 E2.54233
G1 X149.493 Y137.318 E2.55436
G1 X149.608 Y137.3 E2.55811
G1 X149.947 Y137.275 E2.56905
G1 X150.053 Y137.275 E2.57246
G1 X150.392 Y137.3 E2.58341
G1 X150.507 Y137.318 E2.58716
G1 X150.87 Y137.406 E2.59918
G1 X156.146 Y139.081 E2.7774
G1 X156.412 Y139.189 E2.78664
G1 X156.524 Y139.248 E2.79072
G1 X156.73 Y139.38 E2.7986
G1 X156.829 Y139.456 E2.80261
G1 X157.011 Y139.623 E2.81057
G1 X157.095 Y139.715 E2.81458
G1 X157.242 Y139.906 E2.82234
G1 X157.312 Y140.015 E2.82651
G1 X157.426 Y140.235 E2.83449
G1 X157.474 Y140.353 E2.83859
G1 X157.546 Y140.584 E2.84638
G1 X157.573 Y140.709 E2.8505
G1 X157.604 Y140.955 E2.85848
G1 X157.609 Y141.079 E2.86247
G1 X157.598 Y141.319 E2.87021
G1 X157.581 Y141.445 E2.8743
G1 X157.515 Y141.729 E2.88369
G1 X155.009 Y149.624 E3.15037
G1 X156.119 Y156.423 E3.37217
G1 X156.126 Y156.587 E3.37746
G1 X156.075 Y157.374 E3.40285
G1 X156.062 Y157.475 E3.40613
G1 X155.904 Y158.233 E3.43105
G1 X155.875 Y158.334 E3.43444
G1 X155.609 Y159.062 E3.45939
G1 X155.566 Y159.157 E3.46275
G1 X155.199 Y159.839 E3.48768
G1 X155.143 Y159.928 E3.49107
G1 X154.68 Y160.552 E3.51609
G1 X154.613 Y160.63 E3.5194
G1 X154.07 Y161.178 E3.54423
G1 X153.991 Y161.247 E3.54761
G1 X153.372 Y161.714 E3.57258
G1 X153.283 Y161.771 E3.57598
G1 X152.599 Y162.144 E3.60106
G1 X152.508 Y162.186 E3.60429
G1 X151.789 Y162.458 E3.62904
G1 X151.688 Y162.488 E3.63243
G1 X150.927 Y162.655 E3.65751
G1 X150.823 Y162.67 E3.6609
G1 X150.052 Y162.725 E3.68578
G1 X149.949 Y162.725 E3.6891
G1 X149.19 Y162.672 E3.7136
G1 X149.086 Y162.657 E3.71698
G1 X148.313 Y162.488 E3.74245
G1 X148.211 Y162.458 E3.74588
G1 X147.492 Y162.186 E3.77063
G1 X147.401 Y162.144 E3.77385
G1 X146.717 Y161.771 E3.79894
G1 X146.628 Y161.714 E3.80234
G1 X146.009 Y161.247 E3.82731
G1 X145.93 Y161.178 E3.83068
G1 X145.387 Y160.63 E3.85552
G1 X145.32 Y160.552 E3.85883
G1 X144.857 Y159.928 E3.88385
G1 X144.801 Y159.839 E3.88723
G1 X144.434 Y159.157 E3.91217
G1 X144.391 Y159.062 E3.91552
G1 X144.125 Y158.334 E3.94048
G1 X144.096 Y158.233 E3.94386
G1 X143.938 Y157.475 E3.96879
G1 X143.925 Y157.374 E3.97207
G1 X143.874 Y156.587 E3.99746
G1 X143.881 Y156.423 E4.00275
G1 X144.99 Y149.62 E4.22467
G1 X142.485 Y141.729 E4.49122
G1 X142.419 Y141.445 E4.5006
G1 X142.402 Y141.319 E4.5047
G1 X142.391 Y141.079 E4.51243
G1 X142.396 Y140.954 E4.51646
G1 X142.427 Y140.71 E4.52438
G1 X142.452 Y140.593 E4.52823
G1 X142.521 Y140.364 E4.53593
G1 X142.571 Y140.239 E4.54027
G1 X142.686 Y140.017 E4.54831
G1 X142.756 Y139.907 E4.55251
G1 X142.905 Y139.714 E4.56036
G1 X142.989 Y139.623 E4.56435
M204 S1000
G0 F6000 X143.288 Y140.01
M204 S750
G1 F3000 X143.531 Y139.787 E4.57497
G1 X143.737 Y139.655 E4.58285
G1 X144.001 Y139.542 E4.59209
G1 X149.277 Y137.867 E4.77031
G1 X149.643 Y137.783 E4.7824
G1 X150.018 Y137.758 E4.7945
G1 X150.357 Y137.783 E4.80545
G1 X150.723 Y137.867 E4.81754
G1 X155.999 Y139.542 E4.99576
G1 X156.263 Y139.655 E5.005
G1 X156.469 Y139.787 E5.01288
G1 X156.712 Y140.01 E5.0235
G1 X156.859 Y140.201 E5.03126
G1 X156.996 Y140.458 E5.04063
G1 X157.084 Y140.728 E5.04978
G1 X157.126 Y141.057 E5.06045
G1 X157.115 Y141.297 E5.06819
G1 X157.054 Y141.582 E5.07757
G1 X154.548 Y149.479 E5.34432
G1 X154.522 Y149.643 E5.34966
G1 X155.645 Y156.526 E5.5742
G1 X155.588 Y157.376 E5.60163
G1 X155.43 Y158.134 E5.62656
G1 X155.14 Y158.928 E5.65377
G1 X154.773 Y159.61 E5.67871
G1 X154.269 Y160.289 E5.70593
G1 X153.7 Y160.86 E5.73188
G1 X153.081 Y161.327 E5.75685
G1 X152.337 Y161.733 E5.78414
G1 X151.618 Y162.005 E5.80889
G1 X150.823 Y162.182 E5.83511
G1 X149.983 Y162.242 E5.86222
G1 X149.189 Y162.184 E5.88785
G1 X148.382 Y162.005 E5.91447
G1 X147.663 Y161.733 E5.93922
G1 X146.919 Y161.327 E5.96651
G1 X146.3 Y160.86 E5.99147
G1 X145.731 Y160.289 E6.01742
G1 X145.227 Y159.61 E6.04465
G1 X144.86 Y158.928 E6.06958
G1 X144.57 Y158.134 E6.0968
G1 X144.412 Y157.376 E6.12173
G1 X144.355 Y156.526 E6.14916
G1 X145.478 Y149.638 E6.37385
G1 X145.451 Y149.473 E6.37923
G1 X142.946 Y141.582 E6.64578
G1 X142.885 Y141.297 E6.65517
G1 X142.874 Y141.057 E6.6629
G1 X142.915 Y140.732 E6.67345
G1 X142.984 Y140.503 E6.68115
G1 X143.139 Y140.203 E6.69202
G1 X143.288 Y140.01 E6.69987
G1 F6000 E-5.30013
G1 F600 Z1.16
G92 E0
G0 F20000 X289.23199999999997 Y257.23199999999997
T1
G92 E0
M104 T1 S0
M105
M109 S235
G1 F3600 E-2
M204 S1000
;MESH:Servo Arm (01???11???22).STL
G0 F6000 X143.288 Y140.01 Z1.16
G0 X141.756 Y138.827
M204 S750
;TYPE:SKIRT
G1 F600 Z0.16
G1 F3600 E0
G1 F3000 X142.007 Y138.553 E0.01196
G1 X142.189 Y138.386 E0.01992
G1 X142.487 Y138.157 E0.03202
G1 X142.693 Y138.025 E0.03989
G1 X143.029 Y137.849 E0.05211
G1 X143.415 Y137.697 E0.06546
G1 X148.691 Y136.022 E0.24368
G1 X149.157 Y135.905 E0.25915
G1 X149.501 Y135.852 E0.27036
G1 X149.84 Y135.827 E0.2813
G1 X150.16 Y135.827 E0.2916
G1 X150.499 Y135.852 E0.30255
G1 X150.843 Y135.905 E0.31375
G1 X151.309 Y136.022 E0.32922
G1 X156.585 Y137.697 E0.50744
G1 X156.971 Y137.849 E0.5208
G1 X157.307 Y138.025 E0.53301
G1 X157.513 Y138.157 E0.54089
G1 X157.811 Y138.386 E0.55299
G1 X157.993 Y138.553 E0.56094
G1 X158.246 Y138.83 E0.57302
G1 X158.393 Y139.021 E0.58078
G1 X158.601 Y139.347 E0.59323
G1 X158.715 Y139.567 E0.60121
G1 X158.86 Y139.921 E0.61352
G1 X158.932 Y140.152 E0.62131
G1 X159.014 Y140.528 E0.6337
G1 X159.045 Y140.774 E0.64169
G1 X159.06 Y141.146 E0.65367
G1 X159.049 Y141.386 E0.66141
G1 X158.998 Y141.763 E0.67366
G1 X158.899 Y142.168 E0.68708
G1 X156.499 Y149.732 E0.94257
G1 X157.552 Y156.189 E1.15321
G1 X157.575 Y156.681 E1.16907
G1 X157.524 Y157.468 E1.19446
G1 X157.483 Y157.771 E1.2043
G1 X157.325 Y158.529 E1.22923
G1 X157.239 Y158.832 E1.23937
G1 X156.973 Y159.56 E1.26432
G1 X156.845 Y159.845 E1.27438
G1 X156.478 Y160.527 E1.29932
G1 X156.309 Y160.793 E1.30946
G1 X155.846 Y161.417 E1.33448
G1 X155.644 Y161.652 E1.34446
G1 X155.101 Y162.2 E1.3693
G1 X154.866 Y162.406 E1.37936
G1 X154.247 Y162.873 E1.40432
G1 X153.978 Y163.046 E1.41462
G1 X153.294 Y163.419 E1.4397
G1 X153.022 Y163.544 E1.44934
G1 X152.303 Y163.816 E1.47409
G1 X151.999 Y163.906 E1.4843
G1 X151.238 Y164.073 E1.50938
G1 X150.926 Y164.118 E1.51953
G1 X150.155 Y164.173 E1.54442
G1 X149.848 Y164.174 E1.5543
G1 X149.089 Y164.121 E1.5788
G1 X148.776 Y164.076 E1.58898
G1 X148.003 Y163.907 E1.61445
G1 X147.697 Y163.816 E1.62473
G1 X146.978 Y163.544 E1.64948
G1 X146.706 Y163.419 E1.65912
G1 X146.022 Y163.046 E1.6842
G1 X145.753 Y162.873 E1.6945
G1 X145.134 Y162.406 E1.71946
G1 X144.899 Y162.2 E1.72953
G1 X144.356 Y161.652 E1.75436
G1 X144.154 Y161.417 E1.76434
G1 X143.691 Y160.793 E1.78936
G1 X143.522 Y160.527 E1.7995
G1 X143.155 Y159.845 E1.82444
G1 X143.027 Y159.56 E1.8345
G1 X142.761 Y158.832 E1.85945
G1 X142.675 Y158.529 E1.86959
G1 X142.517 Y157.771 E1.89452
G1 X142.476 Y157.468 E1.90437
G1 X142.425 Y156.681 E1.92976
G1 X142.448 Y156.19 E1.94558
G1 X143.501 Y149.729 E2.15634
G1 X141.101 Y142.168 E2.41175
G1 X141.002 Y141.763 E2.42517
G1 X140.951 Y141.386 E2.43742
G1 X140.94 Y141.146 E2.44515
G1 X140.955 Y140.771 E2.45724
G1 X140.986 Y140.527 E2.46515
G1 X141.062 Y140.174 E2.47678
G1 X141.131 Y139.945 E2.48448
G1 X141.282 Y139.571 E2.49747
G1 X141.397 Y139.349 E2.50551
G1 X141.607 Y139.02 E2.51808
G1 X141.756 Y138.827 E2.52593
M204 S1000
G0 F6000 X142.139 Y139.123
M204 S750
G1 F3000 X142.335 Y138.91 E2.53525
G1 X142.517 Y138.743 E2.5432
G1 X142.748 Y138.565 E2.55259
G1 X142.954 Y138.433 E2.56047
G1 X143.215 Y138.296 E2.56996
G1 X143.561 Y138.158 E2.58195
G1 X148.837 Y136.483 E2.76017
G1 X149.269 Y136.376 E2.7745
G1 X149.536 Y136.335 E2.7832
G1 X149.875 Y136.31 E2.79414
G1 X150.125 Y136.31 E2.80219
G1 X150.464 Y136.335 E2.81314
G1 X150.731 Y136.376 E2.82183
G1 X151.163 Y136.483 E2.83616
G1 X156.439 Y138.158 E3.01438
G1 X156.785 Y138.296 E3.02638
G1 X157.046 Y138.433 E3.03587
G1 X157.252 Y138.565 E3.04374
G1 X157.483 Y138.743 E3.05313
G1 X157.665 Y138.91 E3.06108
G1 X157.862 Y139.125 E3.07047
G1 X158.009 Y139.316 E3.07823
G1 X158.171 Y139.57 E3.08793
G1 X158.285 Y139.79 E3.09591
G1 X158.398 Y140.065 E3.10548
G1 X158.47 Y140.296 E3.11327
G1 X158.534 Y140.588 E3.1229
G1 X158.565 Y140.834 E3.13088
G1 X158.576 Y141.124 E3.14022
G1 X158.565 Y141.364 E3.14796
G1 X158.526 Y141.657 E3.15747
G1 X158.438 Y142.021 E3.16953
G1 X156.002 Y149.697 E3.42881
G1 X157.074 Y156.267 E3.64314
G1 X157.092 Y156.65 E3.65548
G1 X157.041 Y157.437 E3.68087
G1 X157.009 Y157.673 E3.68854
G1 X156.851 Y158.431 E3.71347
G1 X156.784 Y158.666 E3.72134
G1 X156.518 Y159.394 E3.74629
G1 X156.419 Y159.616 E3.75412
G1 X156.052 Y160.298 E3.77905
G1 X155.92 Y160.504 E3.78693
G1 X155.457 Y161.128 E3.81194
G1 X155.3 Y161.311 E3.81971
G1 X154.757 Y161.859 E3.84455
G1 X154.574 Y162.019 E3.85237
G1 X153.955 Y162.486 E3.87734
G1 X153.746 Y162.621 E3.88535
G1 X153.062 Y162.994 E3.91043
G1 X152.85 Y163.091 E3.91794
G1 X152.131 Y163.363 E3.94269
G1 X151.895 Y163.434 E3.95062
G1 X151.134 Y163.601 E3.97571
G1 X150.892 Y163.636 E3.98358
G1 X150.121 Y163.691 E4.00846
G1 X149.882 Y163.691 E4.01616
G1 X149.123 Y163.638 E4.04065
G1 X148.879 Y163.603 E4.04859
G1 X148.106 Y163.434 E4.07407
G1 X147.869 Y163.363 E4.08203
G1 X147.15 Y163.091 E4.10678
G1 X146.938 Y162.994 E4.11429
G1 X146.254 Y162.621 E4.13937
G1 X146.045 Y162.486 E4.14738
G1 X145.426 Y162.019 E4.17235
G1 X145.243 Y161.859 E4.18017
G1 X144.7 Y161.311 E4.20501
G1 X144.543 Y161.128 E4.21277
G1 X144.08 Y160.504 E4.23779
G1 X143.948 Y160.298 E4.24567
G1 X143.581 Y159.616 E4.2706
G1 X143.482 Y159.394 E4.27843
G1 X143.216 Y158.666 E4.30338
G1 X143.149 Y158.431 E4.31125
G1 X142.991 Y157.673 E4.33618
G1 X142.959 Y157.437 E4.34385
G1 X142.908 Y156.65 E4.36924
G1 X142.926 Y156.267 E4.38158
G1 X143.997 Y149.694 E4.596
G1 X141.562 Y142.022 E4.85514
G1 X141.474 Y141.657 E4.86723
G1 X141.435 Y141.364 E4.87675
G1 X141.424 Y141.124 E4.88448
G1 X141.436 Y140.832 E4.89389
G1 X141.467 Y140.588 E4.90181
G1 X141.525 Y140.313 E4.91086
G1 X141.594 Y140.084 E4.91856
G1 X141.712 Y139.794 E4.92864
G1 X141.827 Y139.572 E4.93669
G1 X141.99 Y139.316 E4.94646
G1 X142.139 Y139.123 E4.95431
M204 S1000
G1 F3600 E2.95431
G0 F6000 X144.101 Y140.727
G0 X144.781 Y141.239
M204 S750
;TYPE:WALL-INNER
G1 F3600 E4.95431
G1 F3000 X147.227 Y148.945 E5.21461
G1 X147.307 Y149.278 E5.22564
G1 X147.329 Y149.624 E5.2368
G1 X147.313 Y149.879 E5.24503
G1 X146.217 Y156.612 E5.46465
G1 X146.249 Y157.11 E5.48072
G1 X146.361 Y157.641 E5.49819
G1 X146.548 Y158.157 E5.51586
G1 X146.805 Y158.632 E5.53325
G1 X147.121 Y159.06 E5.55038
G1 X147.513 Y159.454 E5.56827
G1 X147.941 Y159.776 E5.58552
G1 X148.424 Y160.04 E5.60324
G1 X148.928 Y160.23 E5.62058
G1 X149.47 Y160.348 E5.63844
G1 X149.998 Y160.386 E5.65548
G1 X150.538 Y160.347 E5.67291
G1 X151.074 Y160.229 E5.69058
G1 X151.578 Y160.04 E5.70791
G1 X152.059 Y159.776 E5.72558
G1 X152.487 Y159.454 E5.74282
G1 X152.878 Y159.059 E5.76072
G1 X153.195 Y158.633 E5.77781
G1 X153.451 Y158.156 E5.79524
G1 X153.639 Y157.641 E5.81289
G1 X153.75 Y157.11 E5.83036
G1 X153.783 Y156.612 E5.84643
G1 X152.697 Y149.968 E6.06318
G1 X152.671 Y149.627 E6.07419
G1 X152.694 Y149.281 E6.08535
G1 X152.751 Y149.025 E6.0938
G1 X155.218 Y141.24 E6.35672
G1 X150.221 Y139.652 E6.52553
G1 X150.09 Y139.622 E6.52986
G1 X149.91 Y139.622 E6.53566
G1 X149.779 Y139.652 E6.53998
G1 X144.781 Y141.239 E6.70882
M204 S1000
G0 F6000 X152.315 Y155.759
G0 X152.463 Y156.6
G0 X152.344 Y157.28
G0 X151.84 Y158.726
M204 S750
G1 F3000 X151.759 Y158.796 E6.71226
G1 X151.387 Y159.048 E6.72673
G1 X150.975 Y159.239 E6.74135
G1 X150.54 Y159.358 E6.75587
G1 X150.414 Y159.378 E6.75998
G1 X150.089 Y159.407 E6.77048
G1 X149.913 Y159.407 E6.77615
G1 X149.591 Y159.379 E6.78655
G1 X149.463 Y159.358 E6.79073
G1 X149.139 Y159.273 E6.80152
G1 X148.944 Y159.203 E6.80819
G1 X148.614 Y159.048 E6.81992
G1 X148.242 Y158.794 E6.83443
G1 X148.16 Y158.726 E6.83786
G1 X147.858 Y158.423 E6.85163
G1 X147.619 Y158.093 E6.86475
G1 X147.548 Y157.978 E6.8691
G1 X147.36 Y157.565 E6.88371
G1 X147.24 Y157.127 E6.89833
G1 X147.219 Y156.984 E6.90298
G1 X147.193 Y156.681 E6.91277
G1 X147.195 Y156.496 E6.91873
G1 X147.23 Y156.125 E6.93073
G1 X147.327 Y155.739 E6.94354
G1 X147.397 Y155.544 E6.95021
G1 X147.514 Y155.29 E6.95922
G1 X147.624 Y155.1 E6.96629
G1 X147.782 Y154.874 E6.97516
G1 X147.917 Y154.715 E6.98188
