;FLAVOR:Marlin
;TIME:16
;Filament used: 0.0270731m, 0m
;Layer height: 0.2
;MINX:140.89
;MINY:140.89
;MINZ:0.2
;MAXX:159.11
;MAXY:159.11
;MAXZ:0.2
;Generated with Cura_SteamEngine 5.2.1
T0
G92 E0 ;Zero Extruder 
M104 S200
M82 ;absolute extrusion mode
;----------Proforge 3.5 Start G-code---------- 
M190 S60 ;wait for bed temp
M109 S200 ;Wait for Nozzle Temp
G28 ;Home
Z_TILT_ADJUST
G28 ;Re-Home 
BED_MESH_PROFILE LOAD=mesh_60c
G1 F8000 X150 Y25 ;Move hotend to center front 
G1 F3000 Z0.5 ;Set to purge height 
M82 ;absolute extrusion mode 
G1 F1500 X290 E20 ;Prime Hotend 
; ----------Proforge 3.5 Start G-code----------
G92 E0
G1 F2400 E-6
;LAYER_COUNT:1
;LAYER:0
M107
M204 S1000
G0 F4000 X141.233 Y141.256 Z0.2
M204 S750
;TYPE:SKIRT
G1 F2400 E0
G1 F4000 X141.476 Y141.063 E0.01249
G1 X141.761 Y140.939 E0.025
G1 X142.1 Y140.89 E0.03878
G1 X157.9 Y140.89 E0.67465
G1 X158.208 Y140.93 E0.68715
G1 X158.496 Y141.047 E0.69966
G1 X158.744 Y141.233 E0.71213
G1 X158.937 Y141.476 E0.72462
G1 X159.061 Y141.761 E0.73713
G1 X159.11 Y142.1 E0.75092
G1 X159.11 Y157.9 E1.38678
G1 X159.07 Y158.208 E1.39928
G1 X158.953 Y158.496 E1.41179
G1 X158.767 Y158.744 E1.42427
G1 X158.524 Y158.937 E1.43676
G1 X158.239 Y159.061 E1.44927
G1 X157.9 Y159.11 E1.46305
G1 X142.1 Y159.11 E2.09892
G1 X141.792 Y159.07 E2.11142
G1 X141.504 Y158.953 E2.12393
G1 X141.256 Y158.767 E2.1364
G1 X141.063 Y158.524 E2.14889
G1 X140.939 Y158.239 E2.1614
G1 X140.89 Y157.9 E2.17519
G1 X140.89 Y142.1 E2.81105
G1 X140.93 Y141.792 E2.82355
G1 X141.047 Y141.504 E2.83606
G1 X141.233 Y141.256 E2.84854
M204 S1000
G0 F10400 X141.529 Y141.652
M204 S750
G1 F4000 X141.706 Y141.49 E2.8582
G1 X141.926 Y141.395 E2.86784
G1 X142.1 Y141.374 E2.87489
G1 X157.9 Y141.374 E3.51076
G1 X158.137 Y141.414 E3.52043
G1 X158.348 Y141.529 E3.5301
G1 X158.51 Y141.706 E3.53976
G1 X158.605 Y141.926 E3.54941
G1 X158.626 Y142.1 E3.55646
G1 X158.626 Y157.9 E4.19233
G1 X158.586 Y158.137 E4.202
G1 X158.471 Y158.348 E4.21167
G1 X158.294 Y158.51 E4.22133
G1 X158.074 Y158.605 E4.23097
G1 X157.9 Y158.626 E4.23802
G1 X142.1 Y158.626 E4.87389
G1 X141.863 Y158.586 E4.88356
G1 X141.652 Y158.471 E4.89323
G1 X141.49 Y158.294 E4.90289
G1 X141.395 Y158.074 E4.91254
G1 X141.374 Y157.9 E4.91959
G1 X141.374 Y142.1 E5.55546
G1 X141.414 Y141.863 E5.56513
G1 X141.529 Y141.652 E5.5748
M204 S1000
G0 F10400 X141.897 Y141.968
M204 S750
G1 F4000 X142.002 Y141.879 E5.58034
G1 X142.1 Y141.858 E5.58437
G1 X157.9 Y141.858 E6.22024
G1 X158.032 Y141.897 E6.22578
G1 X158.121 Y142.002 E6.23132
G1 X158.142 Y142.1 E6.23535
G1 X158.142 Y157.9 E6.87122
G1 X158.103 Y158.032 E6.87676
G1 X157.998 Y158.121 E6.8823
G1 X157.9 Y158.142 E6.88633
G1 X142.1 Y158.142 E7.5222
G1 X141.968 Y158.103 E7.52774
G1 X141.879 Y157.998 E7.53328
G1 X141.858 Y157.9 E7.53731
G1 X141.858 Y142.1 E8.17318
G1 X141.897 Y141.968 E8.17872
M204 S1000
G1 F4000 E6.17872
;MESH:Print-Z_Test 0.20 v2.stl
G0 F10400 X142.934 Y142.934
G0 X143.71 Y143.71
M204 S750
;TYPE:WALL-INNER
G1 F4000 E8.17872
G1 F4000 X143.71 Y156.29 E8.685
G1 X156.29 Y156.29 E9.19128
G1 X156.29 Y143.71 E9.69756
G1 X143.71 Y143.71 E10.20383
M204 S1000
G0 F10400 X143.226 Y143.226
M204 S750
G1 F4000 X143.226 Y156.774 E10.74907
G1 X156.774 Y156.774 E11.29431
G1 X156.774 Y143.226 E11.83954
G1 X143.226 Y143.226 E12.38478
M204 S1000
G0 F10400 X142.742 Y142.742
M204 S750
;TYPE:WALL-OUTER
G1 F4000 X142.742 Y157.258 E12.96897
G1 X157.258 Y157.258 E13.55316
G1 X157.258 Y142.742 E14.13736
G1 X142.742 Y142.742 E14.72155
M204 S1000
G0 F10400 X143.39 Y143.39
G0 X144.15 Y144.15
M204 S750
;TYPE:SKIN
G1 F4000 X144.15 Y155.85 E15.19241
G1 X155.85 Y155.85 E15.66328
G1 X155.85 Y150 E15.89871
G1 X155.85 Y144.15 E16.13414
G1 X144.15 Y144.15 E16.60501
M204 S1000
G0 F10400 X155.607 Y144.655
M204 S750
G1 F4000 X155.344 Y144.392 E16.61997
M204 S1000
G0 F10400 X154.659 Y144.392
M204 S750
G1 F4000 X155.607 Y145.34 E16.67393
M204 S1000
G0 F10400 X155.607 Y146.024
M204 S750
G1 F4000 X153.975 Y144.392 E16.76681
M204 S1000
G0 F10400 X153.29 Y144.392
M204 S750
G1 F4000 X155.607 Y146.709 E16.89869
M204 S1000
G0 F10400 X155.607 Y147.393
M204 S750
G1 F4000 X152.606 Y144.392 E17.06949
M204 S1000
G0 F10400 X151.921 Y144.392
M204 S750
G1 F4000 X155.607 Y148.078 E17.27927
M204 S1000
G0 F10400 X155.607 Y148.762
M204 S750
G1 F4000 X151.237 Y144.392 E17.52799
M204 S1000
G0 F10400 X150.552 Y144.392
M204 S750
G1 F4000 X155.607 Y149.447 E17.8157
M204 S1000
G0 F10400 X155.607 Y150.131
M204 S750
G1 F4000 X149.868 Y144.392 E18.14233
M204 S1000
G0 F10400 X149.183 Y144.392
M204 S750
G1 F4000 X155.607 Y150.815 E18.50792
M204 S1000
G0 F10400 X155.607 Y151.5
M204 S750
G1 F4000 X148.499 Y144.392 E18.91247
M204 S1000
G0 F10400 X147.815 Y144.392
M204 S750
G1 F4000 X155.607 Y152.184 E19.35595
M204 S1000
G0 F10400 X155.607 Y152.869
M204 S750
G1 F4000 X147.13 Y144.392 E19.83841
M204 S1000
G0 F10400 X146.446 Y144.392
M204 S750
G1 F4000 X155.607 Y153.553 E20.35981
M204 S1000
G0 F10400 X155.607 Y154.238
M204 S750
G1 F4000 X145.761 Y144.392 E20.92019
M204 S1000
G0 F10400 X145.077 Y144.392
M204 S750
G1 F4000 X155.607 Y154.922 E21.5195
M204 S1000
G0 F10400 X155.607 Y155.607
M204 S750
G1 F4000 X144.391 Y144.391 E22.15786
M204 S1000
G0 F10400 X144.391 Y145.076
M204 S750
G1 F4000 X154.922 Y155.607 E22.75723
M204 S1000
G0 F10400 X154.238 Y155.607
M204 S750
G1 F4000 X144.391 Y145.76 E23.31767
M204 S1000
G0 F10400 X144.391 Y146.445
M204 S750
G1 F4000 X153.553 Y155.607 E23.83912
M204 S1000
G0 F10400 X152.869 Y155.607
M204 S750
G1 F4000 X144.391 Y147.129 E24.32164
M204 S1000
G0 F10400 X144.391 Y147.814
M204 S750
G1 F4000 X152.184 Y155.607 E24.76518
M204 S1000
G0 F10400 X151.5 Y155.607
M204 S750
G1 F4000 X144.391 Y148.498 E25.16978
M204 S1000
G0 F10400 X144.391 Y149.183
M204 S750
G1 F4000 X150.815 Y155.607 E25.5354
M204 S1000
G0 F10400 X150.131 Y155.607
M204 S750
G1 F4000 X144.391 Y149.867 E25.86209
M204 S1000
G0 F10400 X144.391 Y150.552
M204 S750
G1 F4000 X149.447 Y155.607 E26.14983
M204 S1000
G0 F10400 X148.762 Y155.607
M204 S750
G1 F4000 X144.391 Y151.236 E26.3986
M204 S1000
G0 F10400 X144.391 Y151.921
M204 S750
G1 F4000 X148.078 Y155.607 E26.60842
M204 S1000
G0 F10400 X147.393 Y155.607
M204 S750
G1 F4000 X144.391 Y152.605 E26.77927
M204 S1000
G0 F10400 X144.391 Y153.29
M204 S750
G1 F4000 X146.709 Y155.607 E26.91117
M204 S1000
G0 F10400 X146.024 Y155.607
M204 S750
G1 F4000 X144.391 Y153.974 E27.00412
M204 S1000
G0 F10400 X144.391 Y154.659
M204 S750
G1 F4000 X145.34 Y155.607 E27.0581
M204 S1000
G0 F10400 X144.655 Y155.607
M204 S750
G1 F4000 X144.391 Y155.343 E27.07313
;TIME_ELAPSED:16.074771
G1 F4000 E25.07313
M204 S4000
M82 ;absolute extrusion mode
M104 S0
;End of Gcode
;SETTING_3 {"global_quality": "[general]\\nversion = 4\\nname = 0.2mm PLA custom
;SETTING_3  prime\\ndefinition = makertech_proforge_35\\n\\n[metadata]\\ntype = 
;SETTING_3 quality_changes\\nquality_type = normal\\nsetting_version = 20\\n\\n[
;SETTING_3 values]\\nlayer_height_0 = 0.2\\n\\n", "extruder_quality": ["[general
;SETTING_3 ]\\nversion = 4\\nname = 0.2mm PLA custom prime\\ndefinition = makert
;SETTING_3 ech_proforge_35\\n\\n[metadata]\\ntype = quality_changes\\nquality_ty
;SETTING_3 pe = normal\\nposition = 0\\nintent_category = default\\nsetting_vers
;SETTING_3 ion = 20\\n\\n[values]\\nspeed_layer_0 = 80.0\\nspeed_travel = 130.0\
;SETTING_3 \n\\n", "[general]\\nversion = 4\\nname = 0.2mm PLA custom prime\\nde
;SETTING_3 finition = makertech_base\\n\\n[metadata]\\ntype = quality_changes\\n
;SETTING_3 quality_type = normal\\nposition = 1\\nintent_category = default\\nse
;SETTING_3 tting_version = 20\\n\\n[values]\\n\\n"]}
