;FLAVOR:Marlin
;TIME:12
;Filament used: 0m, 0.0188028m
;Layer height: 0.2
;MINX:142.7
;MINY:142.7
;MINZ:0.2
;MAXX:157.3
;MAXY:157.3
;MAXZ:0.2
;Generated with Cura_SteamEngine 5.2.2
T1; Use Nozzle 2 for printing
G92 E0
M104 S200
M105
M109 S200
M82 ;absolute extrusion mode
;----------Proforge 3.5 Start G-code---------- 
M190 S60 ;wait for bed temp 
G28 ;Home 
Z_TILT_ADJUST
G28 ; Home again
BED_MESH_PROFILE LOAD=mesh_60c
M220 S40
G0 F8000 X150 Y25 Z0.8; Move the nozzle to the front edge.
G1 F4000 X280 E20; Prime the nozzle.
M82 ;absolute extrusion mode 
; ----------Proforge 3.5 Start G-code----------
G92 E0
G1 F1500 E-6.5
;LAYER_COUNT:1
;LAYER:0
M107
;MESH:Print-Z_Test 0.20 v2.stl
G0 F9000 X143.1 Y143.1 Z0.2
;TYPE:WALL-INNER
G1 F1500 E0
G1 F4800 X143.1 Y156.9 E0.45899
G1 X156.9 Y156.9 E0.91798
G1 X156.9 Y143.1 E1.37697
G1 X143.1 Y143.1 E1.83596
G0 F9000 X142.7 Y142.7
;TYPE:WALL-OUTER
G1 F4800 X142.7 Y157.3 E2.32156
G1 X157.3 Y157.3 E2.80716
G1 X157.3 Y142.7 E3.29275
G1 X142.7 Y142.7 E3.77835
G0 F9000 X142.7 Y142.9
G0 X143.48 Y143.48
;TYPE:SKIN
G1 F4800 X143.48 Y156.52 E4.21206
G1 X156.52 Y156.52 E4.64578
G1 X156.52 Y143.48 E5.07949
G1 X143.48 Y143.48 E5.5132
G0 F9000 X156.319 Y143.874
G1 F4800 X156.125 Y143.68 E5.52233
G0 F9000 X155.559 Y143.68
G1 F4800 X156.319 Y144.439 E5.55805
G0 F9000 X156.319 Y145.005
G1 F4800 X154.994 Y143.68 E5.62037
G0 F9000 X154.428 Y143.68
G1 F4800 X156.319 Y145.571 E5.70932
G0 F9000 X156.319 Y146.137
G1 F4800 X153.862 Y143.68 E5.82489
G0 F9000 X153.297 Y143.68
G1 F4800 X156.319 Y146.702 E5.96704
G0 F9000 X156.319 Y147.268
G1 F4800 X152.731 Y143.68 E6.1358
G0 F9000 X152.165 Y143.68
G1 F4800 X156.319 Y147.834 E6.3312
G0 F9000 X156.319 Y148.399
G1 F4800 X151.6 Y143.68 E6.55316
G0 F9000 X151.034 Y143.68
G1 F4800 X156.319 Y148.965 E6.80175
G0 F9000 X156.319 Y149.531
G1 F4800 X150.468 Y143.68 E7.07697
G0 F9000 X149.903 Y143.68
G1 F4800 X156.319 Y150.096 E7.37876
G0 F9000 X156.319 Y150.662
G1 F4800 X149.337 Y143.68 E7.70717
G0 F9000 X148.771 Y143.68
G1 F4800 X156.319 Y151.228 E8.0622
G0 F9000 X156.319 Y151.793
G1 F4800 X148.206 Y143.68 E8.44381
G0 F9000 X147.64 Y143.68
G1 F4800 X156.319 Y152.359 E8.85205
G0 F9000 X156.319 Y152.925
G1 F4800 X147.074 Y143.68 E9.2869
G0 F9000 X146.508 Y143.68
G1 F4800 X156.319 Y153.49 E9.74836
G0 F9000 X156.319 Y154.056
G1 F4800 X145.943 Y143.68 E10.23641
G0 F9000 X145.377 Y143.68
G1 F4800 X156.319 Y154.622 E10.75109
G0 F9000 X156.319 Y155.188
G1 F4800 X144.811 Y143.68 E11.29239
G0 F9000 X144.246 Y143.68
G1 F4800 X156.319 Y155.753 E11.86027
G0 F9000 X156.319 Y156.319
G1 F4800 X143.679 Y143.679 E12.45482
G0 F9000 X143.679 Y144.245
G1 F4800 X155.753 Y156.319 E13.02274
G0 F9000 X155.188 Y156.319
G1 F4800 X143.679 Y144.811 E13.56407
G0 F9000 X143.679 Y145.376
G1 F4800 X154.622 Y156.319 E14.07879
G0 F9000 X154.056 Y156.319
G1 F4800 X143.679 Y145.942 E14.56689
G0 F9000 X143.679 Y146.508
G1 F4800 X153.49 Y156.319 E15.02837
G0 F9000 X152.925 Y156.319
G1 F4800 X143.679 Y147.073 E15.46328
G0 F9000 X143.679 Y147.639
G1 F4800 X152.359 Y156.319 E15.87156
G0 F9000 X151.793 Y156.319
G1 F4800 X143.679 Y148.205 E16.25321
G0 F9000 X143.679 Y148.771
G1 F4800 X151.228 Y156.319 E16.60827
G0 F9000 X150.662 Y156.319
G1 F4800 X143.679 Y149.336 E16.93673
G0 F9000 X143.679 Y149.902
G1 F4800 X150.096 Y156.319 E17.23857
G0 F9000 X149.531 Y156.319
G1 F4800 X143.679 Y150.468 E17.5138
G0 F9000 X143.679 Y151.033
G1 F4800 X148.965 Y156.319 E17.76244
G0 F9000 X148.399 Y156.319
G1 F4800 X143.679 Y151.599 E17.98446
G0 F9000 X143.679 Y152.165
G1 F4800 X147.834 Y156.319 E18.17987
G0 F9000 X147.268 Y156.319
G1 F4800 X143.679 Y152.73 E18.34869
G0 F9000 X143.679 Y153.296
G1 F4800 X146.702 Y156.319 E18.49088
G0 F9000 X146.137 Y156.319
G1 F4800 X143.679 Y153.862 E18.60647
G0 F9000 X143.679 Y154.427
G1 F4800 X145.571 Y156.319 E18.69547
G0 F9000 X145.005 Y156.319
G1 F4800 X143.679 Y154.993 E18.75784
G0 F9000 X143.679 Y155.559
G1 F4800 X144.439 Y156.319 E18.79358
G0 F9000 X143.874 Y156.319
G1 F4800 X143.679 Y156.124 E18.80276
G0 F9000 X143.7 Y156.124
;TIME_ELAPSED:12.863318
G1 F1500 E15
END_PRINT
M82 ;absolute extrusion mode
M104 S0
;End of Gcode
;SETTING_3 {"global_quality": "[general]\\nversion = 4\\nname = PLA_Z0.20\\ndefi
;SETTING_3 nition = custom\\n\\n[metadata]\\ntype = quality_changes\\nquality_ty
;SETTING_3 pe = draft\\nsetting_version = 20\\n\\n[values]\\nadhesion_type = non
;SETTING_3 e\\nlayer_height_0 = 0.2\\n\\n", "extruder_quality": ["[general]\\nve
;SETTING_3 rsion = 4\\nname = PLA_Z0.20\\ndefinition = custom\\n\\n[metadata]\\n
;SETTING_3 type = quality_changes\\nquality_type = draft\\nintent_category = def
;SETTING_3 ault\\nposition = 0\\nsetting_version = 20\\n\\n[values]\\nmaterial_i
;SETTING_3 nitial_print_temperature = 205.0\\nspeed_layer_0 = 80.0\\nspeed_print
;SETTING_3  = 100.0\\nspeed_topbottom = 80.0\\nspeed_travel_layer_0 = 120.0\\nsp
;SETTING_3 eed_wall = 80.0\\nspeed_wall_x = 120.0\\n\\n", "[general]\\nversion =
;SETTING_3  4\\nname = PLA_Z0.20\\ndefinition = custom\\n\\n[metadata]\\ntype = 
;SETTING_3 quality_changes\\nquality_type = draft\\nintent_category = default\\n
;SETTING_3 position = 1\\nsetting_version = 20\\n\\n[values]\\nspeed_layer_0 = 8
;SETTING_3 0.0\\nspeed_print = 100.0\\nspeed_topbottom = 80.0\\nspeed_travel = 1
;SETTING_3 50.0\\nspeed_travel_layer_0 = 150.0\\nspeed_wall = 80.0\\nspeed_wall_
;SETTING_3 x = 120.0\\n\\n"]}
