;FLAVOR:Marlin
;TIME:467
;Filament used: 0m, 0.89935m
;Layer height: 0.2
;MINX:137.285
;MINY:140.2
;MINZ:0.2
;MAXX:162.715
;MAXY:159.8
;MAXZ:12.2
;Generated with Cura_SteamEngine 5.2.2
T1
G92 E0 ; Reset the extruder motor.
M140 S60
M105
M190 S60
M104 S200
M105
M109 S200
M82 ;absolute extrusion mode
;----------Proforge 3.5 Start G-code---------- 
G28 ;Home 
; Z_TILT_ADJUST ; Level the 4 Z motors.
BED_MESH_PROFILE LOAD=mesh_60c
G0 F8000 X120 Y25 Z0.80; Move the nozzle to the front edge.
G1 F2000 X260 E20; Prime the nozzle.
; G0 Z0.2
; ----------Proforge 3.5 Start G-code----------
G92 E0
G92 E0
G1 F3000 E-6.5
;LAYER_COUNT:60
;LAYER:0
M107
G1 F600 Z1.2
;MESH:Z_PROBE-MOUNT-V10.stl
G0 F9000 X141.323 Y145.243 Z1.2
;TYPE:WALL-INNER
G1 F600 Z0.2
G1 F3000 E0
G1 F2400 X140.671 Y145.543 E0.02387
G1 X140.16 Y145.649 E0.04123
G1 X138.046 Y145.65 E0.11154
G1 X137.809 Y145.778 E0.1205
G1 X137.729 Y145.898 E0.1253
G1 X137.685 Y146.108 E0.13243
G1 X137.685 Y151.086 E0.298
G1 X137.744 Y151.425 E0.30945
G1 X137.933 Y151.963 E0.32841
G1 X138.05 Y152.173 E0.33641
G1 X138.414 Y152.63 E0.35584
G1 X145.224 Y159.399 E0.6752
G1 X160.11 Y159.399 E1.17031
G1 X160.761 Y159.24 E1.1926
G1 X161.285 Y158.966 E1.21227
G1 X161.492 Y158.804 E1.22101
G1 X161.882 Y158.366 E1.24051
G1 X162.161 Y157.842 E1.26026
G1 X162.236 Y157.6 E1.26869
G1 X162.315 Y156.968 E1.28987
G1 X162.315 Y142.804 E1.76097
G1 X162.155 Y142.154 E1.78323
G1 X161.881 Y141.631 E1.80287
G1 X161.718 Y141.423 E1.81166
G1 X161.281 Y141.032 E1.83116
G1 X160.757 Y140.754 E1.85089
G1 X160.515 Y140.679 E1.85932
G1 X159.883 Y140.6 E1.8805
G1 X142.886 Y140.6 E2.44582
G1 X142.704 Y140.676 E2.45238
G1 X142.595 Y140.784 E2.45749
G1 X142.515 Y140.981 E2.46456
G1 X142.516 Y143.32 E2.54235
G1 X142.288 Y144.132 E2.57041
G1 X141.885 Y144.755 E2.59508
G1 X141.323 Y145.243 E2.61984
G0 F9000 X141.447 Y145.515
G0 X141.015 Y148.286
G0 X141.359 Y148.286
G1 F2400 X141.453 Y148.13 E2.6259
G1 X147.111 Y142.47 E2.89208
G1 X147.651 Y142.063 E2.91457
G1 X148.082 Y141.884 E2.93009
G1 X148.662 Y141.756 E2.94985
G1 X149.187 Y141.761 E2.96731
G1 X149.823 Y141.9 E2.98896
G1 X150.557 Y142.307 E3.01688
G1 X156.393 Y148.144 E3.29141
G1 X156.515 Y148.431 E3.30178
G1 X156.515 Y150.025 E3.3548
G1 X156.493 Y150.569 E3.37291
G1 X156.42 Y151.195 E3.39387
G1 X156.3 Y151.796 E3.41425
G1 X156.149 Y152.33 E3.43271
G1 X155.928 Y152.927 E3.45388
G1 X155.679 Y153.467 E3.47366
G1 X155.385 Y153.987 E3.49353
G1 X155.081 Y154.444 E3.51178
G1 X154.712 Y154.915 E3.53168
G1 X154.307 Y155.355 E3.55157
G1 X153.835 Y155.793 E3.57299
G1 X153.402 Y156.134 E3.59132
G1 X152.868 Y156.492 E3.61271
G1 X152.348 Y156.781 E3.63249
G1 X151.848 Y157.011 E3.6508
G1 X151.249 Y157.236 E3.67208
G1 X150.713 Y157.385 E3.69058
G1 X150.113 Y157.506 E3.71094
G1 X149.514 Y157.578 E3.73101
G1 X148.9 Y157.6 E3.75144
G1 X148.291 Y157.575 E3.77171
G1 X147.753 Y157.512 E3.78973
G1 X147.113 Y157.384 E3.81144
G1 X146.583 Y157.234 E3.82976
G1 X145.986 Y157.013 E3.85093
G1 X145.487 Y156.784 E3.86919
G1 X144.964 Y156.493 E3.8891
G1 X144.469 Y156.165 E3.90885
G1 X143.961 Y155.765 E3.93035
G1 X143.526 Y155.358 E3.95017
G1 X143.119 Y154.918 E3.9701
G1 X142.779 Y154.485 E3.98841
G1 X142.42 Y153.951 E4.00982
G1 X142.153 Y153.472 E4.02806
G1 X141.887 Y152.89 E4.04934
G1 X141.683 Y152.335 E4.06901
G1 X141.531 Y151.801 E4.08747
G1 X141.409 Y151.193 E4.1081
G1 X141.336 Y150.576 E4.12876
G1 X141.315 Y150.021 E4.14723
G1 X141.315 Y148.515 E4.19732
G1 X141.359 Y148.286 E4.20508
G0 F9000 X141.761 Y148.386
;TYPE:WALL-OUTER
G1 F2400 X147.364 Y142.783 E4.46863
G1 X147.87 Y142.405 E4.48964
G1 X148.169 Y142.275 E4.50048
G1 X148.731 Y142.15 E4.51963
G1 X149.102 Y142.152 E4.53197
G1 X149.68 Y142.278 E4.55164
G1 X150.314 Y142.63 E4.57576
G1 X156.057 Y148.374 E4.84592
G1 X156.111 Y148.475 E4.84973
G1 X156.115 Y150.009 E4.90075
G1 X156.092 Y150.568 E4.91936
G1 X156.025 Y151.13 E4.93818
G1 X155.915 Y151.687 E4.95707
G1 X155.759 Y152.236 E4.97605
G1 X155.564 Y152.761 E4.99468
G1 X155.33 Y153.271 E5.01334
G1 X155.052 Y153.765 E5.03219
G1 X154.748 Y154.222 E5.05045
G1 X154.398 Y154.667 E5.06928
G1 X154.003 Y155.094 E5.08863
G1 X153.587 Y155.479 E5.10748
G1 X153.154 Y155.82 E5.12581
G1 X152.673 Y156.143 E5.14508
G1 X152.181 Y156.417 E5.16381
G1 X151.668 Y156.653 E5.18259
G1 X151.158 Y156.845 E5.20072
G1 X150.592 Y157.003 E5.22026
G1 X150.044 Y157.112 E5.23884
G1 X149.451 Y157.181 E5.2587
G1 X148.916 Y157.2 E5.27651
G1 X148.337 Y157.177 E5.29578
G1 X147.783 Y157.112 E5.31433
G1 X147.222 Y156.999 E5.33337
G1 X146.677 Y156.844 E5.35221
G1 X146.153 Y156.649 E5.37081
G1 X145.64 Y156.413 E5.38959
G1 X145.16 Y156.144 E5.40789
G1 X144.679 Y155.823 E5.42712
G1 X144.233 Y155.471 E5.44602
G1 X143.819 Y155.086 E5.46482
G1 X143.434 Y154.671 E5.48365
G1 X143.094 Y154.238 E5.50196
G1 X142.77 Y153.756 E5.52128
G1 X142.496 Y153.263 E5.54004
G1 X142.262 Y152.751 E5.55876
G1 X142.068 Y152.226 E5.57738
G1 X141.912 Y151.675 E5.59643
G1 X141.803 Y151.12 E5.61524
G1 X141.737 Y150.578 E5.6334
G1 X141.715 Y150.006 E5.65244
G1 X141.715 Y148.515 E5.70203
G1 X141.761 Y148.386 E5.70658
G0 F9000 X141.902 Y148.245
G0 X141.408 Y147.751
G0 X142.506 Y144.344
G0 X141.919 Y143.966
G1 F2400 X141.571 Y144.497 E5.7277
G1 X141.116 Y144.895 E5.7478
G1 X140.525 Y145.164 E5.7694
G1 X140.144 Y145.248 E5.78238
G1 X137.986 Y145.25 E5.85415
G1 X137.791 Y145.31 E5.86094
G1 X137.522 Y145.488 E5.87167
G1 X137.353 Y145.74 E5.88176
G1 X137.285 Y146.068 E5.8929
G1 X137.285 Y151.12 E6.06093
G1 X137.356 Y151.526 E6.07464
G1 X137.567 Y152.127 E6.09582
G1 X137.716 Y152.397 E6.10608
G1 X138.116 Y152.898 E6.1274
G1 X145.059 Y159.799 E6.453
G1 X160.158 Y159.799 E6.95519
G1 X160.903 Y159.617 E6.9807
G1 X161.503 Y159.304 E7.00321
G1 X161.767 Y159.097 E7.01436
G1 X162.213 Y158.596 E7.03667
G1 X162.532 Y157.997 E7.05925
G1 X162.629 Y157.684 E7.07014
G1 X162.715 Y156.992 E7.09334
G1 X162.715 Y142.756 E7.56683
G1 X162.532 Y142.012 E7.59231
G1 X162.219 Y141.413 E7.61479
G1 X162.011 Y141.148 E7.626
G1 X161.511 Y140.702 E7.64828
G1 X160.912 Y140.383 E7.67085
G1 X160.599 Y140.286 E7.68175
G1 X159.907 Y140.2 E7.70494
G1 X142.806 Y140.2 E8.27373
G1 X142.478 Y140.336 E8.28554
G1 X142.254 Y140.558 E8.29602
G1 X142.115 Y140.904 E8.30843
G1 X142.116 Y143.265 E8.38695
G1 X141.919 Y143.966 E8.41117
G0 F9000 X141.81 Y144.133
G0 X142.399 Y144.512
G0 X141.522 Y145.572
;TYPE:SKIN
G1 F2400 X140.812 Y145.896 E8.43713
G1 X140.256 Y146.022 E8.45609
G1 X138.109 Y146.03 E8.5275
G1 X138.065 Y146.162 E8.53213
G1 X138.066 Y151.054 E8.69484
G1 X138.116 Y151.329 E8.70413
G1 X138.31 Y151.887 E8.72378
G1 X138.698 Y152.375 E8.74452
G1 X145.382 Y159.019 E9.05797
G1 X160.06 Y159.018 E9.54617
G1 X160.628 Y158.88 E9.56561
G1 X161.162 Y158.601 E9.58565
G1 X161.567 Y158.149 E9.60583
G1 X161.85 Y157.619 E9.62582
G1 X161.935 Y156.942 E9.64851
G1 X161.935 Y142.854 E10.11708
G1 X161.796 Y142.288 E10.13646
G1 X161.516 Y141.753 E10.15655
G1 X161.065 Y141.347 E10.17673
G1 X160.536 Y141.064 E10.19668
G1 X159.857 Y140.98 E10.21944
G1 F2424.2 X149.122 Y140.976 E10.57292
G1 F2412.1 X148.547 Y140.982 E10.59195
G1 F2388.1 X142.979 Y140.98 E10.77807
G1 F2400 X142.896 Y141.033 E10.78134
G1 X142.896 Y143.377 E10.8593
G1 X142.67 Y144.175 E10.88689
G1 X142.57 Y144.394 E10.8949
G1 X142.165 Y145.017 E10.91961
G1 X141.522 Y145.572 E10.94786
G0 F9000 X140.998 Y148.177
G1 F2400 X141.142 Y147.902 E10.95819
G1 X146.859 Y142.185 E11.2271
G1 X147.467 Y141.726 E11.25243
G1 X147.997 Y141.513 E11.27143
G1 F2394 X148.599 Y141.38 E11.29199
G1 F2400 X149.174 Y141.371 E11.31112
G1 F2418.1 X149.96 Y141.539 E11.33765
G1 F2406 X150.789 Y142.001 E11.36913
G1 F2400 X156.679 Y147.894 E11.64625
G1 X156.895 Y148.359 E11.66331
G1 X156.895 Y150.04 E11.71922
G1 X156.872 Y150.599 E11.73782
G1 X156.794 Y151.265 E11.76013
G1 X156.686 Y151.821 E11.77897
G1 X156.513 Y152.439 E11.80031
G1 X156.296 Y153.032 E11.82131
G1 X156.018 Y153.64 E11.84355
G1 X155.702 Y154.198 E11.86488
G1 X155.389 Y154.669 E11.88369
G1 X154.96 Y155.209 E11.90662
G1 X154.578 Y155.623 E11.92536
G1 X154.119 Y156.051 E11.94623
G1 X153.626 Y156.44 E11.96712
G1 X153.052 Y156.826 E11.99013
G1 X152.564 Y157.098 E12.00871
G1 X151.943 Y157.383 E12.03144
G1 X151.368 Y157.598 E12.05185
G1 X150.801 Y157.755 E12.07142
G1 X150.187 Y157.879 E12.09226
G1 X149.544 Y157.956 E12.11379
G1 X148.888 Y157.98 E12.13563
G1 X148.307 Y157.957 E12.15497
G1 X147.629 Y157.877 E12.17767
G1 X147.008 Y157.752 E12.19874
G1 X146.464 Y157.595 E12.21757
G1 X145.826 Y157.359 E12.2402
G1 X145.313 Y157.123 E12.25898
G1 X144.765 Y156.816 E12.27987
G1 X144.24 Y156.47 E12.30079
G1 X143.7 Y156.042 E12.3237
G1 X143.287 Y155.659 E12.34244
G1 X142.818 Y155.152 E12.36541
G1 X142.47 Y154.707 E12.3842
G1 X142.094 Y154.147 E12.40663
G1 X141.812 Y153.642 E12.42587
G1 X141.53 Y153.023 E12.44849
G1 X141.336 Y152.506 E12.46686
G1 X141.161 Y151.892 E12.4881
G1 X141.037 Y151.271 E12.50916
G1 X140.961 Y150.656 E12.52977
G1 X140.935 Y150.038 E12.55034
G1 X140.935 Y148.521 E12.6008
G1 X140.998 Y148.177 E12.61243
G0 F9000 X141.105 Y152.418
G1 F2400 X138.265 Y149.579 E12.74599
G0 F9000 X138.265 Y150.144
G1 F2400 X141.45 Y153.329 E12.8958
G1 X141.52 Y153.399
G0 F9000 X142.162 Y154.607
G1 F2400 X138.265 Y150.71 E13.07911
G0 F9000 X138.332 Y151.343
G1 F2400 X145.806 Y158.817 E13.43066
G0 F9000 X146.372 Y158.817
G1 F2400 X144.309 Y156.754 E13.5277
G1 X144.239 Y156.684
G0 F9000 X145.591 Y157.471
G1 F2400 X146.938 Y158.817 E13.59103
G0 F9000 X147.503 Y158.817
G1 F2400 X146.498 Y157.812 E13.6383
G0 F9000 X147.257 Y158.005
G1 F2400 X148.069 Y158.817 E13.6765
G0 F9000 X148.635 Y158.817
G1 F2400 X147.931 Y158.114 E13.70959
G0 F9000 X148.548 Y158.165
G1 F2400 X149.2 Y158.817 E13.74026
G0 F9000 X149.766 Y158.817
G1 F2400 X149.12 Y158.171 E13.77064
G0 F9000 X149.659 Y158.144
G1 F2400 X150.332 Y158.817 E13.8023
G0 F9000 X150.898 Y158.817
G1 F2400 X150.162 Y158.082 E13.83689
G0 F9000 X150.637 Y157.991
G1 F2400 X151.463 Y158.817 E13.87575
G0 F9000 X152.029 Y158.817
G1 F2400 X151.092 Y157.88 E13.91982
G0 F9000 X151.528 Y157.751
G1 F2400 X152.595 Y158.817 E13.96998
G0 F9000 X153.16 Y158.817
G1 F2400 X151.94 Y157.597 E14.02737
G0 F9000 X152.332 Y157.423
G1 F2400 X153.726 Y158.817 E14.09294
G0 F9000 X154.292 Y158.817
G1 F2400 X152.717 Y157.242 E14.16702
G0 F9000 X153.08 Y157.039
G1 F2400 X154.857 Y158.817 E14.25063
G0 F9000 X155.423 Y158.817
G1 F2400 X153.423 Y156.817 E14.3447
G0 F9000 X153.761 Y156.589
G1 F2400 X155.989 Y158.817 E14.4495
G0 F9000 X156.554 Y158.817
G1 F2400 X154.076 Y156.339 E14.56606
G0 F9000 X154.382 Y156.079
G1 F2400 X157.12 Y158.817 E14.69485
G0 F9000 X157.686 Y158.817
G1 F2400 X154.675 Y155.806 E14.83648
G0 F9000 X154.948 Y155.513
G1 F2400 X158.251 Y158.817 E14.99186
G0 F9000 X158.817 Y158.817
G1 F2400 X155.212 Y155.212 E15.16143
G0 F9000 X155.461 Y154.895
G1 F2400 X159.383 Y158.817 E15.34591
G0 F9000 X159.948 Y158.817
G1 F2400 X155.697 Y154.565 E15.54589
G0 F9000 X155.917 Y154.22
G1 F2400 X160.42 Y158.723 E15.75769
G0 F9000 X160.817 Y158.554
G1 F2400 X156.121 Y153.858 E15.97858
G0 F9000 X156.308 Y153.48
G1 F2400 X161.134 Y158.306 E16.20558
G0 F9000 X161.411 Y158.017
G1 F2400 X156.486 Y153.092 E16.43724
G0 F9000 X156.637 Y152.677
G1 F2400 X161.607 Y157.647 E16.67101
G0 F9000 X161.703 Y157.177
G1 F2400 X156.774 Y152.248 E16.90286
G0 F9000 X156.891 Y151.8
G1 F2400 X161.734 Y156.643 E17.13066
G0 F9000 X161.734 Y156.077
G1 F2400 X156.984 Y151.327 E17.35408
G0 F9000 X157.046 Y150.823
G1 F2400 X161.734 Y155.511 E17.57459
G0 F9000 X161.734 Y154.946
G1 F2400 X157.083 Y150.294 E17.79338
G0 F9000 X157.093 Y149.739
G1 F2400 X161.734 Y154.38 E18.01168
G0 F9000 X161.734 Y153.814
G1 F2400 X157.093 Y149.174 E18.22996
G0 F9000 X157.093 Y148.608
G1 F2400 X161.734 Y153.249 E18.44825
G0 F9000 X161.734 Y152.683
G1 F2400 X156.834 Y147.783 E18.67873
G1 X156.764 Y147.713
G0 F9000 X161.734 Y147.592
G1 F2400 X155.32 Y141.178 E18.98043
G0 F9000 X154.755 Y141.178
G1 F2400 X161.734 Y148.157 E19.3087
G0 F9000 X161.734 Y148.723
G1 F2400 X154.189 Y141.178 E19.66359
G0 F9000 X153.623 Y141.178
G1 F2400 X161.734 Y149.289 E20.04511
G0 F9000 X161.734 Y149.855
G1 F2400 X153.058 Y141.178 E20.45323
G0 F9000 X152.491 Y141.178
G1 F2400 X161.734 Y150.42 E20.88797
G0 F9000 X161.734 Y150.986
G1 F2400 X151.926 Y141.178 E21.3493
G0 F9000 X151.36 Y141.178
G1 F2400 X161.734 Y151.552 E21.83726
G0 F9000 X161.734 Y152.117
G1 F2400 X150.794 Y141.178 E22.35183
G0 F9000 X150.229 Y141.178
G1 F2400 X150.865 Y141.814 E22.38174
G1 X150.935 Y141.884
G0 F9000 X149.78 Y141.295
G1 F2400 X149.663 Y141.178 E22.38724
G0 F9000 X148.076 Y141.288
G1 F2400 X147.971 Y141.183 E22.39218
G0 F9000 X147.656 Y141.434
G1 F2400 X147.405 Y141.183 E22.40399
G0 F9000 X147.275 Y141.618
G1 F2400 X146.839 Y141.183 E22.42447
G0 F9000 X146.273 Y141.182
G1 F2400 X146.953 Y141.862 E22.45646
G0 F9000 X146.643 Y142.117
G1 F2400 X145.707 Y141.182 E22.50046
G0 F9000 X145.141 Y141.181
G1 F2400 X146.36 Y142.4 E22.5578
G0 F9000 X146.077 Y142.683
G1 F2400 X144.575 Y141.181 E22.62845
G0 F9000 X144.009 Y141.18
G1 F2400 X145.794 Y142.966 E22.71243
G0 F9000 X145.511 Y143.249
G1 F2400 X143.443 Y141.18 E22.80973
G0 F9000 X143.095 Y141.398
G1 F2400 X145.229 Y143.532 E22.91011
G0 F9000 X144.946 Y143.814
G1 F2400 X143.095 Y141.963 E22.99717
G0 F9000 X143.095 Y142.529
G1 F2400 X144.663 Y144.097 E23.07093
G0 F9000 X144.38 Y144.38
G1 F2400 X143.095 Y143.095 E23.13137
G0 F9000 X143.039 Y143.604
G1 F2400 X144.097 Y144.663 E23.18116
G0 F9000 X143.814 Y144.946
G1 F2400 X142.915 Y144.046 E23.22347
G0 F9000 X142.759 Y144.456
G1 F2400 X143.532 Y145.229 E23.25983
G0 F9000 X143.249 Y145.511
G1 F2400 X142.542 Y144.804 E23.29308
G0 F9000 X142.319 Y145.147
G1 F2400 X142.966 Y145.794 E23.32351
G0 F9000 X142.683 Y146.077
G1 F2400 X142.016 Y145.41 E23.35489
G0 F9000 X141.712 Y145.672
G1 F2400 X142.4 Y146.36 E23.38725
G0 F9000 X142.117 Y146.643
G1 F2400 X141.346 Y145.871 E23.42354
G0 F9000 X140.957 Y146.048
G1 F2400 X141.835 Y146.926 E23.46484
G0 F9000 X141.552 Y147.209
G1 F2400 X140.512 Y146.169 E23.51376
G0 F9000 X139.999 Y146.221
G1 F2400 X141.269 Y147.491 E23.57349
G0 F9000 X140.986 Y147.774
G1 F2400 X139.435 Y146.224 E23.64642
G0 F9000 X138.872 Y146.226
G1 F2400 X140.804 Y148.157 E23.73727
G0 F9000 X140.735 Y148.655
G1 F2400 X138.308 Y146.228 E23.85143
G0 F9000 X138.264 Y146.75
G1 F2400 X140.735 Y149.22 E23.96764
G0 F9000 X140.735 Y149.786
G1 F2400 X138.264 Y147.315 E24.08387
G0 F9000 X138.264 Y147.881
G1 F2400 X140.749 Y150.366 E24.20075
G0 F9000 X140.799 Y150.982
G1 F2400 X138.264 Y148.447 E24.31999
G0 F9000 X138.265 Y149.013
G1 F2400 X140.91 Y151.658 E24.4444
G1 X140.98 Y151.728
G0 F9000 X141.079 Y148.169
G0 X146.953 Y142.289
G0 X147.944 Y141.671
G0 X155.886 Y141.178
G1 F2400 X161.734 Y147.026 E24.71948
G0 F9000 X161.734 Y146.46
G1 F2400 X156.453 Y141.179 E24.96788
G0 F9000 X157.018 Y141.179
G1 F2400 X161.734 Y145.895 E25.1897
G0 F9000 X161.734 Y145.329
G1 F2400 X157.584 Y141.179 E25.38491
G0 F9000 X158.15 Y141.179
G1 F2400 X161.734 Y144.763 E25.55349
G0 F9000 X161.734 Y144.198
G1 F2400 X158.715 Y141.179 E25.69549
G0 F9000 X159.281 Y141.179
G1 F2400 X161.734 Y143.632 E25.81087
G0 F9000 X161.734 Y143.066
G1 F2400 X159.847 Y141.18 E25.89961
G0 F9000 X160.512 Y141.279
G1 F2400 X161.611 Y142.378 E25.9513
G1 X161.681 Y142.448
G0 F9000 X161.614 Y142.462
;MESH:NONMESH
G0 F600 X161.614 Y142.462 Z0.4
G0 F9000 X148.677 Y141.509
G0 X147.944 Y141.671
G0 X141.444 Y145.516
G0 X141.32 Y145.244
;TIME_ELAPSED:26.508551
;LAYER:1
M106 S255
;TYPE:WALL-INNER
;MESH:Z_PROBE-MOUNT-V10.stl
G1 F4800 X140.727 Y145.515 E25.97299
G1 X140.178 Y145.65 E25.99179
G1 X138.045 Y145.65 E26.06274
G1 X137.811 Y145.776 E26.07158
G1 X137.727 Y145.9 E26.07656
G1 X137.686 Y146.099 E26.08332
G1 X137.685 Y151.086 E26.24918
G1 X137.745 Y151.43 E26.2608
G1 X137.927 Y151.948 E26.27906
G1 X138.278 Y152.494 E26.30065
G1 X145.224 Y159.399 E26.6264
G1 X160.083 Y159.4 E27.12062
G1 X160.767 Y159.238 E27.14399
G1 X161.289 Y158.964 E27.1636
G1 X161.491 Y158.805 E27.17215
G1 X161.884 Y158.363 E27.19183
G1 X162.153 Y157.85 E27.21109
G1 X162.314 Y157.174 E27.2342
